( Made using CamBam - http://www.cambam.co.uk )
( HomeSensor 4/26/2015 11:06:40 AM )
( T0 : 2.5 )
G21 G90 G61 G40   (Exact Stop)
G0 Z3.0
( T0 : 2.5 )
T0 M6
( Case - level all  -3 )
G17
M3 S1000
G0 X18.25 Y18.25
G1 F300.0 Z-1.0
G1 F800.0 Y24.75
G1 X18.75
G1 Y18.25
G1 X18.25
G1 F300.0 X17.25
G1 F800.0 Y25.75
G1 X19.75
G1 Y17.25
G1 X17.25
G1 Y18.25
G1 F300.0 X16.25
G1 F800.0 Y26.75
G1 X20.75
G1 Y16.25
G1 X16.25
G1 Y18.25
G1 F300.0 X15.25
G1 F800.0 Y27.75
G1 X21.75
G1 Y15.25
G1 X15.25
G1 Y18.25
G1 F300.0 X14.25
G1 F800.0 Y28.75
G1 X22.75
G1 Y14.25
G1 X14.25
G1 Y18.25
G1 F300.0 X13.25
G1 F800.0 Y29.75
G1 X23.75
G1 Y13.25
G1 X13.25
G1 Y18.25
G1 F300.0 X12.25
G1 F800.0 Y30.75
G1 X24.75
G1 Y12.25
G1 X12.25
G1 Y18.25
G1 F300.0 X11.25
G1 F800.0 Y31.75
G1 X25.75
G1 Y11.25
G1 X11.25
G1 Y18.25
G1 F300.0 X10.25
G1 F800.0 Y32.75
G1 X26.75
G1 Y10.25
G1 X10.25
G1 Y18.25
G1 F300.0 X9.25
G1 F800.0 Y33.75
G1 X27.75
G1 Y9.25
G1 X9.25
G1 Y18.25
G1 F300.0 X8.25
G1 F800.0 Y34.75
G1 X28.75
G1 Y8.25
G1 X8.25
G1 Y18.25
G1 F300.0 X7.25
G1 F800.0 Y35.75
G1 X29.75
G1 Y7.25
G1 X7.25
G1 Y18.25
G1 F300.0 X6.25
G1 F800.0 Y36.75
G1 X30.75
G1 Y6.25
G1 X6.25
G1 Y18.25
G1 F300.0 X5.25
G1 F800.0 Y37.75
G1 X31.75
G1 Y5.25
G1 X5.25
G1 Y18.25
G1 F300.0 X4.25
G1 F800.0 Y38.75
G1 X32.75
G1 Y4.25
G1 X4.25
G1 Y18.25
G1 F300.0 X3.25
G1 F800.0 Y39.75
G1 X33.75
G1 Y3.25
G1 X3.25
G1 Y18.25
G0 Z3.0
G0 X18.25
G1 F300.0 Z-2.0
G1 F800.0 Y24.75
G1 X18.75
G1 Y18.25
G1 X18.25
G1 F300.0 X17.25
G1 F800.0 Y25.75
G1 X19.75
G1 Y17.25
G1 X17.25
G1 Y18.25
G1 F300.0 X16.25
G1 F800.0 Y26.75
G1 X20.75
G1 Y16.25
G1 X16.25
G1 Y18.25
G1 F300.0 X15.25
G1 F800.0 Y27.75
G1 X21.75
G1 Y15.25
G1 X15.25
G1 Y18.25
G1 F300.0 X14.25
G1 F800.0 Y28.75
G1 X22.75
G1 Y14.25
G1 X14.25
G1 Y18.25
G1 F300.0 X13.25
G1 F800.0 Y29.75
G1 X23.75
G1 Y13.25
G1 X13.25
G1 Y18.25
G1 F300.0 X12.25
G1 F800.0 Y30.75
G1 X24.75
G1 Y12.25
G1 X12.25
G1 Y18.25
G1 F300.0 X11.25
G1 F800.0 Y31.75
G1 X25.75
G1 Y11.25
G1 X11.25
G1 Y18.25
G1 F300.0 X10.25
G1 F800.0 Y32.75
G1 X26.75
G1 Y10.25
G1 X10.25
G1 Y18.25
G1 F300.0 X9.25
G1 F800.0 Y33.75
G1 X27.75
G1 Y9.25
G1 X9.25
G1 Y18.25
G1 F300.0 X8.25
G1 F800.0 Y34.75
G1 X28.75
G1 Y8.25
G1 X8.25
G1 Y18.25
G1 F300.0 X7.25
G1 F800.0 Y35.75
G1 X29.75
G1 Y7.25
G1 X7.25
G1 Y18.25
G1 F300.0 X6.25
G1 F800.0 Y36.75
G1 X30.75
G1 Y6.25
G1 X6.25
G1 Y18.25
G1 F300.0 X5.25
G1 F800.0 Y37.75
G1 X31.75
G1 Y5.25
G1 X5.25
G1 Y18.25
G1 F300.0 X4.25
G1 F800.0 Y38.75
G1 X32.75
G1 Y4.25
G1 X4.25
G1 Y18.25
G1 F300.0 X3.25
G1 F800.0 Y39.75
G1 X33.75
G1 Y3.25
G1 X3.25
G1 Y18.25
G0 Z3.0
G0 X18.25
G1 F300.0 Z-3.0
G1 F800.0 Y24.75
G1 X18.75
G1 Y18.25
G1 X18.25
G1 F300.0 X17.25
G1 F800.0 Y25.75
G1 X19.75
G1 Y17.25
G1 X17.25
G1 Y18.25
G1 F300.0 X16.25
G1 F800.0 Y26.75
G1 X20.75
G1 Y16.25
G1 X16.25
G1 Y18.25
G1 F300.0 X15.25
G1 F800.0 Y27.75
G1 X21.75
G1 Y15.25
G1 X15.25
G1 Y18.25
G1 F300.0 X14.25
G1 F800.0 Y28.75
G1 X22.75
G1 Y14.25
G1 X14.25
G1 Y18.25
G1 F300.0 X13.25
G1 F800.0 Y29.75
G1 X23.75
G1 Y13.25
G1 X13.25
G1 Y18.25
G1 F300.0 X12.25
G1 F800.0 Y30.75
G1 X24.75
G1 Y12.25
G1 X12.25
G1 Y18.25
G1 F300.0 X11.25
G1 F800.0 Y31.75
G1 X25.75
G1 Y11.25
G1 X11.25
G1 Y18.25
G1 F300.0 X10.25
G1 F800.0 Y32.75
G1 X26.75
G1 Y10.25
G1 X10.25
G1 Y18.25
G1 F300.0 X9.25
G1 F800.0 Y33.75
G1 X27.75
G1 Y9.25
G1 X9.25
G1 Y18.25
G1 F300.0 X8.25
G1 F800.0 Y34.75
G1 X28.75
G1 Y8.25
G1 X8.25
G1 Y18.25
G1 F300.0 X7.25
G1 F800.0 Y35.75
G1 X29.75
G1 Y7.25
G1 X7.25
G1 Y18.25
G1 F300.0 X6.25
G1 F800.0 Y36.75
G1 X30.75
G1 Y6.25
G1 X6.25
G1 Y18.25
G1 F300.0 X5.25
G1 F800.0 Y37.75
G1 X31.75
G1 Y5.25
G1 X5.25
G1 Y18.25
G1 F300.0 X4.25
G1 F800.0 Y38.75
G1 X32.75
G1 Y4.25
G1 X4.25
G1 Y18.25
G1 F300.0 X3.25
G1 F800.0 Y39.75
G1 X33.75
G1 Y3.25
G1 X3.25
G1 Y18.25
( Case - inside level all  -4.5 )
S1000
G0 Z3.0
G0 X18.25
G1 F300.0 Z-4.0
G1 F800.0 Y24.75
G1 X18.75
G1 Y18.25
G1 X18.25
G1 F300.0 X17.25
G1 F800.0 Y25.75
G1 X19.75
G1 Y17.25
G1 X17.25
G1 Y18.25
G1 F300.0 X16.25
G1 F800.0 Y26.75
G1 X20.75
G1 Y16.25
G1 X16.25
G1 Y18.25
G1 F300.0 X15.25
G1 F800.0 Y27.75
G1 X21.75
G1 Y15.25
G1 X15.25
G1 Y18.25
G1 F300.0 X14.25
G1 F800.0 Y28.75
G1 X22.75
G1 Y14.25
G1 X14.25
G1 Y18.25
G1 F300.0 X13.25
G1 F800.0 Y29.75
G1 X23.75
G1 Y13.25
G1 X13.25
G1 Y18.25
G1 F300.0 X12.25
G1 F800.0 Y30.75
G1 X24.75
G1 Y12.25
G1 X12.25
G1 Y18.25
G1 F300.0 X11.25
G1 F800.0 Y31.75
G1 X25.75
G1 Y11.25
G1 X11.25
G1 Y18.25
G1 F300.0 X10.25
G1 F800.0 Y32.75
G1 X26.75
G1 Y10.25
G1 X10.25
G1 Y18.25
G1 F300.0 X9.25
G1 F800.0 Y33.75
G1 X27.75
G1 Y9.25
G1 X9.25
G1 Y18.25
G1 F300.0 X8.25
G1 F800.0 Y34.75
G1 X28.75
G1 Y8.25
G1 X8.25
G1 Y18.25
G1 F300.0 X7.25
G1 F800.0 Y35.75
G1 X29.75
G1 Y7.25
G1 X7.25
G1 Y18.25
G0 Z3.0
G0 X18.25
G1 F300.0 Z-4.5
G1 F800.0 Y24.75
G1 X18.75
G1 Y18.25
G1 X18.25
G1 F300.0 X17.25
G1 F800.0 Y25.75
G1 X19.75
G1 Y17.25
G1 X17.25
G1 Y18.25
G1 F300.0 X16.25
G1 F800.0 Y26.75
G1 X20.75
G1 Y16.25
G1 X16.25
G1 Y18.25
G1 F300.0 X15.25
G1 F800.0 Y27.75
G1 X21.75
G1 Y15.25
G1 X15.25
G1 Y18.25
G1 F300.0 X14.25
G1 F800.0 Y28.75
G1 X22.75
G1 Y14.25
G1 X14.25
G1 Y18.25
G1 F300.0 X13.25
G1 F800.0 Y29.75
G1 X23.75
G1 Y13.25
G1 X13.25
G1 Y18.25
G1 F300.0 X12.25
G1 F800.0 Y30.75
G1 X24.75
G1 Y12.25
G1 X12.25
G1 Y18.25
G1 F300.0 X11.25
G1 F800.0 Y31.75
G1 X25.75
G1 Y11.25
G1 X11.25
G1 Y18.25
G1 F300.0 X10.25
G1 F800.0 Y32.75
G1 X26.75
G1 Y10.25
G1 X10.25
G1 Y18.25
G1 F300.0 X9.25
G1 F800.0 Y33.75
G1 X27.75
G1 Y9.25
G1 X9.25
G1 Y18.25
G1 F300.0 X8.25
G1 F800.0 Y34.75
G1 X28.75
G1 Y8.25
G1 X8.25
G1 Y18.25
G1 F300.0 X7.25
G1 F800.0 Y35.75
G1 X29.75
G1 Y7.25
G1 X7.25
G1 Y18.25
( Case - Inside Pocket )
S1000
G0 Z3.0
G0 X17.25 Y20.0334
G1 F300.0 Z-5.5
G1 F800.0 Y21.3983
G3 X19.75 Y23.3122 I-6.44 J11.0017
G1 Y21.8925
G3 X19.676 Y21.8501 I6.3 J-11.0825
G3 X17.25 Y20.0334 I6.374 J-11.0401
G1 F300.0 X16.25
G1 F800.0 Y21.9874
G3 X20.75 Y26.1381 I-5.44 J10.4126
G1 Y21.2945
G3 X20.176 Y20.9841 I5.3 J-10.4845
G3 X16.25 Y17.2889 I5.874 J-10.1741
G1 Y20.0334
G1 F300.0 X15.25
G1 F800.0 Y22.612
G3 X20.5 Y27.75 I-4.44 J9.788
G1 X21.75
G1 Y20.6604
G3 X20.676 Y20.118 I4.3 J-9.8504
G3 X16.262 Y15.25 I5.374 J-9.308
G1 X15.25
G1 Y20.0334
G1 F300.0 X14.25
G1 F800.0 Y23.2792
G3 X19.8489 Y28.75 I-3.44 J9.1208
G1 X22.75
G1 Y19.9824
G3 X21.176 Y19.252 I3.3 J-9.1724
G3 X16.9292 Y14.25 I4.874 J-8.442
G1 X14.25
G1 Y20.0334
G1 F300.0 X13.25
G1 F800.0 Y23.9992
G3 X19.147 Y29.75 I-2.44 J8.4008
G1 X23.75
G1 Y19.2502
G3 X21.676 Y18.386 I2.3 J-8.4402
G3 X17.6492 Y13.25 I4.374 J-7.576
G1 X13.25
G1 Y20.0334
G1 F300.0 X12.25
G1 F800.0 Y24.787
G3 X18.3803 Y30.75 I-1.44 J7.613
G1 X24.75
G1 Y18.4482
G3 X22.176 Y17.52 I1.3 J-7.6382
G3 X18.437 Y12.25 I3.874 J-6.71
G1 X12.25
G1 Y20.0334
G1 F300.0 X11.25
G1 F800.0 Y25.6664
G3 X17.5266 Y31.75 I-0.44 J6.7336
G1 X25.75
G1 Y17.5513
G3 X22.676 Y16.6539 I0.3 J-6.7413
G3 X19.3164 Y11.25 I3.374 J-5.8439
G1 X11.25
G1 Y20.0334
G1 F300.0 X10.25
G1 F800.0 Y26.6793
G3 X16.558 Y32.4 I0.56 J5.7207
G3 X16.5473 Y32.75 I-5.748 J0.0
G1 X26.75
G1 Y16.5152
G3 X23.176 Y15.7879 I-0.7 J-5.7052
G3 X20.3293 Y10.25 I2.874 J-4.9779
G1 X10.25
G1 Y20.0334
G1 F300.0 X9.25
G1 F800.0 Y27.9156
G3 X15.558 Y32.4 I1.56 J4.4844
G3 X15.362 Y33.75 I-4.748 J0.0
G1 X27.75
G1 Y15.2432
G3 X23.676 Y14.9219 I-1.7 J-4.4332
G3 X21.5656 Y9.25 I2.374 J-4.1119
G1 X9.25
G1 Y20.0334
G1 F300.0 X8.25
G1 F800.0 Y29.6625
G3 X8.936 Y29.1541 I2.56 J2.7375
G3 X14.558 Y32.4 I1.874 J3.2459
G3 X13.7298 Y34.75 I-3.748 J0.0
G1 X28.75
G1 Y13.4095
G3 X24.176 Y14.0559 I-2.7 J-2.5995
G3 X23.3125 Y8.25 I1.874 J-3.2459
G1 X8.25
G1 Y20.0334
G1 F300.0 X7.25
G1 F800.0 Y35.75
G1 X29.75
G1 Y7.25
G1 X7.25
G1 Y20.0334
G0 Z3.0
G0 X10.0492 Y29.7573
G1 F300.0 Z-5.5
G3 F800.0 X13.56 Y32.4 I0.7608 J2.6427
G3 X9.435 Y34.7816 I-2.75 J0.0
G3 Y30.0184 I1.375 J-2.3816
G3 X10.0492 Y29.7573 I1.375 J2.3816
G1 F300.0 Z-6.5
G3 F800.0 X13.56 Y32.4 I0.7608 J2.6427
G3 X9.435 Y34.7816 I-2.75 J0.0
G3 Y30.0184 I1.375 J-2.3816
G3 X10.0492 Y29.7573 I1.375 J2.3816
G0 Z3.0
G0 X24.2757 Y12.911
G1 F300.0 Z-5.5
G3 F800.0 X24.675 Y8.4284 I1.7743 J-2.101
G3 X28.8 Y10.81 I1.375 J2.3816
G3 X24.675 Y13.1916 I-2.75 J0.0
G3 X24.2757 Y12.911 I1.375 J-2.3816
G1 F300.0 Z-6.5
G3 F800.0 X24.675 Y8.4284 I1.7743 J-2.101
G3 X28.8 Y10.81 I1.375 J2.3816
G3 X24.675 Y13.1916 I-2.75 J0.0
G3 X24.2757 Y12.911 I1.375 J-2.3816
G0 Z3.0
G0 X17.825 Y20.5497
G1 F300.0 Z-6.5
G3 F800.0 X17.25 Y20.0334 I8.225 J-9.7397
G1 Y21.3983
G3 X19.75 Y23.3122 I-6.44 J11.0017
G1 Y21.8925
G3 X19.676 Y21.8501 I6.3 J-11.0825
G3 X17.825 Y20.5497 I6.374 J-11.0401
G1 F300.0 X18.4702 Y19.7856
G3 F800.0 X16.25 Y17.2889 I7.5798 J-8.9756
G1 Y21.9874
G3 X20.75 Y26.1381 I-5.44 J10.4126
G1 Y21.2945
G3 X20.176 Y20.9841 I5.3 J-10.4845
G3 X18.4702 Y19.7856 I5.874 J-10.1741
G1 F300.0 X19.1154 Y19.0216
G3 F800.0 X16.262 Y15.25 I6.9346 J-8.2116
G1 X15.25
G1 Y22.612
G3 X20.5 Y27.75 I-4.44 J9.788
G1 X21.75
G1 Y20.6604
G3 X20.676 Y20.118 I4.3 J-9.8504
G3 X19.1154 Y19.0216 I5.374 J-9.308
G1 F300.0 X19.7606 Y18.2576
G3 F800.0 X16.9292 Y14.25 I6.2894 J-7.4476
G1 X14.25
G1 Y23.2792
G3 X19.8489 Y28.75 I-3.44 J9.1208
G1 X22.75
G1 Y19.9824
G3 X21.176 Y19.252 I3.3 J-9.1724
G3 X19.7606 Y18.2576 I4.874 J-8.442
G1 F300.0 X20.4058 Y17.4936
G3 F800.0 X17.6492 Y13.25 I5.6442 J-6.6836
G1 X13.25
G1 Y23.9992
G3 X19.147 Y29.75 I-2.44 J8.4008
G1 X23.75
G1 Y19.2502
G3 X21.676 Y18.386 I2.3 J-8.4402
G3 X20.4058 Y17.4936 I4.374 J-7.576
G1 F300.0 X21.051 Y16.7296
G3 F800.0 X18.437 Y12.25 I4.999 J-5.9196
G1 X12.25
G1 Y24.787
G3 X18.3803 Y30.75 I-1.44 J7.613
G1 X24.75
G1 Y18.4482
G3 X22.176 Y17.52 I1.3 J-7.6382
G3 X21.051 Y16.7296 I3.874 J-6.71
G1 F300.0 X21.6962 Y15.9656
G3 F800.0 X19.3164 Y11.25 I4.3538 J-5.1556
G1 X11.25
G1 Y25.6664
G3 X17.5266 Y31.75 I-0.44 J6.7336
G1 X25.75
G1 Y17.5513
G3 X22.676 Y16.6539 I0.3 J-6.7413
G3 X21.6962 Y15.9656 I3.374 J-5.8439
G1 F300.0 X22.3414 Y15.2016
G3 F800.0 X20.3293 Y10.25 I3.7086 J-4.3916
G1 X10.25
G1 Y26.6793
G3 X16.558 Y32.4 I0.56 J5.7207
G3 X16.5473 Y32.75 I-5.748 J0.0
G1 X26.75
G1 Y16.5152
G3 X23.176 Y15.7879 I-0.7 J-5.7052
G3 X22.3414 Y15.2016 I2.874 J-4.9779
G1 F300.0 X22.9866 Y14.4375
G3 F800.0 X21.5656 Y9.25 I3.0634 J-3.6275
G1 X9.25
G1 Y27.9156
G3 X15.558 Y32.4 I1.56 J4.4844
G3 X15.362 Y33.75 I-4.748 J0.0
G1 X27.75
G1 Y15.2432
G3 X23.676 Y14.9219 I-1.7 J-4.4332
G3 X22.9866 Y14.4375 I2.374 J-4.1119
G1 F300.0 X23.6318 Y13.6735
G3 F800.0 X23.3125 Y8.25 I2.4182 J-2.8635
G1 X8.25
G1 Y29.6625
G3 X8.936 Y29.1541 I2.56 J2.7375
G3 X14.558 Y32.4 I1.874 J3.2459
G3 X13.7298 Y34.75 I-3.748 J0.0
G1 X28.75
G1 Y13.4095
G3 X24.176 Y14.0559 I-2.7 J-2.5995
G3 X23.6318 Y13.6735 I1.874 J-3.2459
G0 Z3.0
G0 X29.75
G1 F300.0 Z-6.5
G1 F800.0 Y7.25
G1 X7.25
G1 Y35.75
G1 X29.75
G1 Y13.6735
G0 Z3.0
G0 X28.2248 Y12.4931
G1 F300.0 Z-7.5
G3 F800.0 X24.675 Y13.1916 I-2.1748 J-1.6831
G3 Y8.4284 I1.375 J-2.3816
G3 X28.8 Y10.81 I1.375 J2.3816
G3 X28.2248 Y12.4931 I-2.75 J0.0
G0 Z3.0
G0 X19.75 Y21.8925
G1 F300.0 Z-7.5
G3 F800.0 X19.676 Y21.8501 I6.3 J-11.0825
G3 X17.25 Y20.0334 I6.374 J-11.0401
G1 Y21.3983
G3 X19.75 Y23.3122 I-6.44 J11.0017
G1 Y21.8925
G1 F300.0 X20.2442 Y21.0231
G3 F800.0 X20.176 Y20.9841 I5.8058 J-10.2131
G3 X16.25 Y17.2889 I5.874 J-10.1741
G1 Y21.9874
G3 X20.75 Y26.1381 I-5.44 J10.4126
G1 Y21.2945
G3 X20.2442 Y21.0231 I5.3 J-10.4845
G1 F300.0 X20.7384 Y20.1538
G3 F800.0 X20.676 Y20.118 I5.3116 J-9.3438
G3 X16.262 Y15.25 I5.374 J-9.308
G1 X15.25
G1 Y22.612
G3 X20.5 Y27.75 I-4.44 J9.788
G1 X21.75
G1 Y20.6604
G3 X20.7384 Y20.1538 I4.3 J-9.8504
G1 F300.0 X21.2326 Y19.2844
G3 F800.0 X21.176 Y19.252 I4.8174 J-8.4744
G3 X16.9292 Y14.25 I4.874 J-8.442
G1 X14.25
G1 Y23.2792
G3 X19.8489 Y28.75 I-3.44 J9.1208
G1 X22.75
G1 Y19.9824
G3 X21.2326 Y19.2844 I3.3 J-9.1724
G1 F300.0 X21.7268 Y18.4151
G3 F800.0 X21.676 Y18.386 I4.3232 J-7.6051
G3 X17.6492 Y13.25 I4.374 J-7.576
G1 X13.25
G1 Y23.9992
G3 X19.147 Y29.75 I-2.44 J8.4008
G1 X23.75
G1 Y19.2502
G3 X21.7268 Y18.4151 I2.3 J-8.4402
G1 F300.0 X22.221 Y17.5457
G3 F800.0 X22.176 Y17.52 I3.829 J-6.7357
G3 X18.437 Y12.25 I3.874 J-6.71
G1 X12.25
G1 Y24.787
G3 X18.3803 Y30.75 I-1.44 J7.613
G1 X24.75
G1 Y18.4482
G3 X22.221 Y17.5457 I1.3 J-7.6382
G1 F300.0 X22.7152 Y16.6764
G3 F800.0 X22.676 Y16.6539 I3.3348 J-5.8664
G3 X19.3164 Y11.25 I3.374 J-5.8439
G1 X11.25
G1 Y25.6664
G3 X17.5266 Y31.75 I-0.44 J6.7336
G1 X25.75
G1 Y17.5513
G3 X22.7152 Y16.6764 I0.3 J-6.7413
G1 F300.0 X23.2094 Y15.807
G3 F800.0 X23.176 Y15.7879 I2.8406 J-4.997
G3 X20.3293 Y10.25 I2.874 J-4.9779
G1 X10.25
G1 Y26.6793
G3 X16.558 Y32.4 I0.56 J5.7207
G3 X16.5473 Y32.75 I-5.748 J0.0
G1 X26.75
G1 Y16.5152
G3 X23.2094 Y15.807 I-0.7 J-5.7052
G1 F300.0 X23.7036 Y14.9377
G3 F800.0 X23.676 Y14.9219 I2.3464 J-4.1277
G3 X21.5656 Y9.25 I2.374 J-4.1119
G1 X9.25
G1 Y27.9156
G3 X15.558 Y32.4 I1.56 J4.4844
G3 X15.362 Y33.75 I-4.748 J0.0
G1 X27.75
G1 Y15.2432
G3 X23.7036 Y14.9377 I-1.7 J-4.4332
G1 F300.0 X24.1978 Y14.0683
G3 F800.0 X24.176 Y14.0559 I1.8522 J-3.2583
G3 X23.3125 Y8.25 I1.874 J-3.2459
G1 X8.25
G1 Y29.6625
G3 X8.936 Y29.1541 I2.56 J2.7375
G3 X14.558 Y32.4 I1.874 J3.2459
G3 X13.7298 Y34.75 I-3.748 J0.0
G1 X28.75
G1 Y13.4095
G3 X24.1978 Y14.0683 I-2.7 J-2.5995
G0 Z3.0
G0 X29.75
G1 F300.0 Z-7.5
G1 F800.0 Y7.25
G1 X7.25
G1 Y35.75
G1 X29.75
G1 Y14.0683
G0 Z3.0
G0 X28.1138 Y12.6275
G1 F300.0 Z-8.0
G3 F800.0 X24.675 Y13.1916 I-2.0638 J-1.8175
G3 Y8.4284 I1.375 J-2.3816
G3 X28.8 Y10.81 I1.375 J2.3816
G3 X28.1138 Y12.6275 I-2.75 J0.0
G0 Z3.0
G0 X12.6211 Y30.3306
G1 F300.0 Z-7.5
G3 F800.0 X13.56 Y32.4 I-1.8111 J2.0694
G3 X9.435 Y34.7816 I-2.75 J0.0
G3 Y30.0184 I1.375 J-2.3816
G3 X12.6211 Y30.3306 I1.375 J2.3816
G1 F300.0 Z-8.0
G3 F800.0 X13.56 Y32.4 I-1.8111 J2.0694
G3 X9.435 Y34.7816 I-2.75 J0.0
G3 Y30.0184 I1.375 J-2.3816
G3 X12.6211 Y30.3306 I1.375 J2.3816
G0 Z3.0
G0 X19.2054 Y22.8068
G1 F300.0 Z-8.0
G3 F800.0 X19.75 Y23.3122 I-8.3954 J9.5932
G1 Y21.8925
G3 X19.676 Y21.8501 I6.3 J-11.0825
G3 X17.25 Y20.0334 I6.374 J-11.0401
G1 Y21.3983
G3 X19.2054 Y22.8068 I-6.44 J11.0017
G1 F300.0 X18.5468 Y23.5594
G3 F800.0 X20.75 Y26.1381 I-7.7368 J8.8406
G1 Y21.2945
G3 X20.176 Y20.9841 I5.3 J-10.4845
G3 X16.25 Y17.2889 I5.874 J-10.1741
G1 Y21.9874
G3 X18.5468 Y23.5594 I-5.44 J10.4126
G1 F300.0 X17.8883 Y24.3119
G3 F800.0 X20.5 Y27.75 I-7.0783 J8.0881
G1 X21.75
G1 Y20.6604
G3 X20.676 Y20.118 I4.3 J-9.8504
G3 X16.262 Y15.25 I5.374 J-9.308
G1 X15.25
G1 Y22.612
G3 X17.8883 Y24.3119 I-4.44 J9.788
G1 F300.0 X17.2297 Y25.0644
G3 F800.0 X19.8489 Y28.75 I-6.4197 J7.3356
G1 X22.75
G1 Y19.9824
G3 X21.176 Y19.252 I3.3 J-9.1724
G3 X16.9292 Y14.25 I4.874 J-8.442
G1 X14.25
G1 Y23.2792
G3 X17.2297 Y25.0644 I-3.44 J9.1208
G1 F300.0 X16.5711 Y25.8169
G3 F800.0 X19.147 Y29.75 I-5.7611 J6.5831
G1 X23.75
G1 Y19.2502
G3 X21.676 Y18.386 I2.3 J-8.4402
G3 X17.6492 Y13.25 I4.374 J-7.576
G1 X13.25
G1 Y23.9992
G3 X16.5711 Y25.8169 I-2.44 J8.4008
G1 F300.0 X15.9126 Y26.5695
G3 F800.0 X18.3803 Y30.75 I-5.1026 J5.8305
G1 X24.75
G1 Y18.4482
G3 X22.176 Y17.52 I1.3 J-7.6382
G3 X18.437 Y12.25 I3.874 J-6.71
G1 X12.25
G1 Y24.787
G3 X15.9126 Y26.5695 I-1.44 J7.613
G1 F300.0 X15.254 Y27.322
G3 F800.0 X17.5266 Y31.75 I-4.444 J5.078
G1 X25.75
G1 Y17.5513
G3 X22.676 Y16.6539 I0.3 J-6.7413
G3 X19.3164 Y11.25 I3.374 J-5.8439
G1 X11.25
G1 Y25.6664
G3 X15.254 Y27.322 I-0.44 J6.7336
G1 F300.0 X14.5954 Y28.0745
G3 F800.0 X16.558 Y32.4 I-3.7854 J4.3255
G3 X16.5473 Y32.75 I-5.748 J0.0
G1 X26.75
G1 Y16.5152
G3 X23.176 Y15.7879 I-0.7 J-5.7052
G3 X20.3293 Y10.25 I2.874 J-4.9779
G1 X10.25
G1 Y26.6793
G3 X14.5954 Y28.0745 I0.56 J5.7207
G1 F300.0 X13.9369 Y28.827
G3 F800.0 X15.558 Y32.4 I-3.1269 J3.573
G3 X15.362 Y33.75 I-4.748 J0.0
G1 X27.75
G1 Y15.2432
G3 X23.676 Y14.9219 I-1.7 J-4.4332
G3 X21.5656 Y9.25 I2.374 J-4.1119
G1 X9.25
G1 Y27.9156
G3 X13.9369 Y28.827 I1.56 J4.4844
G1 F300.0 X13.2783 Y29.5795
G3 F800.0 X14.558 Y32.4 I-2.4683 J2.8205
G3 X13.7298 Y34.75 I-3.748 J0.0
G1 X28.75
G1 Y13.4095
G3 X24.176 Y14.0559 I-2.7 J-2.5995
G3 X23.3125 Y8.25 I1.874 J-3.2459
G1 X8.25
G1 Y29.6625
G3 X8.936 Y29.1541 I2.56 J2.7375
G3 X13.2783 Y29.5795 I1.874 J3.2459
G0 Z3.0
G0 X7.25
G1 F300.0 Z-8.0
G1 F800.0 Y35.75
G1 X29.75
G1 Y7.25
G1 X7.25
G1 Y29.5795
( Case - Sensor Pocket )
S1000
G0 Z3.0
G0 X18.5 Y10.25
G1 F300.0 Z-9.0
G1 F800.0 Y11.25
G1 X20.5
G1 Y10.25
G1 X18.5
G1 F300.0 X17.5
G1 F800.0 Y12.25
G1 X21.5
G1 Y9.25
G1 X17.5
G1 Y10.25
( Case - LED top )
S1000
G0 Z3.0
G0 X18.73 Y29.86
G1 F300.0 Z-9.0
G2 F800.0 X18.28 Y29.6002 I-0.3 J0.0
G2 Y30.1198 I0.15 J0.2598
G2 X18.73 Y29.86 I0.15 J-0.2598
G1 F300.0 X19.73
G2 F800.0 X17.78 Y28.7342 I-1.3 J0.0
G2 Y30.9858 I0.65 J1.1258
G2 X19.73 Y29.86 I0.65 J-1.1258
G1 F300.0 X18.73
G1 Z-10.0
G2 F800.0 X18.28 Y29.6002 I-0.3 J0.0
G2 Y30.1198 I0.15 J0.2598
G2 X18.73 Y29.86 I0.15 J-0.2598
G1 F300.0 X19.73
G2 F800.0 X17.78 Y28.7342 I-1.3 J0.0
G2 Y30.9858 I0.65 J1.1258
G2 X19.73 Y29.86 I0.65 J-1.1258
( Case - LED bottom )
S1000
G0 Z3.0
G0 X18.73 Y22.24
G1 F300.0 Z-9.0
G2 F800.0 X18.28 Y21.9802 I-0.3 J0.0
G2 Y22.4998 I0.15 J0.2598
G2 X18.73 Y22.24 I0.15 J-0.2598
G1 F300.0 X19.73
G2 F800.0 X17.78 Y21.1142 I-1.3 J0.0
G2 Y23.3658 I0.65 J1.1258
G2 X19.73 Y22.24 I0.65 J-1.1258
G1 F300.0 X18.73
G1 Z-10.0
G2 F800.0 X18.28 Y21.9802 I-0.3 J0.0
G2 Y22.4998 I0.15 J0.2598
G2 X18.73 Y22.24 I0.15 J-0.2598
G1 F300.0 X19.73
G2 F800.0 X17.78 Y21.1142 I-1.3 J0.0
G2 Y23.3658 I0.65 J1.1258
G2 X19.73 Y22.24 I0.65 J-1.1258
( Case - Wire Whole )
S1000
G0 Z3.0
G0 X2.25 Y12.25
G1 F300.0 Z-5.5
G1 F800.0 Y13.75
G1 X5.75
G1 Y12.25
G1 X2.25
G1 F300.0 Z-6.5
G1 F800.0 Y13.75
G1 X5.75
G1 Y12.25
G1 X2.25
G1 F300.0 Z-7.5
G1 F800.0 Y13.75
G1 X5.75
G1 Y12.25
G1 X2.25
G1 F300.0 Z-8.0
G1 F800.0 Y13.75
G1 X5.75
G1 Y12.25
G1 X2.25
( Case - Outside body )
S1000
G0 Z3.0
G0 X4.0 Y2.75
G1 F300.0 Z-4.0
G1 F800.0 X33.0
G3 X34.25 Y4.0 I0.0 J1.25
G1 Y39.0
G3 X33.0 Y40.25 I-1.25 J0.0
G1 X4.0
G3 X2.75 Y39.0 I0.0 J-1.25
G1 Y4.0
G3 X4.0 Y2.75 I1.25 J0.0
G1 F300.0 Y2.25
G1 F800.0 X33.0
G3 X34.75 Y4.0 I0.0 J1.75
G1 Y39.0
G3 X33.0 Y40.75 I-1.75 J0.0
G1 X4.0
G3 X2.25 Y39.0 I0.0 J-1.75
G1 Y4.0
G3 X4.0 Y2.25 I1.75 J0.0
G1 F300.0 Y2.75
G1 Z-5.0
G1 F800.0 X33.0
G3 X34.25 Y4.0 I0.0 J1.25
G1 Y39.0
G3 X33.0 Y40.25 I-1.25 J0.0
G1 X4.0
G3 X2.75 Y39.0 I0.0 J-1.25
G1 Y4.0
G3 X4.0 Y2.75 I1.25 J0.0
G1 F300.0 Y2.25
G1 F800.0 X33.0
G3 X34.75 Y4.0 I0.0 J1.75
G1 Y39.0
G3 X33.0 Y40.75 I-1.75 J0.0
G1 X4.0
G3 X2.25 Y39.0 I0.0 J-1.75
G1 Y4.0
G3 X4.0 Y2.25 I1.75 J0.0
G1 F300.0 Y2.75
G1 Z-6.0
G1 F800.0 X33.0
G3 X34.25 Y4.0 I0.0 J1.25
G1 Y39.0
G3 X33.0 Y40.25 I-1.25 J0.0
G1 X4.0
G3 X2.75 Y39.0 I0.0 J-1.25
G1 Y4.0
G3 X4.0 Y2.75 I1.25 J0.0
G1 F300.0 Y2.25
G1 F800.0 X33.0
G3 X34.75 Y4.0 I0.0 J1.75
G1 Y39.0
G3 X33.0 Y40.75 I-1.75 J0.0
G1 X4.0
G3 X2.25 Y39.0 I0.0 J-1.75
G1 Y4.0
G3 X4.0 Y2.25 I1.75 J0.0
G1 F300.0 Y2.75
G1 Z-7.0
G1 F800.0 X33.0
G3 X34.25 Y4.0 I0.0 J1.25
G1 Y39.0
G3 X33.0 Y40.25 I-1.25 J0.0
G1 X4.0
G3 X2.75 Y39.0 I0.0 J-1.25
G1 Y4.0
G3 X4.0 Y2.75 I1.25 J0.0
G1 F300.0 Y2.25
G1 F800.0 X33.0
G3 X34.75 Y4.0 I0.0 J1.75
G1 Y39.0
G3 X33.0 Y40.75 I-1.75 J0.0
G1 X4.0
G3 X2.25 Y39.0 I0.0 J-1.75
G1 Y4.0
G3 X4.0 Y2.25 I1.75 J0.0
G1 F300.0 Y2.75
G1 Z-8.0
G1 F800.0 X33.0
G3 X34.25 Y4.0 I0.0 J1.25
G1 Y39.0
G3 X33.0 Y40.25 I-1.25 J0.0
G1 X4.0
G3 X2.75 Y39.0 I0.0 J-1.25
G1 Y4.0
G3 X4.0 Y2.75 I1.25 J0.0
G1 F300.0 Y2.25
G1 F800.0 X33.0
G3 X34.75 Y4.0 I0.0 J1.75
G1 Y39.0
G3 X33.0 Y40.75 I-1.75 J0.0
G1 X4.0
G3 X2.25 Y39.0 I0.0 J-1.75
G1 Y4.0
G3 X4.0 Y2.25 I1.75 J0.0
G1 F300.0 Y2.75
G1 Z-9.0
G1 F800.0 X33.0
G3 X34.25 Y4.0 I0.0 J1.25
G1 Y39.0
G3 X33.0 Y40.25 I-1.25 J0.0
G1 X4.0
G3 X2.75 Y39.0 I0.0 J-1.25
G1 Y4.0
G3 X4.0 Y2.75 I1.25 J0.0
G1 F300.0 Y2.25
G1 F800.0 X33.0
G3 X34.75 Y4.0 I0.0 J1.75
G1 Y39.0
G3 X33.0 Y40.75 I-1.75 J0.0
G1 X4.0
G3 X2.25 Y39.0 I0.0 J-1.75
G1 Y4.0
G3 X4.0 Y2.25 I1.75 J0.0
G1 F300.0 Y2.75
G1 Z-10.0
G1 F800.0 X33.0
G3 X34.25 Y4.0 I0.0 J1.25
G1 Y39.0
G3 X33.0 Y40.25 I-1.25 J0.0
G1 X4.0
G3 X2.75 Y39.0 I0.0 J-1.25
G1 Y4.0
G3 X4.0 Y2.75 I1.25 J0.0
G1 F300.0 Y2.25
G1 F800.0 X33.0
G3 X34.75 Y4.0 I0.0 J1.75
G1 Y39.0
G3 X33.0 Y40.75 I-1.75 J0.0
G1 X4.0
G3 X2.25 Y39.0 I0.0 J-1.75
G1 Y4.0
G3 X4.0 Y2.25 I1.75 J0.0
G0 Z3.0
M5
M30
