( Made using CamBam - http://www.cambam.co.uk )
( HomeSensor 4/25/2015 4:54:57 PM )
( T0 : 2.0 )
G21 G90 G64 G40

G61 (Real Path)

G0 Z3.0
( T0 : 2.0 )
T0 M6
( Drill1 )
G17
M3 S1000
G0 X37.0 Y7.0
G98
G81 X37.0 Y7.0 Z-10.0 R3.0 F300.0
G80
( Drill2 )
S1000
G0 Y183.0
G98
G81 X37.0 Y183.0 Z-10.0 R3.0
G80
( Case - level all  -2.5  )
S1000
G0 X20.25 Y32.25
G1 Z-0.5
G1 F800.0 Y38.75
G1 X20.75
G1 Y32.25
G1 X20.25
G1 F300.0 X19.25
G1 F800.0 Y39.75
G1 X21.75
G1 Y31.25
G1 X19.25
G1 Y32.25
G1 F300.0 X18.25
G1 F800.0 Y40.75
G1 X22.75
G1 Y30.25
G1 X18.25
G1 Y32.25
G1 F300.0 X17.25
G1 F800.0 Y41.75
G1 X23.75
G1 Y29.25
G1 X17.25
G1 Y32.25
G1 F300.0 X16.25
G1 F800.0 Y42.75
G1 X24.75
G1 Y28.25
G1 X16.25
G1 Y32.25
G1 F300.0 X15.25
G1 F800.0 Y43.75
G1 X25.75
G1 Y27.25
G1 X15.25
G1 Y32.25
G1 F300.0 X14.25
G1 F800.0 Y44.75
G1 X26.75
G1 Y26.25
G1 X14.25
G1 Y32.25
G1 F300.0 X13.25
G1 F800.0 Y45.75
G1 X27.75
G1 Y25.25
G1 X13.25
G1 Y32.25
G1 F300.0 X12.25
G1 F800.0 Y46.75
G1 X28.75
G1 Y24.25
G1 X12.25
G1 Y32.25
G1 F300.0 X11.25
G1 F800.0 Y47.75
G1 X29.75
G1 Y23.25
G1 X11.25
G1 Y32.25
G1 F300.0 X10.25
G1 F800.0 Y48.75
G1 X30.75
G1 Y22.25
G1 X10.25
G1 Y32.25
G1 F300.0 X9.25
G1 F800.0 Y49.75
G1 X31.75
G1 Y21.25
G1 X9.25
G1 Y32.25
G1 F300.0 X8.25
G1 F800.0 Y50.75
G1 X32.75
G1 Y20.25
G1 X8.25
G1 Y32.25
G1 F300.0 X7.25
G1 F800.0 Y51.75
G1 X33.75
G1 Y19.25
G1 X7.25
G1 Y32.25
G1 F300.0 X6.25
G1 F800.0 Y52.75
G1 X34.75
G1 Y18.25
G1 X6.25
G1 Y32.25
G1 F300.0 X5.25
G1 F800.0 Y53.75
G1 X35.75
G1 Y17.25
G1 X5.25
G1 Y32.25
G0 Z3.0
G0 X20.25
G1 F300.0 Z-1.0
G1 F800.0 Y38.75
G1 X20.75
G1 Y32.25
G1 X20.25
G1 F300.0 X19.25
G1 F800.0 Y39.75
G1 X21.75
G1 Y31.25
G1 X19.25
G1 Y32.25
G1 F300.0 X18.25
G1 F800.0 Y40.75
G1 X22.75
G1 Y30.25
G1 X18.25
G1 Y32.25
G1 F300.0 X17.25
G1 F800.0 Y41.75
G1 X23.75
G1 Y29.25
G1 X17.25
G1 Y32.25
G1 F300.0 X16.25
G1 F800.0 Y42.75
G1 X24.75
G1 Y28.25
G1 X16.25
G1 Y32.25
G1 F300.0 X15.25
G1 F800.0 Y43.75
G1 X25.75
G1 Y27.25
G1 X15.25
G1 Y32.25
G1 F300.0 X14.25
G1 F800.0 Y44.75
G1 X26.75
G1 Y26.25
G1 X14.25
G1 Y32.25
G1 F300.0 X13.25
G1 F800.0 Y45.75
G1 X27.75
G1 Y25.25
G1 X13.25
G1 Y32.25
G1 F300.0 X12.25
G1 F800.0 Y46.75
G1 X28.75
G1 Y24.25
G1 X12.25
G1 Y32.25
G1 F300.0 X11.25
G1 F800.0 Y47.75
G1 X29.75
G1 Y23.25
G1 X11.25
G1 Y32.25
G1 F300.0 X10.25
G1 F800.0 Y48.75
G1 X30.75
G1 Y22.25
G1 X10.25
G1 Y32.25
G1 F300.0 X9.25
G1 F800.0 Y49.75
G1 X31.75
G1 Y21.25
G1 X9.25
G1 Y32.25
G1 F300.0 X8.25
G1 F800.0 Y50.75
G1 X32.75
G1 Y20.25
G1 X8.25
G1 Y32.25
G1 F300.0 X7.25
G1 F800.0 Y51.75
G1 X33.75
G1 Y19.25
G1 X7.25
G1 Y32.25
G1 F300.0 X6.25
G1 F800.0 Y52.75
G1 X34.75
G1 Y18.25
G1 X6.25
G1 Y32.25
G1 F300.0 X5.25
G1 F800.0 Y53.75
G1 X35.75
G1 Y17.25
G1 X5.25
G1 Y32.25
G0 Z3.0
G0 X20.25
G1 F300.0 Z-1.5
G1 F800.0 Y38.75
G1 X20.75
G1 Y32.25
G1 X20.25
G1 F300.0 X19.25
G1 F800.0 Y39.75
G1 X21.75
G1 Y31.25
G1 X19.25
G1 Y32.25
G1 F300.0 X18.25
G1 F800.0 Y40.75
G1 X22.75
G1 Y30.25
G1 X18.25
G1 Y32.25
G1 F300.0 X17.25
G1 F800.0 Y41.75
G1 X23.75
G1 Y29.25
G1 X17.25
G1 Y32.25
G1 F300.0 X16.25
G1 F800.0 Y42.75
G1 X24.75
G1 Y28.25
G1 X16.25
G1 Y32.25
G1 F300.0 X15.25
G1 F800.0 Y43.75
G1 X25.75
G1 Y27.25
G1 X15.25
G1 Y32.25
G1 F300.0 X14.25
G1 F800.0 Y44.75
G1 X26.75
G1 Y26.25
G1 X14.25
G1 Y32.25
G1 F300.0 X13.25
G1 F800.0 Y45.75
G1 X27.75
G1 Y25.25
G1 X13.25
G1 Y32.25
G1 F300.0 X12.25
G1 F800.0 Y46.75
G1 X28.75
G1 Y24.25
G1 X12.25
G1 Y32.25
G1 F300.0 X11.25
G1 F800.0 Y47.75
G1 X29.75
G1 Y23.25
G1 X11.25
G1 Y32.25
G1 F300.0 X10.25
G1 F800.0 Y48.75
G1 X30.75
G1 Y22.25
G1 X10.25
G1 Y32.25
G1 F300.0 X9.25
G1 F800.0 Y49.75
G1 X31.75
G1 Y21.25
G1 X9.25
G1 Y32.25
G1 F300.0 X8.25
G1 F800.0 Y50.75
G1 X32.75
G1 Y20.25
G1 X8.25
G1 Y32.25
G1 F300.0 X7.25
G1 F800.0 Y51.75
G1 X33.75
G1 Y19.25
G1 X7.25
G1 Y32.25
G1 F300.0 X6.25
G1 F800.0 Y52.75
G1 X34.75
G1 Y18.25
G1 X6.25
G1 Y32.25
G1 F300.0 X5.25
G1 F800.0 Y53.75
G1 X35.75
G1 Y17.25
G1 X5.25
G1 Y32.25
G0 Z3.0
G0 X20.25
G1 F300.0 Z-2.0
G1 F800.0 Y38.75
G1 X20.75
G1 Y32.25
G1 X20.25
G1 F300.0 X19.25
G1 F800.0 Y39.75
G1 X21.75
G1 Y31.25
G1 X19.25
G1 Y32.25
G1 F300.0 X18.25
G1 F800.0 Y40.75
G1 X22.75
G1 Y30.25
G1 X18.25
G1 Y32.25
G1 F300.0 X17.25
G1 F800.0 Y41.75
G1 X23.75
G1 Y29.25
G1 X17.25
G1 Y32.25
G1 F300.0 X16.25
G1 F800.0 Y42.75
G1 X24.75
G1 Y28.25
G1 X16.25
G1 Y32.25
G1 F300.0 X15.25
G1 F800.0 Y43.75
G1 X25.75
G1 Y27.25
G1 X15.25
G1 Y32.25
G1 F300.0 X14.25
G1 F800.0 Y44.75
G1 X26.75
G1 Y26.25
G1 X14.25
G1 Y32.25
G1 F300.0 X13.25
G1 F800.0 Y45.75
G1 X27.75
G1 Y25.25
G1 X13.25
G1 Y32.25
G1 F300.0 X12.25
G1 F800.0 Y46.75
G1 X28.75
G1 Y24.25
G1 X12.25
G1 Y32.25
G1 F300.0 X11.25
G1 F800.0 Y47.75
G1 X29.75
G1 Y23.25
G1 X11.25
G1 Y32.25
G1 F300.0 X10.25
G1 F800.0 Y48.75
G1 X30.75
G1 Y22.25
G1 X10.25
G1 Y32.25
G1 F300.0 X9.25
G1 F800.0 Y49.75
G1 X31.75
G1 Y21.25
G1 X9.25
G1 Y32.25
G1 F300.0 X8.25
G1 F800.0 Y50.75
G1 X32.75
G1 Y20.25
G1 X8.25
G1 Y32.25
G1 F300.0 X7.25
G1 F800.0 Y51.75
G1 X33.75
G1 Y19.25
G1 X7.25
G1 Y32.25
G1 F300.0 X6.25
G1 F800.0 Y52.75
G1 X34.75
G1 Y18.25
G1 X6.25
G1 Y32.25
G1 F300.0 X5.25
G1 F800.0 Y53.75
G1 X35.75
G1 Y17.25
G1 X5.25
G1 Y32.25
G0 Z3.0
G0 X20.25
G1 F300.0 Z-2.5
G1 F800.0 Y38.75
G1 X20.75
G1 Y32.25
G1 X20.25
G1 F300.0 X19.25
G1 F800.0 Y39.75
G1 X21.75
G1 Y31.25
G1 X19.25
G1 Y32.25
G1 F300.0 X18.25
G1 F800.0 Y40.75
G1 X22.75
G1 Y30.25
G1 X18.25
G1 Y32.25
G1 F300.0 X17.25
G1 F800.0 Y41.75
G1 X23.75
G1 Y29.25
G1 X17.25
G1 Y32.25
G1 F300.0 X16.25
G1 F800.0 Y42.75
G1 X24.75
G1 Y28.25
G1 X16.25
G1 Y32.25
G1 F300.0 X15.25
G1 F800.0 Y43.75
G1 X25.75
G1 Y27.25
G1 X15.25
G1 Y32.25
G1 F300.0 X14.25
G1 F800.0 Y44.75
G1 X26.75
G1 Y26.25
G1 X14.25
G1 Y32.25
G1 F300.0 X13.25
G1 F800.0 Y45.75
G1 X27.75
G1 Y25.25
G1 X13.25
G1 Y32.25
G1 F300.0 X12.25
G1 F800.0 Y46.75
G1 X28.75
G1 Y24.25
G1 X12.25
G1 Y32.25
G1 F300.0 X11.25
G1 F800.0 Y47.75
G1 X29.75
G1 Y23.25
G1 X11.25
G1 Y32.25
G1 F300.0 X10.25
G1 F800.0 Y48.75
G1 X30.75
G1 Y22.25
G1 X10.25
G1 Y32.25
G1 F300.0 X9.25
G1 F800.0 Y49.75
G1 X31.75
G1 Y21.25
G1 X9.25
G1 Y32.25
G1 F300.0 X8.25
G1 F800.0 Y50.75
G1 X32.75
G1 Y20.25
G1 X8.25
G1 Y32.25
G1 F300.0 X7.25
G1 F800.0 Y51.75
G1 X33.75
G1 Y19.25
G1 X7.25
G1 Y32.25
G1 F300.0 X6.25
G1 F800.0 Y52.75
G1 X34.75
G1 Y18.25
G1 X6.25
G1 Y32.25
G1 F300.0 X5.25
G1 F800.0 Y53.75
G1 X35.75
G1 Y17.25
G1 X5.25
G1 Y32.25
( Case - inside level all  -4.5 )
S1000
G0 Z3.0
G0 X20.25
G1 F300.0 Z-3.0
G1 F800.0 Y38.75
G1 X20.75
G1 Y32.25
G1 X20.25
G1 F300.0 X19.25
G1 F800.0 Y39.75
G1 X21.75
G1 Y31.25
G1 X19.25
G1 Y32.25
G1 F300.0 X18.25
G1 F800.0 Y40.75
G1 X22.75
G1 Y30.25
G1 X18.25
G1 Y32.25
G1 F300.0 X17.25
G1 F800.0 Y41.75
G1 X23.75
G1 Y29.25
G1 X17.25
G1 Y32.25
G1 F300.0 X16.25
G1 F800.0 Y42.75
G1 X24.75
G1 Y28.25
G1 X16.25
G1 Y32.25
G1 F300.0 X15.25
G1 F800.0 Y43.75
G1 X25.75
G1 Y27.25
G1 X15.25
G1 Y32.25
G1 F300.0 X14.25
G1 F800.0 Y44.75
G1 X26.75
G1 Y26.25
G1 X14.25
G1 Y32.25
G1 F300.0 X13.25
G1 F800.0 Y45.75
G1 X27.75
G1 Y25.25
G1 X13.25
G1 Y32.25
G1 F300.0 X12.25
G1 F800.0 Y46.75
G1 X28.75
G1 Y24.25
G1 X12.25
G1 Y32.25
G1 F300.0 X11.25
G1 F800.0 Y47.75
G1 X29.75
G1 Y23.25
G1 X11.25
G1 Y32.25
G1 F300.0 X10.25
G1 F800.0 Y48.75
G1 X30.75
G1 Y22.25
G1 X10.25
G1 Y32.25
G1 F300.0 X9.25
G1 F800.0 Y49.75
G1 X31.75
G1 Y21.25
G1 X9.25
G1 Y32.25
G1 F300.0 X8.25
G1 F800.0 Y50.75
G1 X32.75
G1 Y20.25
G1 X8.25
G1 Y32.25
G1 F300.0 X7.25
G1 F800.0 Y51.75
G1 X33.75
G1 Y19.25
G1 X7.25
G1 Y32.25
G0 Z3.0
G0 X20.25
G1 F300.0 Z-3.5
G1 F800.0 Y38.75
G1 X20.75
G1 Y32.25
G1 X20.25
G1 F300.0 X19.25
G1 F800.0 Y39.75
G1 X21.75
G1 Y31.25
G1 X19.25
G1 Y32.25
G1 F300.0 X18.25
G1 F800.0 Y40.75
G1 X22.75
G1 Y30.25
G1 X18.25
G1 Y32.25
G1 F300.0 X17.25
G1 F800.0 Y41.75
G1 X23.75
G1 Y29.25
G1 X17.25
G1 Y32.25
G1 F300.0 X16.25
G1 F800.0 Y42.75
G1 X24.75
G1 Y28.25
G1 X16.25
G1 Y32.25
G1 F300.0 X15.25
G1 F800.0 Y43.75
G1 X25.75
G1 Y27.25
G1 X15.25
G1 Y32.25
G1 F300.0 X14.25
G1 F800.0 Y44.75
G1 X26.75
G1 Y26.25
G1 X14.25
G1 Y32.25
G1 F300.0 X13.25
G1 F800.0 Y45.75
G1 X27.75
G1 Y25.25
G1 X13.25
G1 Y32.25
G1 F300.0 X12.25
G1 F800.0 Y46.75
G1 X28.75
G1 Y24.25
G1 X12.25
G1 Y32.25
G1 F300.0 X11.25
G1 F800.0 Y47.75
G1 X29.75
G1 Y23.25
G1 X11.25
G1 Y32.25
G1 F300.0 X10.25
G1 F800.0 Y48.75
G1 X30.75
G1 Y22.25
G1 X10.25
G1 Y32.25
G1 F300.0 X9.25
G1 F800.0 Y49.75
G1 X31.75
G1 Y21.25
G1 X9.25
G1 Y32.25
G1 F300.0 X8.25
G1 F800.0 Y50.75
G1 X32.75
G1 Y20.25
G1 X8.25
G1 Y32.25
G1 F300.0 X7.25
G1 F800.0 Y51.75
G1 X33.75
G1 Y19.25
G1 X7.25
G1 Y32.25
G0 Z3.0
G0 X20.25
G1 F300.0 Z-4.0
G1 F800.0 Y38.75
G1 X20.75
G1 Y32.25
G1 X20.25
G1 F300.0 X19.25
G1 F800.0 Y39.75
G1 X21.75
G1 Y31.25
G1 X19.25
G1 Y32.25
G1 F300.0 X18.25
G1 F800.0 Y40.75
G1 X22.75
G1 Y30.25
G1 X18.25
G1 Y32.25
G1 F300.0 X17.25
G1 F800.0 Y41.75
G1 X23.75
G1 Y29.25
G1 X17.25
G1 Y32.25
G1 F300.0 X16.25
G1 F800.0 Y42.75
G1 X24.75
G1 Y28.25
G1 X16.25
G1 Y32.25
G1 F300.0 X15.25
G1 F800.0 Y43.75
G1 X25.75
G1 Y27.25
G1 X15.25
G1 Y32.25
G1 F300.0 X14.25
G1 F800.0 Y44.75
G1 X26.75
G1 Y26.25
G1 X14.25
G1 Y32.25
G1 F300.0 X13.25
G1 F800.0 Y45.75
G1 X27.75
G1 Y25.25
G1 X13.25
G1 Y32.25
G1 F300.0 X12.25
G1 F800.0 Y46.75
G1 X28.75
G1 Y24.25
G1 X12.25
G1 Y32.25
G1 F300.0 X11.25
G1 F800.0 Y47.75
G1 X29.75
G1 Y23.25
G1 X11.25
G1 Y32.25
G1 F300.0 X10.25
G1 F800.0 Y48.75
G1 X30.75
G1 Y22.25
G1 X10.25
G1 Y32.25
G1 F300.0 X9.25
G1 F800.0 Y49.75
G1 X31.75
G1 Y21.25
G1 X9.25
G1 Y32.25
G1 F300.0 X8.25
G1 F800.0 Y50.75
G1 X32.75
G1 Y20.25
G1 X8.25
G1 Y32.25
G1 F300.0 X7.25
G1 F800.0 Y51.75
G1 X33.75
G1 Y19.25
G1 X7.25
G1 Y32.25
G0 Z3.0
G0 X20.25
G1 F300.0 Z-4.5
G1 F800.0 Y38.75
G1 X20.75
G1 Y32.25
G1 X20.25
G1 F300.0 X19.25
G1 F800.0 Y39.75
G1 X21.75
G1 Y31.25
G1 X19.25
G1 Y32.25
G1 F300.0 X18.25
G1 F800.0 Y40.75
G1 X22.75
G1 Y30.25
G1 X18.25
G1 Y32.25
G1 F300.0 X17.25
G1 F800.0 Y41.75
G1 X23.75
G1 Y29.25
G1 X17.25
G1 Y32.25
G1 F300.0 X16.25
G1 F800.0 Y42.75
G1 X24.75
G1 Y28.25
G1 X16.25
G1 Y32.25
G1 F300.0 X15.25
G1 F800.0 Y43.75
G1 X25.75
G1 Y27.25
G1 X15.25
G1 Y32.25
G1 F300.0 X14.25
G1 F800.0 Y44.75
G1 X26.75
G1 Y26.25
G1 X14.25
G1 Y32.25
G1 F300.0 X13.25
G1 F800.0 Y45.75
G1 X27.75
G1 Y25.25
G1 X13.25
G1 Y32.25
G1 F300.0 X12.25
G1 F800.0 Y46.75
G1 X28.75
G1 Y24.25
G1 X12.25
G1 Y32.25
G1 F300.0 X11.25
G1 F800.0 Y47.75
G1 X29.75
G1 Y23.25
G1 X11.25
G1 Y32.25
G1 F300.0 X10.25
G1 F800.0 Y48.75
G1 X30.75
G1 Y22.25
G1 X10.25
G1 Y32.25
G1 F300.0 X9.25
G1 F800.0 Y49.75
G1 X31.75
G1 Y21.25
G1 X9.25
G1 Y32.25
G1 F300.0 X8.25
G1 F800.0 Y50.75
G1 X32.75
G1 Y20.25
G1 X8.25
G1 Y32.25
G1 F300.0 X7.25
G1 F800.0 Y51.75
G1 X33.75
G1 Y19.25
G1 X7.25
G1 Y32.25

(DAQ HERE)

( T0 : 2.0 )
G21 G90 G64 G40

G61 (Real Path)
M0

( Case - Inside Pocket )
S1000
G0 Z3.0
G0 X15.5 Y46.5
G1 F300.0 Z-4.9
G3 F800.0 X11.375 Y48.8816 I-2.75 J0.0
G3 Y44.1184 I1.375 J-2.3816
G3 X15.5 Y46.5 I1.375 J2.3816
G0 Z3.0
G0 X21.25 Y36.9994
G1 F300.0 Z-4.9
G1 F800.0 Y34.9042
G3 X19.75 Y33.7506 I7.0 J-10.6542
G1 Y35.8458
G3 X21.25 Y36.9994 I-7.0 J10.6542
G1 F300.0 X22.25
G1 F800.0 Y34.3503
G3 X18.75 Y31.1613 I6.0 J-10.1003
G1 Y36.3997
G3 X22.25 Y39.5887 I-6.0 J10.1003
G1 Y36.9994
G1 F300.0 X23.25
G1 F800.0 Y33.7642
G3 X22.876 Y33.558 I5.0 J-9.5142
G3 X19.0159 Y29.75 I5.374 J-9.308
G1 X17.75
G1 Y36.9858
G3 X22.1285 Y41.25 I-5.0 J9.5142
G1 X23.25
G1 Y36.9994
G1 F300.0 X24.25
G1 F800.0 Y33.1395
G3 X23.376 Y32.692 I4.0 J-8.8895
G3 X19.6028 Y28.75 I4.874 J-8.442
G1 X16.75
G1 Y37.6105
G3 X21.5227 Y42.25 I-4.0 J8.8895
G1 X24.25
G1 Y36.9994
G1 F300.0 X25.25
G1 F800.0 Y32.4675
G3 X23.876 Y31.826 I3.0 J-8.2175
G3 X20.2327 Y27.75 I4.374 J-7.576
G1 X15.75
G1 Y38.2825
G3 X20.8719 Y43.25 I-3.0 J8.2175
G1 X25.25
G1 Y36.9994
G1 F300.0 X26.25
G1 F800.0 Y31.7354
G3 X24.376 Y30.96 I2.0 J-7.4854
G3 X20.9164 Y26.75 I3.874 J-6.71
G1 X14.75
G1 Y39.0146
G3 X20.1641 Y44.25 I-2.0 J7.4854
G1 X26.25
G1 Y36.9994
G1 F300.0 X27.25
G1 F800.0 Y30.9235
G3 X24.876 Y30.0939 I1.0 J-6.6735
G3 X21.6708 Y25.75 I3.374 J-5.8439
G1 X13.75
G1 Y39.8265
G3 X19.3812 Y45.25 I-1.0 J6.6735
G1 X27.25
G1 Y36.9994
G1 F300.0 X28.25
G1 F800.0 Y29.998
G3 X25.376 Y29.2279 I0.0 J-5.748
G3 X22.5238 Y24.75 I2.874 J-4.9779
G1 X12.75
G1 Y40.752
G3 X18.4926 Y46.25 I0.0 J5.748
G1 X28.25
G1 Y36.9994
G1 F300.0 X29.25
G1 F800.0 Y28.8915
G3 X25.876 Y28.3619 I-1.0 J-4.6415
G3 X23.5284 Y23.75 I2.374 J-4.1119
G1 X11.75
G1 Y41.8585
G3 X17.498 Y46.5 I1.0 J4.6415
G3 X17.4384 Y47.25 I-4.748 J0.0
G1 X29.25
G1 Y36.9994
G1 F300.0 X30.25
G1 F800.0 Y27.4198
G3 X26.376 Y27.4959 I-2.0 J-3.1698
G3 X24.8153 Y22.75 I1.874 J-3.2459
G1 X10.75
G1 Y43.3302
G3 X10.876 Y43.2541 I2.0 J3.1698
G3 X16.498 Y46.5 I1.874 J3.2459
G3 X16.0644 Y48.25 I-3.748 J0.0
G1 X30.25
G1 Y36.9994
G1 F300.0 X31.25
G1 F800.0 Y21.75
G1 X29.3956
G3 X31.0 Y24.25 I-1.1456 J2.5
G3 X26.875 Y26.6316 I-2.75 J0.0
G3 Y21.8684 I1.375 J-2.3816
G3 X27.1044 Y21.75 I1.375 J2.3816
G1 X9.75
G1 Y49.25
G1 X31.25
G1 Y36.9994
G0 Z3.0
G0 X21.25
G1 F300.0 Z-5.3
G1 F800.0 Y34.9042
G3 X19.75 Y33.7506 I7.0 J-10.6542
G1 Y35.8458
G3 X21.25 Y36.9994 I-7.0 J10.6542
G1 F300.0 X22.25
G1 F800.0 Y34.3503
G3 X18.75 Y31.1613 I6.0 J-10.1003
G1 Y36.3997
G3 X22.25 Y39.5887 I-6.0 J10.1003
G1 Y36.9994
G1 F300.0 X23.25
G1 F800.0 Y33.7642
G3 X22.876 Y33.558 I5.0 J-9.5142
G3 X19.0159 Y29.75 I5.374 J-9.308
G1 X17.75
G1 Y36.9858
G3 X22.1285 Y41.25 I-5.0 J9.5142
G1 X23.25
G1 Y36.9994
G1 F300.0 X24.25
G1 F800.0 Y33.1395
G3 X23.376 Y32.692 I4.0 J-8.8895
G3 X19.6028 Y28.75 I4.874 J-8.442
G1 X16.75
G1 Y37.6105
G3 X21.5227 Y42.25 I-4.0 J8.8895
G1 X24.25
G1 Y36.9994
G1 F300.0 X25.25
G1 F800.0 Y32.4675
G3 X23.876 Y31.826 I3.0 J-8.2175
G3 X20.2327 Y27.75 I4.374 J-7.576
G1 X15.75
G1 Y38.2825
G3 X20.8719 Y43.25 I-3.0 J8.2175
G1 X25.25
G1 Y36.9994
G1 F300.0 X26.25
G1 F800.0 Y31.7354
G3 X24.376 Y30.96 I2.0 J-7.4854
G3 X20.9164 Y26.75 I3.874 J-6.71
G1 X14.75
G1 Y39.0146
G3 X20.1641 Y44.25 I-2.0 J7.4854
G1 X26.25
G1 Y36.9994
G1 F300.0 X27.25
G1 F800.0 Y30.9235
G3 X24.876 Y30.0939 I1.0 J-6.6735
G3 X21.6708 Y25.75 I3.374 J-5.8439
G1 X13.75
G1 Y39.8265
G3 X19.3812 Y45.25 I-1.0 J6.6735
G1 X27.25
G1 Y36.9994
G1 F300.0 X28.25
G1 F800.0 Y29.998
G3 X25.376 Y29.2279 I0.0 J-5.748
G3 X22.5238 Y24.75 I2.874 J-4.9779
G1 X12.75
G1 Y40.752
G3 X18.4926 Y46.25 I0.0 J5.748
G1 X28.25
G1 Y36.9994
G1 F300.0 X29.25
G1 F800.0 Y28.8915
G3 X25.876 Y28.3619 I-1.0 J-4.6415
G3 X23.5284 Y23.75 I2.374 J-4.1119
G1 X11.75
G1 Y41.8585
G3 X17.498 Y46.5 I1.0 J4.6415
G3 X17.4384 Y47.25 I-4.748 J0.0
G1 X29.25
G1 Y36.9994
G1 F300.0 X30.25
G1 F800.0 Y27.4198
G3 X26.376 Y27.4959 I-2.0 J-3.1698
G3 X24.8153 Y22.75 I1.874 J-3.2459
G1 X10.75
G1 Y43.3302
G3 X10.876 Y43.2541 I2.0 J3.1698
G3 X16.498 Y46.5 I1.874 J3.2459
G3 X16.0644 Y48.25 I-3.748 J0.0
G1 X30.25
G1 Y36.9994
G1 F300.0 X31.25
G1 F800.0 Y21.75
G1 X29.3956
G3 X31.0 Y24.25 I-1.1456 J2.5
G3 X26.875 Y26.6316 I-2.75 J0.0
G3 Y21.8684 I1.375 J-2.3816
G3 X27.1044 Y21.75 I1.375 J2.3816
G1 X9.75
G1 Y49.25
G1 X31.25
G1 Y36.9994
G0 Z3.0
G0 X15.1963 Y45.2437
G1 F300.0 Z-5.3
G3 F800.0 X15.5 Y46.5 I-2.4463 J1.2563
G3 X11.375 Y48.8816 I-2.75 J0.0
G3 Y44.1184 I1.375 J-2.3816
G3 X15.1963 Y45.2437 I1.375 J2.3816
G1 F300.0 Z-5.7
G3 F800.0 X15.5 Y46.5 I-2.4463 J1.2563
G3 X11.375 Y48.8816 I-2.75 J0.0
G3 Y44.1184 I1.375 J-2.3816
G3 X15.1963 Y45.2437 I1.375 J2.3816
G0 Z3.0
G0 X21.25 Y36.9994
G1 F300.0 Z-5.7
G1 F800.0 Y34.9042
G3 X19.75 Y33.7506 I7.0 J-10.6542
G1 Y35.8458
G3 X21.25 Y36.9994 I-7.0 J10.6542
G1 F300.0 X22.25
G1 F800.0 Y34.3503
G3 X18.75 Y31.1613 I6.0 J-10.1003
G1 Y36.3997
G3 X22.25 Y39.5887 I-6.0 J10.1003
G1 Y36.9994
G1 F300.0 X23.25
G1 F800.0 Y33.7642
G3 X22.876 Y33.558 I5.0 J-9.5142
G3 X19.0159 Y29.75 I5.374 J-9.308
G1 X17.75
G1 Y36.9858
G3 X22.1285 Y41.25 I-5.0 J9.5142
G1 X23.25
G1 Y36.9994
G1 F300.0 X24.25
G1 F800.0 Y33.1395
G3 X23.376 Y32.692 I4.0 J-8.8895
G3 X19.6028 Y28.75 I4.874 J-8.442
G1 X16.75
G1 Y37.6105
G3 X21.5227 Y42.25 I-4.0 J8.8895
G1 X24.25
G1 Y36.9994
G1 F300.0 X25.25
G1 F800.0 Y32.4675
G3 X23.876 Y31.826 I3.0 J-8.2175
G3 X20.2327 Y27.75 I4.374 J-7.576
G1 X15.75
G1 Y38.2825
G3 X20.8719 Y43.25 I-3.0 J8.2175
G1 X25.25
G1 Y36.9994
G1 F300.0 X26.25
G1 F800.0 Y31.7354
G3 X24.376 Y30.96 I2.0 J-7.4854
G3 X20.9164 Y26.75 I3.874 J-6.71
G1 X14.75
G1 Y39.0146
G3 X20.1641 Y44.25 I-2.0 J7.4854
G1 X26.25
G1 Y36.9994
G1 F300.0 X27.25
G1 F800.0 Y30.9235
G3 X24.876 Y30.0939 I1.0 J-6.6735
G3 X21.6708 Y25.75 I3.374 J-5.8439
G1 X13.75
G1 Y39.8265
G3 X19.3812 Y45.25 I-1.0 J6.6735
G1 X27.25
G1 Y36.9994
G1 F300.0 X28.25
G1 F800.0 Y29.998
G3 X25.376 Y29.2279 I0.0 J-5.748
G3 X22.5238 Y24.75 I2.874 J-4.9779
G1 X12.75
G1 Y40.752
G3 X18.4926 Y46.25 I0.0 J5.748
G1 X28.25
G1 Y36.9994
G1 F300.0 X29.25
G1 F800.0 Y28.8915
G3 X25.876 Y28.3619 I-1.0 J-4.6415
G3 X23.5284 Y23.75 I2.374 J-4.1119
G1 X11.75
G1 Y41.8585
G3 X17.498 Y46.5 I1.0 J4.6415
G3 X17.4384 Y47.25 I-4.748 J0.0
G1 X29.25
G1 Y36.9994
G1 F300.0 X30.25
G1 F800.0 Y27.4198
G3 X26.376 Y27.4959 I-2.0 J-3.1698
G3 X24.8153 Y22.75 I1.874 J-3.2459
G1 X10.75
G1 Y43.3302
G3 X10.876 Y43.2541 I2.0 J3.1698
G3 X16.498 Y46.5 I1.874 J3.2459
G3 X16.0644 Y48.25 I-3.748 J0.0
G1 X30.25
G1 Y36.9994
G1 F300.0 X31.25
G1 F800.0 Y21.75
G1 X29.3956
G3 X31.0 Y24.25 I-1.1456 J2.5
G3 X26.875 Y26.6316 I-2.75 J0.0
G3 Y21.8684 I1.375 J-2.3816
G3 X27.1044 Y21.75 I1.375 J2.3816
G1 X9.75
G1 Y49.25
G1 X31.25
G1 Y36.9994
G0 Z3.0
G0 X21.25
G1 F300.0 Z-6.1
G1 F800.0 Y34.9042
G3 X19.75 Y33.7506 I7.0 J-10.6542
G1 Y35.8458
G3 X21.25 Y36.9994 I-7.0 J10.6542
G1 F300.0 X22.25
G1 F800.0 Y34.3503
G3 X18.75 Y31.1613 I6.0 J-10.1003
G1 Y36.3997
G3 X22.25 Y39.5887 I-6.0 J10.1003
G1 Y36.9994
G1 F300.0 X23.25
G1 F800.0 Y33.7642
G3 X22.876 Y33.558 I5.0 J-9.5142
G3 X19.0159 Y29.75 I5.374 J-9.308
G1 X17.75
G1 Y36.9858
G3 X22.1285 Y41.25 I-5.0 J9.5142
G1 X23.25
G1 Y36.9994
G1 F300.0 X24.25
G1 F800.0 Y33.1395
G3 X23.376 Y32.692 I4.0 J-8.8895
G3 X19.6028 Y28.75 I4.874 J-8.442
G1 X16.75
G1 Y37.6105
G3 X21.5227 Y42.25 I-4.0 J8.8895
G1 X24.25
G1 Y36.9994
G1 F300.0 X25.25
G1 F800.0 Y32.4675
G3 X23.876 Y31.826 I3.0 J-8.2175
G3 X20.2327 Y27.75 I4.374 J-7.576
G1 X15.75
G1 Y38.2825
G3 X20.8719 Y43.25 I-3.0 J8.2175
G1 X25.25
G1 Y36.9994
G1 F300.0 X26.25
G1 F800.0 Y31.7354
G3 X24.376 Y30.96 I2.0 J-7.4854
G3 X20.9164 Y26.75 I3.874 J-6.71
G1 X14.75
G1 Y39.0146
G3 X20.1641 Y44.25 I-2.0 J7.4854
G1 X26.25
G1 Y36.9994
G1 F300.0 X27.25
G1 F800.0 Y30.9235
G3 X24.876 Y30.0939 I1.0 J-6.6735
G3 X21.6708 Y25.75 I3.374 J-5.8439
G1 X13.75
G1 Y39.8265
G3 X19.3812 Y45.25 I-1.0 J6.6735
G1 X27.25
G1 Y36.9994
G1 F300.0 X28.25
G1 F800.0 Y29.998
G3 X25.376 Y29.2279 I0.0 J-5.748
G3 X22.5238 Y24.75 I2.874 J-4.9779
G1 X12.75
G1 Y40.752
G3 X18.4926 Y46.25 I0.0 J5.748
G1 X28.25
G1 Y36.9994
G1 F300.0 X29.25
G1 F800.0 Y28.8915
G3 X25.876 Y28.3619 I-1.0 J-4.6415
G3 X23.5284 Y23.75 I2.374 J-4.1119
G1 X11.75
G1 Y41.8585
G3 X17.498 Y46.5 I1.0 J4.6415
G3 X17.4384 Y47.25 I-4.748 J0.0
G1 X29.25
G1 Y36.9994
G1 F300.0 X30.25
G1 F800.0 Y27.4198
G3 X26.376 Y27.4959 I-2.0 J-3.1698
G3 X24.8153 Y22.75 I1.874 J-3.2459
G1 X10.75
G1 Y43.3302
G3 X10.876 Y43.2541 I2.0 J3.1698
G3 X16.498 Y46.5 I1.874 J3.2459
G3 X16.0644 Y48.25 I-3.748 J0.0
G1 X30.25
G1 Y36.9994
G1 F300.0 X31.25
G1 F800.0 Y21.75
G1 X29.3956
G3 X31.0 Y24.25 I-1.1456 J2.5
G3 X26.875 Y26.6316 I-2.75 J0.0
G3 Y21.8684 I1.375 J-2.3816
G3 X27.1044 Y21.75 I1.375 J2.3816
G1 X9.75
G1 Y49.25
G1 X31.25
G1 Y36.9994
G0 Z3.0
G0 X15.1963 Y45.2437
G1 F300.0 Z-6.1
G3 F800.0 X15.5 Y46.5 I-2.4463 J1.2563
G3 X11.375 Y48.8816 I-2.75 J0.0
G3 Y44.1184 I1.375 J-2.3816
G3 X15.1963 Y45.2437 I1.375 J2.3816
G1 F300.0 Z-6.5
G3 F800.0 X15.5 Y46.5 I-2.4463 J1.2563
G3 X11.375 Y48.8816 I-2.75 J0.0
G3 Y44.1184 I1.375 J-2.3816
G3 X15.1963 Y45.2437 I1.375 J2.3816
G0 Z3.0
G0 X21.25 Y36.9994
G1 F300.0 Z-6.5
G1 F800.0 Y34.9042
G3 X19.75 Y33.7506 I7.0 J-10.6542
G1 Y35.8458
G3 X21.25 Y36.9994 I-7.0 J10.6542
G1 F300.0 X22.25
G1 F800.0 Y34.3503
G3 X18.75 Y31.1613 I6.0 J-10.1003
G1 Y36.3997
G3 X22.25 Y39.5887 I-6.0 J10.1003
G1 Y36.9994
G1 F300.0 X23.25
G1 F800.0 Y33.7642
G3 X22.876 Y33.558 I5.0 J-9.5142
G3 X19.0159 Y29.75 I5.374 J-9.308
G1 X17.75
G1 Y36.9858
G3 X22.1285 Y41.25 I-5.0 J9.5142
G1 X23.25
G1 Y36.9994
G1 F300.0 X24.25
G1 F800.0 Y33.1395
G3 X23.376 Y32.692 I4.0 J-8.8895
G3 X19.6028 Y28.75 I4.874 J-8.442
G1 X16.75
G1 Y37.6105
G3 X21.5227 Y42.25 I-4.0 J8.8895
G1 X24.25
G1 Y36.9994
G1 F300.0 X25.25
G1 F800.0 Y32.4675
G3 X23.876 Y31.826 I3.0 J-8.2175
G3 X20.2327 Y27.75 I4.374 J-7.576
G1 X15.75
G1 Y38.2825
G3 X20.8719 Y43.25 I-3.0 J8.2175
G1 X25.25
G1 Y36.9994
G1 F300.0 X26.25
G1 F800.0 Y31.7354
G3 X24.376 Y30.96 I2.0 J-7.4854
G3 X20.9164 Y26.75 I3.874 J-6.71
G1 X14.75
G1 Y39.0146
G3 X20.1641 Y44.25 I-2.0 J7.4854
G1 X26.25
G1 Y36.9994
G1 F300.0 X27.25
G1 F800.0 Y30.9235
G3 X24.876 Y30.0939 I1.0 J-6.6735
G3 X21.6708 Y25.75 I3.374 J-5.8439
G1 X13.75
G1 Y39.8265
G3 X19.3812 Y45.25 I-1.0 J6.6735
G1 X27.25
G1 Y36.9994
G1 F300.0 X28.25
G1 F800.0 Y29.998
G3 X25.376 Y29.2279 I0.0 J-5.748
G3 X22.5238 Y24.75 I2.874 J-4.9779
G1 X12.75
G1 Y40.752
G3 X18.4926 Y46.25 I0.0 J5.748
G1 X28.25
G1 Y36.9994
G1 F300.0 X29.25
G1 F800.0 Y28.8915
G3 X25.876 Y28.3619 I-1.0 J-4.6415
G3 X23.5284 Y23.75 I2.374 J-4.1119
G1 X11.75
G1 Y41.8585
G3 X17.498 Y46.5 I1.0 J4.6415
G3 X17.4384 Y47.25 I-4.748 J0.0
G1 X29.25
G1 Y36.9994
G1 F300.0 X30.25
G1 F800.0 Y27.4198
G3 X26.376 Y27.4959 I-2.0 J-3.1698
G3 X24.8153 Y22.75 I1.874 J-3.2459
G1 X10.75
G1 Y43.3302
G3 X10.876 Y43.2541 I2.0 J3.1698
G3 X16.498 Y46.5 I1.874 J3.2459
G3 X16.0644 Y48.25 I-3.748 J0.0
G1 X30.25
G1 Y36.9994
G1 F300.0 X31.25
G1 F800.0 Y21.75
G1 X29.3956
G3 X31.0 Y24.25 I-1.1456 J2.5
G3 X26.875 Y26.6316 I-2.75 J0.0
G3 Y21.8684 I1.375 J-2.3816
G3 X27.1044 Y21.75 I1.375 J2.3816
G1 X9.75
G1 Y49.25
G1 X31.25
G1 Y36.9994
G0 Z3.0
G0 X21.25
G1 F300.0 Z-6.9
G1 F800.0 Y34.9042
G3 X19.75 Y33.7506 I7.0 J-10.6542
G1 Y35.8458
G3 X21.25 Y36.9994 I-7.0 J10.6542
G1 F300.0 X22.25
G1 F800.0 Y34.3503
G3 X18.75 Y31.1613 I6.0 J-10.1003
G1 Y36.3997
G3 X22.25 Y39.5887 I-6.0 J10.1003
G1 Y36.9994
G1 F300.0 X23.25
G1 F800.0 Y33.7642
G3 X22.876 Y33.558 I5.0 J-9.5142
G3 X19.0159 Y29.75 I5.374 J-9.308
G1 X17.75
G1 Y36.9858
G3 X22.1285 Y41.25 I-5.0 J9.5142
G1 X23.25
G1 Y36.9994
G1 F300.0 X24.25
G1 F800.0 Y33.1395
G3 X23.376 Y32.692 I4.0 J-8.8895
G3 X19.6028 Y28.75 I4.874 J-8.442
G1 X16.75
G1 Y37.6105
G3 X21.5227 Y42.25 I-4.0 J8.8895
G1 X24.25
G1 Y36.9994
G1 F300.0 X25.25
G1 F800.0 Y32.4675
G3 X23.876 Y31.826 I3.0 J-8.2175
G3 X20.2327 Y27.75 I4.374 J-7.576
G1 X15.75
G1 Y38.2825
G3 X20.8719 Y43.25 I-3.0 J8.2175
G1 X25.25
G1 Y36.9994
G1 F300.0 X26.25
G1 F800.0 Y31.7354
G3 X24.376 Y30.96 I2.0 J-7.4854
G3 X20.9164 Y26.75 I3.874 J-6.71
G1 X14.75
G1 Y39.0146
G3 X20.1641 Y44.25 I-2.0 J7.4854
G1 X26.25
G1 Y36.9994
G1 F300.0 X27.25
G1 F800.0 Y30.9235
G3 X24.876 Y30.0939 I1.0 J-6.6735
G3 X21.6708 Y25.75 I3.374 J-5.8439
G1 X13.75
G1 Y39.8265
G3 X19.3812 Y45.25 I-1.0 J6.6735
G1 X27.25
G1 Y36.9994
G1 F300.0 X28.25
G1 F800.0 Y29.998
G3 X25.376 Y29.2279 I0.0 J-5.748
G3 X22.5238 Y24.75 I2.874 J-4.9779
G1 X12.75
G1 Y40.752
G3 X18.4926 Y46.25 I0.0 J5.748
G1 X28.25
G1 Y36.9994
G1 F300.0 X29.25
G1 F800.0 Y28.8915
G3 X25.876 Y28.3619 I-1.0 J-4.6415
G3 X23.5284 Y23.75 I2.374 J-4.1119
G1 X11.75
G1 Y41.8585
G3 X17.498 Y46.5 I1.0 J4.6415
G3 X17.4384 Y47.25 I-4.748 J0.0
G1 X29.25
G1 Y36.9994
G1 F300.0 X30.25
G1 F800.0 Y27.4198
G3 X26.376 Y27.4959 I-2.0 J-3.1698
G3 X24.8153 Y22.75 I1.874 J-3.2459
G1 X10.75
G1 Y43.3302
G3 X10.876 Y43.2541 I2.0 J3.1698
G3 X16.498 Y46.5 I1.874 J3.2459
G3 X16.0644 Y48.25 I-3.748 J0.0
G1 X30.25
G1 Y36.9994
G1 F300.0 X31.25
G1 F800.0 Y21.75
G1 X29.3956
G3 X31.0 Y24.25 I-1.1456 J2.5
G3 X26.875 Y26.6316 I-2.75 J0.0
G3 Y21.8684 I1.375 J-2.3816
G3 X27.1044 Y21.75 I1.375 J2.3816
G1 X9.75
G1 Y49.25
G1 X31.25
G1 Y36.9994
G0 Z3.0
G0 X15.1963 Y45.2437
G1 F300.0 Z-6.9
G3 F800.0 X15.5 Y46.5 I-2.4463 J1.2563
G3 X11.375 Y48.8816 I-2.75 J0.0
G3 Y44.1184 I1.375 J-2.3816
G3 X15.1963 Y45.2437 I1.375 J2.3816
G1 F300.0 Z-7.3
G3 F800.0 X15.5 Y46.5 I-2.4463 J1.2563
G3 X11.375 Y48.8816 I-2.75 J0.0
G3 Y44.1184 I1.375 J-2.3816
G3 X15.1963 Y45.2437 I1.375 J2.3816
G0 Z3.0
G0 X21.25 Y36.9994
G1 F300.0 Z-7.3
G1 F800.0 Y34.9042
G3 X19.75 Y33.7506 I7.0 J-10.6542
G1 Y35.8458
G3 X21.25 Y36.9994 I-7.0 J10.6542
G1 F300.0 X22.25
G1 F800.0 Y34.3503
G3 X18.75 Y31.1613 I6.0 J-10.1003
G1 Y36.3997
G3 X22.25 Y39.5887 I-6.0 J10.1003
G1 Y36.9994
G1 F300.0 X23.25
G1 F800.0 Y33.7642
G3 X22.876 Y33.558 I5.0 J-9.5142
G3 X19.0159 Y29.75 I5.374 J-9.308
G1 X17.75
G1 Y36.9858
G3 X22.1285 Y41.25 I-5.0 J9.5142
G1 X23.25
G1 Y36.9994
G1 F300.0 X24.25
G1 F800.0 Y33.1395
G3 X23.376 Y32.692 I4.0 J-8.8895
G3 X19.6028 Y28.75 I4.874 J-8.442
G1 X16.75
G1 Y37.6105
G3 X21.5227 Y42.25 I-4.0 J8.8895
G1 X24.25
G1 Y36.9994
G1 F300.0 X25.25
G1 F800.0 Y32.4675
G3 X23.876 Y31.826 I3.0 J-8.2175
G3 X20.2327 Y27.75 I4.374 J-7.576
G1 X15.75
G1 Y38.2825
G3 X20.8719 Y43.25 I-3.0 J8.2175
G1 X25.25
G1 Y36.9994
G1 F300.0 X26.25
G1 F800.0 Y31.7354
G3 X24.376 Y30.96 I2.0 J-7.4854
G3 X20.9164 Y26.75 I3.874 J-6.71
G1 X14.75
G1 Y39.0146
G3 X20.1641 Y44.25 I-2.0 J7.4854
G1 X26.25
G1 Y36.9994
G1 F300.0 X27.25
G1 F800.0 Y30.9235
G3 X24.876 Y30.0939 I1.0 J-6.6735
G3 X21.6708 Y25.75 I3.374 J-5.8439
G1 X13.75
G1 Y39.8265
G3 X19.3812 Y45.25 I-1.0 J6.6735
G1 X27.25
G1 Y36.9994
G1 F300.0 X28.25
G1 F800.0 Y29.998
G3 X25.376 Y29.2279 I0.0 J-5.748
G3 X22.5238 Y24.75 I2.874 J-4.9779
G1 X12.75
G1 Y40.752
G3 X18.4926 Y46.25 I0.0 J5.748
G1 X28.25
G1 Y36.9994
G1 F300.0 X29.25
G1 F800.0 Y28.8915
G3 X25.876 Y28.3619 I-1.0 J-4.6415
G3 X23.5284 Y23.75 I2.374 J-4.1119
G1 X11.75
G1 Y41.8585
G3 X17.498 Y46.5 I1.0 J4.6415
G3 X17.4384 Y47.25 I-4.748 J0.0
G1 X29.25
G1 Y36.9994
G1 F300.0 X30.25
G1 F800.0 Y27.4198
G3 X26.376 Y27.4959 I-2.0 J-3.1698
G3 X24.8153 Y22.75 I1.874 J-3.2459
G1 X10.75
G1 Y43.3302
G3 X10.876 Y43.2541 I2.0 J3.1698
G3 X16.498 Y46.5 I1.874 J3.2459
G3 X16.0644 Y48.25 I-3.748 J0.0
G1 X30.25
G1 Y36.9994
G1 F300.0 X31.25
G1 F800.0 Y21.75
G1 X29.3956
G3 X31.0 Y24.25 I-1.1456 J2.5
G3 X26.875 Y26.6316 I-2.75 J0.0
G3 Y21.8684 I1.375 J-2.3816
G3 X27.1044 Y21.75 I1.375 J2.3816
G1 X9.75
G1 Y49.25
G1 X31.25
G1 Y36.9994
G0 Z3.0
G0 X21.25
G1 F300.0 Z-7.7
G1 F800.0 Y34.9042
G3 X19.75 Y33.7506 I7.0 J-10.6542
G1 Y35.8458
G3 X21.25 Y36.9994 I-7.0 J10.6542
G1 F300.0 X22.25
G1 F800.0 Y34.3503
G3 X18.75 Y31.1613 I6.0 J-10.1003
G1 Y36.3997
G3 X22.25 Y39.5887 I-6.0 J10.1003
G1 Y36.9994
G1 F300.0 X23.25
G1 F800.0 Y33.7642
G3 X22.876 Y33.558 I5.0 J-9.5142
G3 X19.0159 Y29.75 I5.374 J-9.308
G1 X17.75
G1 Y36.9858
G3 X22.1285 Y41.25 I-5.0 J9.5142
G1 X23.25
G1 Y36.9994
G1 F300.0 X24.25
G1 F800.0 Y33.1395
G3 X23.376 Y32.692 I4.0 J-8.8895
G3 X19.6028 Y28.75 I4.874 J-8.442
G1 X16.75
G1 Y37.6105
G3 X21.5227 Y42.25 I-4.0 J8.8895
G1 X24.25
G1 Y36.9994
G1 F300.0 X25.25
G1 F800.0 Y32.4675
G3 X23.876 Y31.826 I3.0 J-8.2175
G3 X20.2327 Y27.75 I4.374 J-7.576
G1 X15.75
G1 Y38.2825
G3 X20.8719 Y43.25 I-3.0 J8.2175
G1 X25.25
G1 Y36.9994
G1 F300.0 X26.25
G1 F800.0 Y31.7354
G3 X24.376 Y30.96 I2.0 J-7.4854
G3 X20.9164 Y26.75 I3.874 J-6.71
G1 X14.75
G1 Y39.0146
G3 X20.1641 Y44.25 I-2.0 J7.4854
G1 X26.25
G1 Y36.9994
G1 F300.0 X27.25
G1 F800.0 Y30.9235
G3 X24.876 Y30.0939 I1.0 J-6.6735
G3 X21.6708 Y25.75 I3.374 J-5.8439
G1 X13.75
G1 Y39.8265
G3 X19.3812 Y45.25 I-1.0 J6.6735
G1 X27.25
G1 Y36.9994
G1 F300.0 X28.25
G1 F800.0 Y29.998
G3 X25.376 Y29.2279 I0.0 J-5.748
G3 X22.5238 Y24.75 I2.874 J-4.9779
G1 X12.75
G1 Y40.752
G3 X18.4926 Y46.25 I0.0 J5.748
G1 X28.25
G1 Y36.9994
G1 F300.0 X29.25
G1 F800.0 Y28.8915
G3 X25.876 Y28.3619 I-1.0 J-4.6415
G3 X23.5284 Y23.75 I2.374 J-4.1119
G1 X11.75
G1 Y41.8585
G3 X17.498 Y46.5 I1.0 J4.6415
G3 X17.4384 Y47.25 I-4.748 J0.0
G1 X29.25
G1 Y36.9994
G1 F300.0 X30.25
G1 F800.0 Y27.4198
G3 X26.376 Y27.4959 I-2.0 J-3.1698
G3 X24.8153 Y22.75 I1.874 J-3.2459
G1 X10.75
G1 Y43.3302
G3 X10.876 Y43.2541 I2.0 J3.1698
G3 X16.498 Y46.5 I1.874 J3.2459
G3 X16.0644 Y48.25 I-3.748 J0.0
G1 X30.25
G1 Y36.9994
G1 F300.0 X31.25
G1 F800.0 Y21.75
G1 X29.3956
G3 X31.0 Y24.25 I-1.1456 J2.5
G3 X26.875 Y26.6316 I-2.75 J0.0
G3 Y21.8684 I1.375 J-2.3816
G3 X27.1044 Y21.75 I1.375 J2.3816
G1 X9.75
G1 Y49.25
G1 X31.25
G1 Y36.9994
G0 Z3.0
G0 X15.1963 Y45.2437
G1 F300.0 Z-7.7
G3 F800.0 X15.5 Y46.5 I-2.4463 J1.2563
G3 X11.375 Y48.8816 I-2.75 J0.0
G3 Y44.1184 I1.375 J-2.3816
G3 X15.1963 Y45.2437 I1.375 J2.3816
G1 F300.0 Z-8.0
G3 F800.0 X15.5 Y46.5 I-2.4463 J1.2563
G3 X11.375 Y48.8816 I-2.75 J0.0
G3 Y44.1184 I1.375 J-2.3816
G3 X15.1963 Y45.2437 I1.375 J2.3816
G0 Z3.0
G0 X21.25 Y36.9994
G1 F300.0 Z-8.0
G1 F800.0 Y34.9042
G3 X19.75 Y33.7506 I7.0 J-10.6542
G1 Y35.8458
G3 X21.25 Y36.9994 I-7.0 J10.6542
G1 F300.0 X22.25
G1 F800.0 Y34.3503
G3 X18.75 Y31.1613 I6.0 J-10.1003
G1 Y36.3997
G3 X22.25 Y39.5887 I-6.0 J10.1003
G1 Y36.9994
G1 F300.0 X23.25
G1 F800.0 Y33.7642
G3 X22.876 Y33.558 I5.0 J-9.5142
G3 X19.0159 Y29.75 I5.374 J-9.308
G1 X17.75
G1 Y36.9858
G3 X22.1285 Y41.25 I-5.0 J9.5142
G1 X23.25
G1 Y36.9994
G1 F300.0 X24.25
G1 F800.0 Y33.1395
G3 X23.376 Y32.692 I4.0 J-8.8895
G3 X19.6028 Y28.75 I4.874 J-8.442
G1 X16.75
G1 Y37.6105
G3 X21.5227 Y42.25 I-4.0 J8.8895
G1 X24.25
G1 Y36.9994
G1 F300.0 X25.25
G1 F800.0 Y32.4675
G3 X23.876 Y31.826 I3.0 J-8.2175
G3 X20.2327 Y27.75 I4.374 J-7.576
G1 X15.75
G1 Y38.2825
G3 X20.8719 Y43.25 I-3.0 J8.2175
G1 X25.25
G1 Y36.9994
G1 F300.0 X26.25
G1 F800.0 Y31.7354
G3 X24.376 Y30.96 I2.0 J-7.4854
G3 X20.9164 Y26.75 I3.874 J-6.71
G1 X14.75
G1 Y39.0146
G3 X20.1641 Y44.25 I-2.0 J7.4854
G1 X26.25
G1 Y36.9994
G1 F300.0 X27.25
G1 F800.0 Y30.9235
G3 X24.876 Y30.0939 I1.0 J-6.6735
G3 X21.6708 Y25.75 I3.374 J-5.8439
G1 X13.75
G1 Y39.8265
G3 X19.3812 Y45.25 I-1.0 J6.6735
G1 X27.25
G1 Y36.9994
G1 F300.0 X28.25
G1 F800.0 Y29.998
G3 X25.376 Y29.2279 I0.0 J-5.748
G3 X22.5238 Y24.75 I2.874 J-4.9779
G1 X12.75
G1 Y40.752
G3 X18.4926 Y46.25 I0.0 J5.748
G1 X28.25
G1 Y36.9994
G1 F300.0 X29.25
G1 F800.0 Y28.8915
G3 X25.876 Y28.3619 I-1.0 J-4.6415
G3 X23.5284 Y23.75 I2.374 J-4.1119
G1 X11.75
G1 Y41.8585
G3 X17.498 Y46.5 I1.0 J4.6415
G3 X17.4384 Y47.25 I-4.748 J0.0
G1 X29.25
G1 Y36.9994
G1 F300.0 X30.25
G1 F800.0 Y27.4198
G3 X26.376 Y27.4959 I-2.0 J-3.1698
G3 X24.8153 Y22.75 I1.874 J-3.2459
G1 X10.75
G1 Y43.3302
G3 X10.876 Y43.2541 I2.0 J3.1698
G3 X16.498 Y46.5 I1.874 J3.2459
G3 X16.0644 Y48.25 I-3.748 J0.0
G1 X30.25
G1 Y36.9994
G1 F300.0 X31.25
G1 F800.0 Y21.75
G1 X29.3956
G3 X31.0 Y24.25 I-1.1456 J2.5
G3 X26.875 Y26.6316 I-2.75 J0.0
G3 Y21.8684 I1.375 J-2.3816
G3 X27.1044 Y21.75 I1.375 J2.3816
G1 X9.75
G1 Y49.25
G1 X31.25
G1 Y36.9994
( Case - Wire Whole )
S1000
G0 Z3.0
G0 X5.25 Y25.25
G1 F300.0 Z-5.0
G1 F800.0 Y26.75
G1 X8.75
G1 Y25.25
G1 X5.25
G1 F300.0 Z-5.5
G1 F800.0 Y26.75
G1 X8.75
G1 Y25.25
G1 X5.25
G1 F300.0 Z-6.0
G1 F800.0 Y26.75
G1 X8.75
G1 Y25.25
G1 X5.25
G1 F300.0 Z-6.5
G1 F800.0 Y26.75
G1 X8.75
G1 Y25.25
G1 X5.25
G1 F300.0 Z-7.0
G1 F800.0 Y26.75
G1 X8.75
G1 Y25.25
G1 X5.25
G1 F300.0 Z-7.5
G1 F800.0 Y26.75
G1 X8.75
G1 Y25.25
G1 X5.25
G1 F300.0 Z-8.0
G1 F800.0 Y26.75
G1 X8.75
G1 Y25.25
G1 X5.25
( Case - Sensor Pocket )
S1000
G0 Z3.0
G0 X19.5
G1 F300.0 Z-8.5
G1 F800.0 Y26.25
G1 X21.5
G1 Y25.25
G1 X19.5
G1 F300.0 Z-9.0
G1 F800.0 Y26.25
G1 X21.5
G1 Y25.25
G1 X19.5
( Case - LED top )
S1000
G0 Z3.0
G0 X20.8 Y44.7
G1 F300.0 Z-5.0
G2 F800.0 X20.35 Y44.4402 I-0.3 J0.0
G2 Y44.9598 I0.15 J0.2598
G2 X20.8 Y44.7 I0.15 J-0.2598
G1 F300.0 X21.8
G2 F800.0 X19.85 Y43.5742 I-1.3 J0.0
G2 Y45.8258 I0.65 J1.1258
G2 X21.8 Y44.7 I0.65 J-1.1258
G1 F300.0 X20.8
G1 Z-5.5
G2 F800.0 X20.35 Y44.4402 I-0.3 J0.0
G2 Y44.9598 I0.15 J0.2598
G2 X20.8 Y44.7 I0.15 J-0.2598
G1 F300.0 X21.8
G2 F800.0 X19.85 Y43.5742 I-1.3 J0.0
G2 Y45.8258 I0.65 J1.1258
G2 X21.8 Y44.7 I0.65 J-1.1258
G1 F300.0 X20.8
G1 Z-6.0
G2 F800.0 X20.35 Y44.4402 I-0.3 J0.0
G2 Y44.9598 I0.15 J0.2598
G2 X20.8 Y44.7 I0.15 J-0.2598
G1 F300.0 X21.8
G2 F800.0 X19.85 Y43.5742 I-1.3 J0.0
G2 Y45.8258 I0.65 J1.1258
G2 X21.8 Y44.7 I0.65 J-1.1258
G1 F300.0 X20.8
G1 Z-6.5
G2 F800.0 X20.35 Y44.4402 I-0.3 J0.0
G2 Y44.9598 I0.15 J0.2598
G2 X20.8 Y44.7 I0.15 J-0.2598
G1 F300.0 X21.8
G2 F800.0 X19.85 Y43.5742 I-1.3 J0.0
G2 Y45.8258 I0.65 J1.1258
G2 X21.8 Y44.7 I0.65 J-1.1258
G1 F300.0 X20.8
G1 Z-7.0
G2 F800.0 X20.35 Y44.4402 I-0.3 J0.0
G2 Y44.9598 I0.15 J0.2598
G2 X20.8 Y44.7 I0.15 J-0.2598
G1 F300.0 X21.8
G2 F800.0 X19.85 Y43.5742 I-1.3 J0.0
G2 Y45.8258 I0.65 J1.1258
G2 X21.8 Y44.7 I0.65 J-1.1258
G1 F300.0 X20.8
G1 Z-7.5
G2 F800.0 X20.35 Y44.4402 I-0.3 J0.0
G2 Y44.9598 I0.15 J0.2598
G2 X20.8 Y44.7 I0.15 J-0.2598
G1 F300.0 X21.8
G2 F800.0 X19.85 Y43.5742 I-1.3 J0.0
G2 Y45.8258 I0.65 J1.1258
G2 X21.8 Y44.7 I0.65 J-1.1258
G1 F300.0 X20.8
G1 Z-8.0
G2 F800.0 X20.35 Y44.4402 I-0.3 J0.0
G2 Y44.9598 I0.15 J0.2598
G2 X20.8 Y44.7 I0.15 J-0.2598
G1 F300.0 X21.8
G2 F800.0 X19.85 Y43.5742 I-1.3 J0.0
G2 Y45.8258 I0.65 J1.1258
G2 X21.8 Y44.7 I0.65 J-1.1258
G1 F300.0 X20.8
G1 Z-8.5
G2 F800.0 X20.35 Y44.4402 I-0.3 J0.0
G2 Y44.9598 I0.15 J0.2598
G2 X20.8 Y44.7 I0.15 J-0.2598
G1 F300.0 X21.8
G2 F800.0 X19.85 Y43.5742 I-1.3 J0.0
G2 Y45.8258 I0.65 J1.1258
G2 X21.8 Y44.7 I0.65 J-1.1258
G1 F300.0 X20.8
G1 Z-9.0
G2 F800.0 X20.35 Y44.4402 I-0.3 J0.0
G2 Y44.9598 I0.15 J0.2598
G2 X20.8 Y44.7 I0.15 J-0.2598
G1 F300.0 X21.8
G2 F800.0 X19.85 Y43.5742 I-1.3 J0.0
G2 Y45.8258 I0.65 J1.1258
G2 X21.8 Y44.7 I0.65 J-1.1258
G1 F300.0 X20.8
G1 Z-9.5
G2 F800.0 X20.35 Y44.4402 I-0.3 J0.0
G2 Y44.9598 I0.15 J0.2598
G2 X20.8 Y44.7 I0.15 J-0.2598
G1 F300.0 X21.8
G2 F800.0 X19.85 Y43.5742 I-1.3 J0.0
G2 Y45.8258 I0.65 J1.1258
G2 X21.8 Y44.7 I0.65 J-1.1258
G1 F300.0 X20.8
G1 Z-10.0
G2 F800.0 X20.35 Y44.4402 I-0.3 J0.0
G2 Y44.9598 I0.15 J0.2598
G2 X20.8 Y44.7 I0.15 J-0.2598
G1 F300.0 X21.8
G2 F800.0 X19.85 Y43.5742 I-1.3 J0.0
G2 Y45.8258 I0.65 J1.1258
G2 X21.8 Y44.7 I0.65 J-1.1258
( Case - LED bottom )
S1000
G0 Z3.0
G0 X20.8 Y37.0
G1 F300.0 Z-5.0
G2 F800.0 X20.35 Y36.7402 I-0.3 J0.0
G2 Y37.2598 I0.15 J0.2598
G2 X20.8 Y37.0 I0.15 J-0.2598
G1 F300.0 X21.8
G2 F800.0 X19.85 Y35.8742 I-1.3 J0.0
G2 Y38.1258 I0.65 J1.1258
G2 X21.8 Y37.0 I0.65 J-1.1258
G1 F300.0 X20.8
G1 Z-5.5
G2 F800.0 X20.35 Y36.7402 I-0.3 J0.0
G2 Y37.2598 I0.15 J0.2598
G2 X20.8 Y37.0 I0.15 J-0.2598
G1 F300.0 X21.8
G2 F800.0 X19.85 Y35.8742 I-1.3 J0.0
G2 Y38.1258 I0.65 J1.1258
G2 X21.8 Y37.0 I0.65 J-1.1258
G1 F300.0 X20.8
G1 Z-6.0
G2 F800.0 X20.35 Y36.7402 I-0.3 J0.0
G2 Y37.2598 I0.15 J0.2598
G2 X20.8 Y37.0 I0.15 J-0.2598
G1 F300.0 X21.8
G2 F800.0 X19.85 Y35.8742 I-1.3 J0.0
G2 Y38.1258 I0.65 J1.1258
G2 X21.8 Y37.0 I0.65 J-1.1258
G1 F300.0 X20.8
G1 Z-6.5
G2 F800.0 X20.35 Y36.7402 I-0.3 J0.0
G2 Y37.2598 I0.15 J0.2598
G2 X20.8 Y37.0 I0.15 J-0.2598
G1 F300.0 X21.8
G2 F800.0 X19.85 Y35.8742 I-1.3 J0.0
G2 Y38.1258 I0.65 J1.1258
G2 X21.8 Y37.0 I0.65 J-1.1258
G1 F300.0 X20.8
G1 Z-7.0
G2 F800.0 X20.35 Y36.7402 I-0.3 J0.0
G2 Y37.2598 I0.15 J0.2598
G2 X20.8 Y37.0 I0.15 J-0.2598
G1 F300.0 X21.8
G2 F800.0 X19.85 Y35.8742 I-1.3 J0.0
G2 Y38.1258 I0.65 J1.1258
G2 X21.8 Y37.0 I0.65 J-1.1258
G1 F300.0 X20.8
G1 Z-7.5
G2 F800.0 X20.35 Y36.7402 I-0.3 J0.0
G2 Y37.2598 I0.15 J0.2598
G2 X20.8 Y37.0 I0.15 J-0.2598
G1 F300.0 X21.8
G2 F800.0 X19.85 Y35.8742 I-1.3 J0.0
G2 Y38.1258 I0.65 J1.1258
G2 X21.8 Y37.0 I0.65 J-1.1258
G1 F300.0 X20.8
G1 Z-8.0
G2 F800.0 X20.35 Y36.7402 I-0.3 J0.0
G2 Y37.2598 I0.15 J0.2598
G2 X20.8 Y37.0 I0.15 J-0.2598
G1 F300.0 X21.8
G2 F800.0 X19.85 Y35.8742 I-1.3 J0.0
G2 Y38.1258 I0.65 J1.1258
G2 X21.8 Y37.0 I0.65 J-1.1258
G1 F300.0 X20.8
G1 Z-8.5
G2 F800.0 X20.35 Y36.7402 I-0.3 J0.0
G2 Y37.2598 I0.15 J0.2598
G2 X20.8 Y37.0 I0.15 J-0.2598
G1 F300.0 X21.8
G2 F800.0 X19.85 Y35.8742 I-1.3 J0.0
G2 Y38.1258 I0.65 J1.1258
G2 X21.8 Y37.0 I0.65 J-1.1258
G1 F300.0 X20.8
G1 Z-9.0
G2 F800.0 X20.35 Y36.7402 I-0.3 J0.0
G2 Y37.2598 I0.15 J0.2598
G2 X20.8 Y37.0 I0.15 J-0.2598
G1 F300.0 X21.8
G2 F800.0 X19.85 Y35.8742 I-1.3 J0.0
G2 Y38.1258 I0.65 J1.1258
G2 X21.8 Y37.0 I0.65 J-1.1258
G1 F300.0 X20.8
G1 Z-9.5
G2 F800.0 X20.35 Y36.7402 I-0.3 J0.0
G2 Y37.2598 I0.15 J0.2598
G2 X20.8 Y37.0 I0.15 J-0.2598
G1 F300.0 X21.8
G2 F800.0 X19.85 Y35.8742 I-1.3 J0.0
G2 Y38.1258 I0.65 J1.1258
G2 X21.8 Y37.0 I0.65 J-1.1258
G1 F300.0 X20.8
G1 Z-10.0
G2 F800.0 X20.35 Y36.7402 I-0.3 J0.0
G2 Y37.2598 I0.15 J0.2598
G2 X20.8 Y37.0 I0.15 J-0.2598
G1 F300.0 X21.8
G2 F800.0 X19.85 Y35.8742 I-1.3 J0.0
G2 Y38.1258 I0.65 J1.1258
G2 X21.8 Y37.0 I0.65 J-1.1258
( Case - Outside body )
S1000
G0 Z3.0
G0 X6.0 Y16.75
G1 F300.0 Z-3.0
G1 F800.0 X35.0
G3 X36.25 Y18.0 I0.0 J1.25
G1 Y53.0
G3 X35.0 Y54.25 I-1.25 J0.0
G1 X6.0
G3 X4.75 Y53.0 I0.0 J-1.25
G1 Y18.0
G3 X6.0 Y16.75 I1.25 J0.0
G1 F300.0 Y16.25
G1 F800.0 X35.0
G3 X36.75 Y18.0 I0.0 J1.75
G1 Y53.0
G3 X35.0 Y54.75 I-1.75 J0.0
G1 X6.0
G3 X4.25 Y53.0 I0.0 J-1.75
G1 Y18.0
G3 X6.0 Y16.25 I1.75 J0.0
G1 F300.0 Y16.75
G1 Z-3.5
G1 F800.0 X35.0
G3 X36.25 Y18.0 I0.0 J1.25
G1 Y53.0
G3 X35.0 Y54.25 I-1.25 J0.0
G1 X6.0
G3 X4.75 Y53.0 I0.0 J-1.25
G1 Y18.0
G3 X6.0 Y16.75 I1.25 J0.0
G1 F300.0 Y16.25
G1 F800.0 X35.0
G3 X36.75 Y18.0 I0.0 J1.75
G1 Y53.0
G3 X35.0 Y54.75 I-1.75 J0.0
G1 X6.0
G3 X4.25 Y53.0 I0.0 J-1.75
G1 Y18.0
G3 X6.0 Y16.25 I1.75 J0.0
G1 F300.0 Y16.75
G1 Z-4.0
G1 F800.0 X35.0
G3 X36.25 Y18.0 I0.0 J1.25
G1 Y53.0
G3 X35.0 Y54.25 I-1.25 J0.0
G1 X6.0
G3 X4.75 Y53.0 I0.0 J-1.25
G1 Y18.0
G3 X6.0 Y16.75 I1.25 J0.0
G1 F300.0 Y16.25
G1 F800.0 X35.0
G3 X36.75 Y18.0 I0.0 J1.75
G1 Y53.0
G3 X35.0 Y54.75 I-1.75 J0.0
G1 X6.0
G3 X4.25 Y53.0 I0.0 J-1.75
G1 Y18.0
G3 X6.0 Y16.25 I1.75 J0.0
G1 F300.0 Y16.75
G1 Z-4.5
G1 F800.0 X35.0
G3 X36.25 Y18.0 I0.0 J1.25
G1 Y53.0
G3 X35.0 Y54.25 I-1.25 J0.0
G1 X6.0
G3 X4.75 Y53.0 I0.0 J-1.25
G1 Y18.0
G3 X6.0 Y16.75 I1.25 J0.0
G1 F300.0 Y16.25
G1 F800.0 X35.0
G3 X36.75 Y18.0 I0.0 J1.75
G1 Y53.0
G3 X35.0 Y54.75 I-1.75 J0.0
G1 X6.0
G3 X4.25 Y53.0 I0.0 J-1.75
G1 Y18.0
G3 X6.0 Y16.25 I1.75 J0.0
G1 F300.0 Y16.75
G1 Z-5.0
G1 F800.0 X35.0
G3 X36.25 Y18.0 I0.0 J1.25
G1 Y53.0
G3 X35.0 Y54.25 I-1.25 J0.0
G1 X6.0
G3 X4.75 Y53.0 I0.0 J-1.25
G1 Y18.0
G3 X6.0 Y16.75 I1.25 J0.0
G1 F300.0 Y16.25
G1 F800.0 X35.0
G3 X36.75 Y18.0 I0.0 J1.75
G1 Y53.0
G3 X35.0 Y54.75 I-1.75 J0.0
G1 X6.0
G3 X4.25 Y53.0 I0.0 J-1.75
G1 Y18.0
G3 X6.0 Y16.25 I1.75 J0.0
G1 F300.0 Y16.75
G1 Z-5.5
G1 F800.0 X35.0
G3 X36.25 Y18.0 I0.0 J1.25
G1 Y53.0
G3 X35.0 Y54.25 I-1.25 J0.0
G1 X6.0
G3 X4.75 Y53.0 I0.0 J-1.25
G1 Y18.0
G3 X6.0 Y16.75 I1.25 J0.0
G1 F300.0 Y16.25
G1 F800.0 X35.0
G3 X36.75 Y18.0 I0.0 J1.75
G1 Y53.0
G3 X35.0 Y54.75 I-1.75 J0.0
G1 X6.0
G3 X4.25 Y53.0 I0.0 J-1.75
G1 Y18.0
G3 X6.0 Y16.25 I1.75 J0.0
G1 F300.0 Y16.75
G1 Z-6.0
G1 F800.0 X35.0
G3 X36.25 Y18.0 I0.0 J1.25
G1 Y53.0
G3 X35.0 Y54.25 I-1.25 J0.0
G1 X6.0
G3 X4.75 Y53.0 I0.0 J-1.25
G1 Y18.0
G3 X6.0 Y16.75 I1.25 J0.0
G1 F300.0 Y16.25
G1 F800.0 X35.0
G3 X36.75 Y18.0 I0.0 J1.75
G1 Y53.0
G3 X35.0 Y54.75 I-1.75 J0.0
G1 X6.0
G3 X4.25 Y53.0 I0.0 J-1.75
G1 Y18.0
G3 X6.0 Y16.25 I1.75 J0.0
G1 F300.0 Y16.75
G1 Z-6.5
G1 F800.0 X35.0
G3 X36.25 Y18.0 I0.0 J1.25
G1 Y53.0
G3 X35.0 Y54.25 I-1.25 J0.0
G1 X6.0
G3 X4.75 Y53.0 I0.0 J-1.25
G1 Y18.0
G3 X6.0 Y16.75 I1.25 J0.0
G1 F300.0 Y16.25
G1 F800.0 X35.0
G3 X36.75 Y18.0 I0.0 J1.75
G1 Y53.0
G3 X35.0 Y54.75 I-1.75 J0.0
G1 X6.0
G3 X4.25 Y53.0 I0.0 J-1.75
G1 Y18.0
G3 X6.0 Y16.25 I1.75 J0.0
G1 F300.0 Y16.75
G1 Z-7.0
G1 F800.0 X35.0
G3 X36.25 Y18.0 I0.0 J1.25
G1 Y53.0
G3 X35.0 Y54.25 I-1.25 J0.0
G1 X6.0
G3 X4.75 Y53.0 I0.0 J-1.25
G1 Y18.0
G3 X6.0 Y16.75 I1.25 J0.0
G1 F300.0 Y16.25
G1 F800.0 X35.0
G3 X36.75 Y18.0 I0.0 J1.75
G1 Y53.0
G3 X35.0 Y54.75 I-1.75 J0.0
G1 X6.0
G3 X4.25 Y53.0 I0.0 J-1.75
G1 Y18.0
G3 X6.0 Y16.25 I1.75 J0.0
G1 F300.0 Y16.75
G1 Z-7.5
G1 F800.0 X35.0
G3 X36.25 Y18.0 I0.0 J1.25
G1 Y53.0
G3 X35.0 Y54.25 I-1.25 J0.0
G1 X6.0
G3 X4.75 Y53.0 I0.0 J-1.25
G1 Y18.0
G3 X6.0 Y16.75 I1.25 J0.0
G1 F300.0 Y16.25
G1 F800.0 X35.0
G3 X36.75 Y18.0 I0.0 J1.75
G1 Y53.0
G3 X35.0 Y54.75 I-1.75 J0.0
G1 X6.0
G3 X4.25 Y53.0 I0.0 J-1.75
G1 Y18.0
G3 X6.0 Y16.25 I1.75 J0.0
G1 F300.0 Y16.75
G1 Z-8.0
G1 F800.0 X35.0
G3 X36.25 Y18.0 I0.0 J1.25
G1 Y53.0
G3 X35.0 Y54.25 I-1.25 J0.0
G1 X6.0
G3 X4.75 Y53.0 I0.0 J-1.25
G1 Y18.0
G3 X6.0 Y16.75 I1.25 J0.0
G1 F300.0 Y16.25
G1 F800.0 X35.0
G3 X36.75 Y18.0 I0.0 J1.75
G1 Y53.0
G3 X35.0 Y54.75 I-1.75 J0.0
G1 X6.0
G3 X4.25 Y53.0 I0.0 J-1.75
G1 Y18.0
G3 X6.0 Y16.25 I1.75 J0.0
G1 F300.0 Y16.75
G1 Z-8.5
G1 F800.0 X35.0
G3 X36.25 Y18.0 I0.0 J1.25
G1 Y53.0
G3 X35.0 Y54.25 I-1.25 J0.0
G1 X6.0
G3 X4.75 Y53.0 I0.0 J-1.25
G1 Y18.0
G3 X6.0 Y16.75 I1.25 J0.0
G1 F300.0 Y16.25
G1 F800.0 X35.0
G3 X36.75 Y18.0 I0.0 J1.75
G1 Y53.0
G3 X35.0 Y54.75 I-1.75 J0.0
G1 X6.0
G3 X4.25 Y53.0 I0.0 J-1.75
G1 Y18.0
G3 X6.0 Y16.25 I1.75 J0.0
G1 F300.0 Y16.75
G1 Z-9.0
G1 F800.0 X35.0
G3 X36.25 Y18.0 I0.0 J1.25
G1 Y53.0
G3 X35.0 Y54.25 I-1.25 J0.0
G1 X6.0
G3 X4.75 Y53.0 I0.0 J-1.25
G1 Y18.0
G3 X6.0 Y16.75 I1.25 J0.0
G1 F300.0 Y16.25
G1 F800.0 X35.0
G3 X36.75 Y18.0 I0.0 J1.75
G1 Y53.0
G3 X35.0 Y54.75 I-1.75 J0.0
G1 X6.0
G3 X4.25 Y53.0 I0.0 J-1.75
G1 Y18.0
G3 X6.0 Y16.25 I1.75 J0.0
G1 F300.0 Y16.75
G1 Z-9.5
G1 F800.0 X35.0
G3 X36.25 Y18.0 I0.0 J1.25
G1 Y53.0
G3 X35.0 Y54.25 I-1.25 J0.0
G1 X6.0
G3 X4.75 Y53.0 I0.0 J-1.25
G1 Y18.0
G3 X6.0 Y16.75 I1.25 J0.0
G1 F300.0 Y16.25
G1 F800.0 X35.0
G3 X36.75 Y18.0 I0.0 J1.75
G1 Y53.0
G3 X35.0 Y54.75 I-1.75 J0.0
G1 X6.0
G3 X4.25 Y53.0 I0.0 J-1.75
G1 Y18.0
G3 X6.0 Y16.25 I1.75 J0.0
G1 F300.0 Y16.75
G1 Z-10.0
G1 F800.0 X35.0
G3 X36.25 Y18.0 I0.0 J1.25
G1 Y53.0
G3 X35.0 Y54.25 I-1.25 J0.0
G1 X6.0
G3 X4.75 Y53.0 I0.0 J-1.25
G1 Y18.0
G3 X6.0 Y16.75 I1.25 J0.0
G1 F300.0 Y16.25
G1 F800.0 X35.0
G3 X36.75 Y18.0 I0.0 J1.75
G1 Y53.0
G3 X35.0 Y54.75 I-1.75 J0.0
G1 X6.0
G3 X4.25 Y53.0 I0.0 J-1.75
G1 Y18.0
G3 X6.0 Y16.25 I1.75 J0.0
( Cover - level all -8 )
S1000
G0 Z3.0
G0 X21.25 Y73.25
G1 F300.0 Z-0.5
G1 F800.0 Y79.75
G1 X21.75
G1 Y73.25
G1 X21.25
G1 F300.0 X20.25
G1 F800.0 Y80.75
G1 X22.75
G1 Y72.25
G1 X20.25
G1 Y73.25
G1 F300.0 X19.25
G1 F800.0 Y81.75
G1 X23.75
G1 Y71.25
G1 X19.25
G1 Y73.25
G1 F300.0 X18.25
G1 F800.0 Y82.75
G1 X24.75
G1 Y70.25
G1 X18.25
G1 Y73.25
G1 F300.0 X17.25
G1 F800.0 Y83.75
G1 X25.75
G1 Y69.25
G1 X17.25
G1 Y73.25
G1 F300.0 X16.25
G1 F800.0 Y84.75
G1 X26.75
G1 Y68.25
G1 X16.25
G1 Y73.25
G1 F300.0 X15.25
G1 F800.0 Y85.75
G1 X27.75
G1 Y67.25
G1 X15.25
G1 Y73.25
G1 F300.0 X14.25
G1 F800.0 Y86.75
G1 X28.75
G1 Y66.25
G1 X14.25
G1 Y73.25
G1 F300.0 X13.25
G1 F800.0 Y87.75
G1 X29.75
G1 Y65.25
G1 X13.25
G1 Y73.25
G1 F300.0 X12.25
G1 F800.0 Y88.75
G1 X30.75
G1 Y64.25
G1 X12.25
G1 Y73.25
G1 F300.0 X11.25
G1 F800.0 Y89.75
G1 X31.75
G1 Y63.25
G1 X11.25
G1 Y73.25
G1 F300.0 X10.25
G1 F800.0 Y90.75
G1 X32.75
G1 Y62.25
G1 X10.25
G1 Y73.25
G1 F300.0 X9.25
G1 F800.0 Y91.75
G1 X33.75
G1 Y61.25
G1 X9.25
G1 Y73.25
G0 Z3.0
G0 X21.25
G1 F300.0 Z-1.0
G1 F800.0 Y79.75
G1 X21.75
G1 Y73.25
G1 X21.25
G1 F300.0 X20.25
G1 F800.0 Y80.75
G1 X22.75
G1 Y72.25
G1 X20.25
G1 Y73.25
G1 F300.0 X19.25
G1 F800.0 Y81.75
G1 X23.75
G1 Y71.25
G1 X19.25
G1 Y73.25
G1 F300.0 X18.25
G1 F800.0 Y82.75
G1 X24.75
G1 Y70.25
G1 X18.25
G1 Y73.25
G1 F300.0 X17.25
G1 F800.0 Y83.75
G1 X25.75
G1 Y69.25
G1 X17.25
G1 Y73.25
G1 F300.0 X16.25
G1 F800.0 Y84.75
G1 X26.75
G1 Y68.25
G1 X16.25
G1 Y73.25
G1 F300.0 X15.25
G1 F800.0 Y85.75
G1 X27.75
G1 Y67.25
G1 X15.25
G1 Y73.25
G1 F300.0 X14.25
G1 F800.0 Y86.75
G1 X28.75
G1 Y66.25
G1 X14.25
G1 Y73.25
G1 F300.0 X13.25
G1 F800.0 Y87.75
G1 X29.75
G1 Y65.25
G1 X13.25
G1 Y73.25
G1 F300.0 X12.25
G1 F800.0 Y88.75
G1 X30.75
G1 Y64.25
G1 X12.25
G1 Y73.25
G1 F300.0 X11.25
G1 F800.0 Y89.75
G1 X31.75
G1 Y63.25
G1 X11.25
G1 Y73.25
G1 F300.0 X10.25
G1 F800.0 Y90.75
G1 X32.75
G1 Y62.25
G1 X10.25
G1 Y73.25
G1 F300.0 X9.25
G1 F800.0 Y91.75
G1 X33.75
G1 Y61.25
G1 X9.25
G1 Y73.25
G0 Z3.0
G0 X21.25
G1 F300.0 Z-1.5
G1 F800.0 Y79.75
G1 X21.75
G1 Y73.25
G1 X21.25
G1 F300.0 X20.25
G1 F800.0 Y80.75
G1 X22.75
G1 Y72.25
G1 X20.25
G1 Y73.25
G1 F300.0 X19.25
G1 F800.0 Y81.75
G1 X23.75
G1 Y71.25
G1 X19.25
G1 Y73.25
G1 F300.0 X18.25
G1 F800.0 Y82.75
G1 X24.75
G1 Y70.25
G1 X18.25
G1 Y73.25
G1 F300.0 X17.25
G1 F800.0 Y83.75
G1 X25.75
G1 Y69.25
G1 X17.25
G1 Y73.25
G1 F300.0 X16.25
G1 F800.0 Y84.75
G1 X26.75
G1 Y68.25
G1 X16.25
G1 Y73.25
G1 F300.0 X15.25
G1 F800.0 Y85.75
G1 X27.75
G1 Y67.25
G1 X15.25
G1 Y73.25
G1 F300.0 X14.25
G1 F800.0 Y86.75
G1 X28.75
G1 Y66.25
G1 X14.25
G1 Y73.25
G1 F300.0 X13.25
G1 F800.0 Y87.75
G1 X29.75
G1 Y65.25
G1 X13.25
G1 Y73.25
G1 F300.0 X12.25
G1 F800.0 Y88.75
G1 X30.75
G1 Y64.25
G1 X12.25
G1 Y73.25
G1 F300.0 X11.25
G1 F800.0 Y89.75
G1 X31.75
G1 Y63.25
G1 X11.25
G1 Y73.25
G1 F300.0 X10.25
G1 F800.0 Y90.75
G1 X32.75
G1 Y62.25
G1 X10.25
G1 Y73.25
G1 F300.0 X9.25
G1 F800.0 Y91.75
G1 X33.75
G1 Y61.25
G1 X9.25
G1 Y73.25
G0 Z3.0
G0 X21.25
G1 F300.0 Z-2.0
G1 F800.0 Y79.75
G1 X21.75
G1 Y73.25
G1 X21.25
G1 F300.0 X20.25
G1 F800.0 Y80.75
G1 X22.75
G1 Y72.25
G1 X20.25
G1 Y73.25
G1 F300.0 X19.25
G1 F800.0 Y81.75
G1 X23.75
G1 Y71.25
G1 X19.25
G1 Y73.25
G1 F300.0 X18.25
G1 F800.0 Y82.75
G1 X24.75
G1 Y70.25
G1 X18.25
G1 Y73.25
G1 F300.0 X17.25
G1 F800.0 Y83.75
G1 X25.75
G1 Y69.25
G1 X17.25
G1 Y73.25
G1 F300.0 X16.25
G1 F800.0 Y84.75
G1 X26.75
G1 Y68.25
G1 X16.25
G1 Y73.25
G1 F300.0 X15.25
G1 F800.0 Y85.75
G1 X27.75
G1 Y67.25
G1 X15.25
G1 Y73.25
G1 F300.0 X14.25
G1 F800.0 Y86.75
G1 X28.75
G1 Y66.25
G1 X14.25
G1 Y73.25
G1 F300.0 X13.25
G1 F800.0 Y87.75
G1 X29.75
G1 Y65.25
G1 X13.25
G1 Y73.25
G1 F300.0 X12.25
G1 F800.0 Y88.75
G1 X30.75
G1 Y64.25
G1 X12.25
G1 Y73.25
G1 F300.0 X11.25
G1 F800.0 Y89.75
G1 X31.75
G1 Y63.25
G1 X11.25
G1 Y73.25
G1 F300.0 X10.25
G1 F800.0 Y90.75
G1 X32.75
G1 Y62.25
G1 X10.25
G1 Y73.25
G1 F300.0 X9.25
G1 F800.0 Y91.75
G1 X33.75
G1 Y61.25
G1 X9.25
G1 Y73.25
G0 Z3.0
G0 X21.25
G1 F300.0 Z-2.5
G1 F800.0 Y79.75
G1 X21.75
G1 Y73.25
G1 X21.25
G1 F300.0 X20.25
G1 F800.0 Y80.75
G1 X22.75
G1 Y72.25
G1 X20.25
G1 Y73.25
G1 F300.0 X19.25
G1 F800.0 Y81.75
G1 X23.75
G1 Y71.25
G1 X19.25
G1 Y73.25
G1 F300.0 X18.25
G1 F800.0 Y82.75
G1 X24.75
G1 Y70.25
G1 X18.25
G1 Y73.25
G1 F300.0 X17.25
G1 F800.0 Y83.75
G1 X25.75
G1 Y69.25
G1 X17.25
G1 Y73.25
G1 F300.0 X16.25
G1 F800.0 Y84.75
G1 X26.75
G1 Y68.25
G1 X16.25
G1 Y73.25
G1 F300.0 X15.25
G1 F800.0 Y85.75
G1 X27.75
G1 Y67.25
G1 X15.25
G1 Y73.25
G1 F300.0 X14.25
G1 F800.0 Y86.75
G1 X28.75
G1 Y66.25
G1 X14.25
G1 Y73.25
G1 F300.0 X13.25
G1 F800.0 Y87.75
G1 X29.75
G1 Y65.25
G1 X13.25
G1 Y73.25
G1 F300.0 X12.25
G1 F800.0 Y88.75
G1 X30.75
G1 Y64.25
G1 X12.25
G1 Y73.25
G1 F300.0 X11.25
G1 F800.0 Y89.75
G1 X31.75
G1 Y63.25
G1 X11.25
G1 Y73.25
G1 F300.0 X10.25
G1 F800.0 Y90.75
G1 X32.75
G1 Y62.25
G1 X10.25
G1 Y73.25
G1 F300.0 X9.25
G1 F800.0 Y91.75
G1 X33.75
G1 Y61.25
G1 X9.25
G1 Y73.25
G0 Z3.0
G0 X21.25
G1 F300.0 Z-3.0
G1 F800.0 Y79.75
G1 X21.75
G1 Y73.25
G1 X21.25
G1 F300.0 X20.25
G1 F800.0 Y80.75
G1 X22.75
G1 Y72.25
G1 X20.25
G1 Y73.25
G1 F300.0 X19.25
G1 F800.0 Y81.75
G1 X23.75
G1 Y71.25
G1 X19.25
G1 Y73.25
G1 F300.0 X18.25
G1 F800.0 Y82.75
G1 X24.75
G1 Y70.25
G1 X18.25
G1 Y73.25
G1 F300.0 X17.25
G1 F800.0 Y83.75
G1 X25.75
G1 Y69.25
G1 X17.25
G1 Y73.25
G1 F300.0 X16.25
G1 F800.0 Y84.75
G1 X26.75
G1 Y68.25
G1 X16.25
G1 Y73.25
G1 F300.0 X15.25
G1 F800.0 Y85.75
G1 X27.75
G1 Y67.25
G1 X15.25
G1 Y73.25
G1 F300.0 X14.25
G1 F800.0 Y86.75
G1 X28.75
G1 Y66.25
G1 X14.25
G1 Y73.25
G1 F300.0 X13.25
G1 F800.0 Y87.75
G1 X29.75
G1 Y65.25
G1 X13.25
G1 Y73.25
G1 F300.0 X12.25
G1 F800.0 Y88.75
G1 X30.75
G1 Y64.25
G1 X12.25
G1 Y73.25
G1 F300.0 X11.25
G1 F800.0 Y89.75
G1 X31.75
G1 Y63.25
G1 X11.25
G1 Y73.25
G1 F300.0 X10.25
G1 F800.0 Y90.75
G1 X32.75
G1 Y62.25
G1 X10.25
G1 Y73.25
G1 F300.0 X9.25
G1 F800.0 Y91.75
G1 X33.75
G1 Y61.25
G1 X9.25
G1 Y73.25
G0 Z3.0
G0 X21.25
G1 F300.0 Z-3.5
G1 F800.0 Y79.75
G1 X21.75
G1 Y73.25
G1 X21.25
G1 F300.0 X20.25
G1 F800.0 Y80.75
G1 X22.75
G1 Y72.25
G1 X20.25
G1 Y73.25
G1 F300.0 X19.25
G1 F800.0 Y81.75
G1 X23.75
G1 Y71.25
G1 X19.25
G1 Y73.25
G1 F300.0 X18.25
G1 F800.0 Y82.75
G1 X24.75
G1 Y70.25
G1 X18.25
G1 Y73.25
G1 F300.0 X17.25
G1 F800.0 Y83.75
G1 X25.75
G1 Y69.25
G1 X17.25
G1 Y73.25
G1 F300.0 X16.25
G1 F800.0 Y84.75
G1 X26.75
G1 Y68.25
G1 X16.25
G1 Y73.25
G1 F300.0 X15.25
G1 F800.0 Y85.75
G1 X27.75
G1 Y67.25
G1 X15.25
G1 Y73.25
G1 F300.0 X14.25
G1 F800.0 Y86.75
G1 X28.75
G1 Y66.25
G1 X14.25
G1 Y73.25
G1 F300.0 X13.25
G1 F800.0 Y87.75
G1 X29.75
G1 Y65.25
G1 X13.25
G1 Y73.25
G1 F300.0 X12.25
G1 F800.0 Y88.75
G1 X30.75
G1 Y64.25
G1 X12.25
G1 Y73.25
G1 F300.0 X11.25
G1 F800.0 Y89.75
G1 X31.75
G1 Y63.25
G1 X11.25
G1 Y73.25
G1 F300.0 X10.25
G1 F800.0 Y90.75
G1 X32.75
G1 Y62.25
G1 X10.25
G1 Y73.25
G1 F300.0 X9.25
G1 F800.0 Y91.75
G1 X33.75
G1 Y61.25
G1 X9.25
G1 Y73.25
G0 Z3.0
G0 X21.25
G1 F300.0 Z-4.0
G1 F800.0 Y79.75
G1 X21.75
G1 Y73.25
G1 X21.25
G1 F300.0 X20.25
G1 F800.0 Y80.75
G1 X22.75
G1 Y72.25
G1 X20.25
G1 Y73.25
G1 F300.0 X19.25
G1 F800.0 Y81.75
G1 X23.75
G1 Y71.25
G1 X19.25
G1 Y73.25
G1 F300.0 X18.25
G1 F800.0 Y82.75
G1 X24.75
G1 Y70.25
G1 X18.25
G1 Y73.25
G1 F300.0 X17.25
G1 F800.0 Y83.75
G1 X25.75
G1 Y69.25
G1 X17.25
G1 Y73.25
G1 F300.0 X16.25
G1 F800.0 Y84.75
G1 X26.75
G1 Y68.25
G1 X16.25
G1 Y73.25
G1 F300.0 X15.25
G1 F800.0 Y85.75
G1 X27.75
G1 Y67.25
G1 X15.25
G1 Y73.25
G1 F300.0 X14.25
G1 F800.0 Y86.75
G1 X28.75
G1 Y66.25
G1 X14.25
G1 Y73.25
G1 F300.0 X13.25
G1 F800.0 Y87.75
G1 X29.75
G1 Y65.25
G1 X13.25
G1 Y73.25
G1 F300.0 X12.25
G1 F800.0 Y88.75
G1 X30.75
G1 Y64.25
G1 X12.25
G1 Y73.25
G1 F300.0 X11.25
G1 F800.0 Y89.75
G1 X31.75
G1 Y63.25
G1 X11.25
G1 Y73.25
G1 F300.0 X10.25
G1 F800.0 Y90.75
G1 X32.75
G1 Y62.25
G1 X10.25
G1 Y73.25
G1 F300.0 X9.25
G1 F800.0 Y91.75
G1 X33.75
G1 Y61.25
G1 X9.25
G1 Y73.25
G0 Z3.0
G0 X21.25
G1 F300.0 Z-4.5
G1 F800.0 Y79.75
G1 X21.75
G1 Y73.25
G1 X21.25
G1 F300.0 X20.25
G1 F800.0 Y80.75
G1 X22.75
G1 Y72.25
G1 X20.25
G1 Y73.25
G1 F300.0 X19.25
G1 F800.0 Y81.75
G1 X23.75
G1 Y71.25
G1 X19.25
G1 Y73.25
G1 F300.0 X18.25
G1 F800.0 Y82.75
G1 X24.75
G1 Y70.25
G1 X18.25
G1 Y73.25
G1 F300.0 X17.25
G1 F800.0 Y83.75
G1 X25.75
G1 Y69.25
G1 X17.25
G1 Y73.25
G1 F300.0 X16.25
G1 F800.0 Y84.75
G1 X26.75
G1 Y68.25
G1 X16.25
G1 Y73.25
G1 F300.0 X15.25
G1 F800.0 Y85.75
G1 X27.75
G1 Y67.25
G1 X15.25
G1 Y73.25
G1 F300.0 X14.25
G1 F800.0 Y86.75
G1 X28.75
G1 Y66.25
G1 X14.25
G1 Y73.25
G1 F300.0 X13.25
G1 F800.0 Y87.75
G1 X29.75
G1 Y65.25
G1 X13.25
G1 Y73.25
G1 F300.0 X12.25
G1 F800.0 Y88.75
G1 X30.75
G1 Y64.25
G1 X12.25
G1 Y73.25
G1 F300.0 X11.25
G1 F800.0 Y89.75
G1 X31.75
G1 Y63.25
G1 X11.25
G1 Y73.25
G1 F300.0 X10.25
G1 F800.0 Y90.75
G1 X32.75
G1 Y62.25
G1 X10.25
G1 Y73.25
G1 F300.0 X9.25
G1 F800.0 Y91.75
G1 X33.75
G1 Y61.25
G1 X9.25
G1 Y73.25
G0 Z3.0
G0 X21.25
G1 F300.0 Z-5.0
G1 F800.0 Y79.75
G1 X21.75
G1 Y73.25
G1 X21.25
G1 F300.0 X20.25
G1 F800.0 Y80.75
G1 X22.75
G1 Y72.25
G1 X20.25
G1 Y73.25
G1 F300.0 X19.25
G1 F800.0 Y81.75
G1 X23.75
G1 Y71.25
G1 X19.25
G1 Y73.25
G1 F300.0 X18.25
G1 F800.0 Y82.75
G1 X24.75
G1 Y70.25
G1 X18.25
G1 Y73.25
G1 F300.0 X17.25
G1 F800.0 Y83.75
G1 X25.75
G1 Y69.25
G1 X17.25
G1 Y73.25
G1 F300.0 X16.25
G1 F800.0 Y84.75
G1 X26.75
G1 Y68.25
G1 X16.25
G1 Y73.25
G1 F300.0 X15.25
G1 F800.0 Y85.75
G1 X27.75
G1 Y67.25
G1 X15.25
G1 Y73.25
G1 F300.0 X14.25
G1 F800.0 Y86.75
G1 X28.75
G1 Y66.25
G1 X14.25
G1 Y73.25
G1 F300.0 X13.25
G1 F800.0 Y87.75
G1 X29.75
G1 Y65.25
G1 X13.25
G1 Y73.25
G1 F300.0 X12.25
G1 F800.0 Y88.75
G1 X30.75
G1 Y64.25
G1 X12.25
G1 Y73.25
G1 F300.0 X11.25
G1 F800.0 Y89.75
G1 X31.75
G1 Y63.25
G1 X11.25
G1 Y73.25
G1 F300.0 X10.25
G1 F800.0 Y90.75
G1 X32.75
G1 Y62.25
G1 X10.25
G1 Y73.25
G1 F300.0 X9.25
G1 F800.0 Y91.75
G1 X33.75
G1 Y61.25
G1 X9.25
G1 Y73.25
G0 Z3.0
G0 X21.25
G1 F300.0 Z-5.5
G1 F800.0 Y79.75
G1 X21.75
G1 Y73.25
G1 X21.25
G1 F300.0 X20.25
G1 F800.0 Y80.75
G1 X22.75
G1 Y72.25
G1 X20.25
G1 Y73.25
G1 F300.0 X19.25
G1 F800.0 Y81.75
G1 X23.75
G1 Y71.25
G1 X19.25
G1 Y73.25
G1 F300.0 X18.25
G1 F800.0 Y82.75
G1 X24.75
G1 Y70.25
G1 X18.25
G1 Y73.25
G1 F300.0 X17.25
G1 F800.0 Y83.75
G1 X25.75
G1 Y69.25
G1 X17.25
G1 Y73.25
G1 F300.0 X16.25
G1 F800.0 Y84.75
G1 X26.75
G1 Y68.25
G1 X16.25
G1 Y73.25
G1 F300.0 X15.25
G1 F800.0 Y85.75
G1 X27.75
G1 Y67.25
G1 X15.25
G1 Y73.25
G1 F300.0 X14.25
G1 F800.0 Y86.75
G1 X28.75
G1 Y66.25
G1 X14.25
G1 Y73.25
G1 F300.0 X13.25
G1 F800.0 Y87.75
G1 X29.75
G1 Y65.25
G1 X13.25
G1 Y73.25
G1 F300.0 X12.25
G1 F800.0 Y88.75
G1 X30.75
G1 Y64.25
G1 X12.25
G1 Y73.25
G1 F300.0 X11.25
G1 F800.0 Y89.75
G1 X31.75
G1 Y63.25
G1 X11.25
G1 Y73.25
G1 F300.0 X10.25
G1 F800.0 Y90.75
G1 X32.75
G1 Y62.25
G1 X10.25
G1 Y73.25
G1 F300.0 X9.25
G1 F800.0 Y91.75
G1 X33.75
G1 Y61.25
G1 X9.25
G1 Y73.25
G0 Z3.0
G0 X21.25
G1 F300.0 Z-6.0
G1 F800.0 Y79.75
G1 X21.75
G1 Y73.25
G1 X21.25
G1 F300.0 X20.25
G1 F800.0 Y80.75
G1 X22.75
G1 Y72.25
G1 X20.25
G1 Y73.25
G1 F300.0 X19.25
G1 F800.0 Y81.75
G1 X23.75
G1 Y71.25
G1 X19.25
G1 Y73.25
G1 F300.0 X18.25
G1 F800.0 Y82.75
G1 X24.75
G1 Y70.25
G1 X18.25
G1 Y73.25
G1 F300.0 X17.25
G1 F800.0 Y83.75
G1 X25.75
G1 Y69.25
G1 X17.25
G1 Y73.25
G1 F300.0 X16.25
G1 F800.0 Y84.75
G1 X26.75
G1 Y68.25
G1 X16.25
G1 Y73.25
G1 F300.0 X15.25
G1 F800.0 Y85.75
G1 X27.75
G1 Y67.25
G1 X15.25
G1 Y73.25
G1 F300.0 X14.25
G1 F800.0 Y86.75
G1 X28.75
G1 Y66.25
G1 X14.25
G1 Y73.25
G1 F300.0 X13.25
G1 F800.0 Y87.75
G1 X29.75
G1 Y65.25
G1 X13.25
G1 Y73.25
G1 F300.0 X12.25
G1 F800.0 Y88.75
G1 X30.75
G1 Y64.25
G1 X12.25
G1 Y73.25
G1 F300.0 X11.25
G1 F800.0 Y89.75
G1 X31.75
G1 Y63.25
G1 X11.25
G1 Y73.25
G1 F300.0 X10.25
G1 F800.0 Y90.75
G1 X32.75
G1 Y62.25
G1 X10.25
G1 Y73.25
G1 F300.0 X9.25
G1 F800.0 Y91.75
G1 X33.75
G1 Y61.25
G1 X9.25
G1 Y73.25
G0 Z3.0
G0 X21.25
G1 F300.0 Z-6.5
G1 F800.0 Y79.75
G1 X21.75
G1 Y73.25
G1 X21.25
G1 F300.0 X20.25
G1 F800.0 Y80.75
G1 X22.75
G1 Y72.25
G1 X20.25
G1 Y73.25
G1 F300.0 X19.25
G1 F800.0 Y81.75
G1 X23.75
G1 Y71.25
G1 X19.25
G1 Y73.25
G1 F300.0 X18.25
G1 F800.0 Y82.75
G1 X24.75
G1 Y70.25
G1 X18.25
G1 Y73.25
G1 F300.0 X17.25
G1 F800.0 Y83.75
G1 X25.75
G1 Y69.25
G1 X17.25
G1 Y73.25
G1 F300.0 X16.25
G1 F800.0 Y84.75
G1 X26.75
G1 Y68.25
G1 X16.25
G1 Y73.25
G1 F300.0 X15.25
G1 F800.0 Y85.75
G1 X27.75
G1 Y67.25
G1 X15.25
G1 Y73.25
G1 F300.0 X14.25
G1 F800.0 Y86.75
G1 X28.75
G1 Y66.25
G1 X14.25
G1 Y73.25
G1 F300.0 X13.25
G1 F800.0 Y87.75
G1 X29.75
G1 Y65.25
G1 X13.25
G1 Y73.25
G1 F300.0 X12.25
G1 F800.0 Y88.75
G1 X30.75
G1 Y64.25
G1 X12.25
G1 Y73.25
G1 F300.0 X11.25
G1 F800.0 Y89.75
G1 X31.75
G1 Y63.25
G1 X11.25
G1 Y73.25
G1 F300.0 X10.25
G1 F800.0 Y90.75
G1 X32.75
G1 Y62.25
G1 X10.25
G1 Y73.25
G1 F300.0 X9.25
G1 F800.0 Y91.75
G1 X33.75
G1 Y61.25
G1 X9.25
G1 Y73.25
G0 Z3.0
G0 X21.25
G1 F300.0 Z-7.0
G1 F800.0 Y79.75
G1 X21.75
G1 Y73.25
G1 X21.25
G1 F300.0 X20.25
G1 F800.0 Y80.75
G1 X22.75
G1 Y72.25
G1 X20.25
G1 Y73.25
G1 F300.0 X19.25
G1 F800.0 Y81.75
G1 X23.75
G1 Y71.25
G1 X19.25
G1 Y73.25
G1 F300.0 X18.25
G1 F800.0 Y82.75
G1 X24.75
G1 Y70.25
G1 X18.25
G1 Y73.25
G1 F300.0 X17.25
G1 F800.0 Y83.75
G1 X25.75
G1 Y69.25
G1 X17.25
G1 Y73.25
G1 F300.0 X16.25
G1 F800.0 Y84.75
G1 X26.75
G1 Y68.25
G1 X16.25
G1 Y73.25
G1 F300.0 X15.25
G1 F800.0 Y85.75
G1 X27.75
G1 Y67.25
G1 X15.25
G1 Y73.25
G1 F300.0 X14.25
G1 F800.0 Y86.75
G1 X28.75
G1 Y66.25
G1 X14.25
G1 Y73.25
G1 F300.0 X13.25
G1 F800.0 Y87.75
G1 X29.75
G1 Y65.25
G1 X13.25
G1 Y73.25
G1 F300.0 X12.25
G1 F800.0 Y88.75
G1 X30.75
G1 Y64.25
G1 X12.25
G1 Y73.25
G1 F300.0 X11.25
G1 F800.0 Y89.75
G1 X31.75
G1 Y63.25
G1 X11.25
G1 Y73.25
G1 F300.0 X10.25
G1 F800.0 Y90.75
G1 X32.75
G1 Y62.25
G1 X10.25
G1 Y73.25
G1 F300.0 X9.25
G1 F800.0 Y91.75
G1 X33.75
G1 Y61.25
G1 X9.25
G1 Y73.25
G0 Z3.0
G0 X21.25
G1 F300.0 Z-7.5
G1 F800.0 Y79.75
G1 X21.75
G1 Y73.25
G1 X21.25
G1 F300.0 X20.25
G1 F800.0 Y80.75
G1 X22.75
G1 Y72.25
G1 X20.25
G1 Y73.25
G1 F300.0 X19.25
G1 F800.0 Y81.75
G1 X23.75
G1 Y71.25
G1 X19.25
G1 Y73.25
G1 F300.0 X18.25
G1 F800.0 Y82.75
G1 X24.75
G1 Y70.25
G1 X18.25
G1 Y73.25
G1 F300.0 X17.25
G1 F800.0 Y83.75
G1 X25.75
G1 Y69.25
G1 X17.25
G1 Y73.25
G1 F300.0 X16.25
G1 F800.0 Y84.75
G1 X26.75
G1 Y68.25
G1 X16.25
G1 Y73.25
G1 F300.0 X15.25
G1 F800.0 Y85.75
G1 X27.75
G1 Y67.25
G1 X15.25
G1 Y73.25
G1 F300.0 X14.25
G1 F800.0 Y86.75
G1 X28.75
G1 Y66.25
G1 X14.25
G1 Y73.25
G1 F300.0 X13.25
G1 F800.0 Y87.75
G1 X29.75
G1 Y65.25
G1 X13.25
G1 Y73.25
G1 F300.0 X12.25
G1 F800.0 Y88.75
G1 X30.75
G1 Y64.25
G1 X12.25
G1 Y73.25
G1 F300.0 X11.25
G1 F800.0 Y89.75
G1 X31.75
G1 Y63.25
G1 X11.25
G1 Y73.25
G1 F300.0 X10.25
G1 F800.0 Y90.75
G1 X32.75
G1 Y62.25
G1 X10.25
G1 Y73.25
G1 F300.0 X9.25
G1 F800.0 Y91.75
G1 X33.75
G1 Y61.25
G1 X9.25
G1 Y73.25
G0 Z3.0
G0 X21.25
G1 F300.0 Z-8.0
G1 F800.0 Y79.75
G1 X21.75
G1 Y73.25
G1 X21.25
G1 F300.0 X20.25
G1 F800.0 Y80.75
G1 X22.75
G1 Y72.25
G1 X20.25
G1 Y73.25
G1 F300.0 X19.25
G1 F800.0 Y81.75
G1 X23.75
G1 Y71.25
G1 X19.25
G1 Y73.25
G1 F300.0 X18.25
G1 F800.0 Y82.75
G1 X24.75
G1 Y70.25
G1 X18.25
G1 Y73.25
G1 F300.0 X17.25
G1 F800.0 Y83.75
G1 X25.75
G1 Y69.25
G1 X17.25
G1 Y73.25
G1 F300.0 X16.25
G1 F800.0 Y84.75
G1 X26.75
G1 Y68.25
G1 X16.25
G1 Y73.25
G1 F300.0 X15.25
G1 F800.0 Y85.75
G1 X27.75
G1 Y67.25
G1 X15.25
G1 Y73.25
G1 F300.0 X14.25
G1 F800.0 Y86.75
G1 X28.75
G1 Y66.25
G1 X14.25
G1 Y73.25
G1 F300.0 X13.25
G1 F800.0 Y87.75
G1 X29.75
G1 Y65.25
G1 X13.25
G1 Y73.25
G1 F300.0 X12.25
G1 F800.0 Y88.75
G1 X30.75
G1 Y64.25
G1 X12.25
G1 Y73.25
G1 F300.0 X11.25
G1 F800.0 Y89.75
G1 X31.75
G1 Y63.25
G1 X11.25
G1 Y73.25
G1 F300.0 X10.25
G1 F800.0 Y90.75
G1 X32.75
G1 Y62.25
G1 X10.25
G1 Y73.25
G1 F300.0 X9.25
G1 F800.0 Y91.75
G1 X33.75
G1 Y61.25
G1 X9.25
G1 Y73.25
( Cover - Wire Whole )
S1000
G0 Z3.0
G0 X8.75 Y66.25
G1 F300.0 Z-8.5
G1 F800.0 Y67.75
G1 X13.25
G1 Y66.25
G1 X8.75
G1 F300.0 Z-9.0
G1 F800.0 Y67.75
G1 X13.25
G1 Y66.25
G1 X8.75
G1 F300.0 Z-9.5
G1 F800.0 Y67.75
G1 X13.25
G1 Y66.25
G1 X8.75
G1 F300.0 Z-10.0
G1 F800.0 Y67.75
G1 X13.25
G1 Y66.25
G1 X8.75
( Cover - Outside cover )
S1000
G0 Z3.0
G0 X9.5 Y60.25
G1 F300.0 Z-8.5
G1 F800.0 X33.5
G3 X34.75 Y61.5 I0.0 J1.25
G1 Y91.5
G3 X33.5 Y92.75 I-1.25 J0.0
G1 X9.5
G3 X8.25 Y91.5 I0.0 J-1.25
G1 Y61.5
G3 X9.5 Y60.25 I1.25 J0.0
G1 F300.0 Y59.75
G1 F800.0 X33.5
G3 X35.25 Y61.5 I0.0 J1.75
G1 Y91.5
G3 X33.5 Y93.25 I-1.75 J0.0
G1 X9.5
G3 X7.75 Y91.5 I0.0 J-1.75
G1 Y61.5
G3 X9.5 Y59.75 I1.75 J0.0
G1 F300.0 Y60.25
G1 Z-9.0
G1 F800.0 X33.5
G3 X34.75 Y61.5 I0.0 J1.25
G1 Y91.5
G3 X33.5 Y92.75 I-1.25 J0.0
G1 X9.5
G3 X8.25 Y91.5 I0.0 J-1.25
G1 Y61.5
G3 X9.5 Y60.25 I1.25 J0.0
G1 F300.0 Y59.75
G1 F800.0 X33.5
G3 X35.25 Y61.5 I0.0 J1.75
G1 Y91.5
G3 X33.5 Y93.25 I-1.75 J0.0
G1 X9.5
G3 X7.75 Y91.5 I0.0 J-1.75
G1 Y61.5
G3 X9.5 Y59.75 I1.75 J0.0
G1 F300.0 Y60.25
G1 Z-9.5
G1 F800.0 X33.5
G3 X34.75 Y61.5 I0.0 J1.25
G1 Y91.5
G3 X33.5 Y92.75 I-1.25 J0.0
G1 X9.5
G3 X8.25 Y91.5 I0.0 J-1.25
G1 Y61.5
G3 X9.5 Y60.25 I1.25 J0.0
G1 F300.0 Y59.75
G1 F800.0 X33.5
G3 X35.25 Y61.5 I0.0 J1.75
G1 Y91.5
G3 X33.5 Y93.25 I-1.75 J0.0
G1 X9.5
G3 X7.75 Y91.5 I0.0 J-1.75
G1 Y61.5
G3 X9.5 Y59.75 I1.75 J0.0
G1 F300.0 Y60.25
G1 Z-10.0
G1 F800.0 X33.5
G3 X34.75 Y61.5 I0.0 J1.25
G1 Y91.5
G3 X33.5 Y92.75 I-1.25 J0.0
G1 X9.5
G3 X8.25 Y91.5 I0.0 J-1.25
G1 Y61.5
G3 X9.5 Y60.25 I1.25 J0.0
G1 F300.0 Y59.75
G1 F800.0 X33.5
G3 X35.25 Y61.5 I0.0 J1.75
G1 Y91.5
G3 X33.5 Y93.25 I-1.75 J0.0
G1 X9.5
G3 X7.75 Y91.5 I0.0 J-1.75
G1 Y61.5
G3 X9.5 Y59.75 I1.75 J0.0
( Sensor Arm - level all -8 )
S1000
G0 Z3.0
G0 X58.25 Y22.25
G1 F300.0 Z-0.5
G1 F800.0 Y48.75
G1 X59.75
G1 Y22.25
G1 X58.25
G1 F300.0 X57.25
G1 F800.0 Y49.75
G1 X60.75
G1 Y21.25
G1 X57.25
G1 Y22.25
G1 F300.0 X56.25
G1 F800.0 Y50.75
G1 X61.75
G1 Y20.25
G1 X56.25
G1 Y22.25
G1 F300.0 X55.25
G1 F800.0 Y51.75
G1 X62.75
G1 Y19.25
G1 X55.25
G1 Y22.25
G1 F300.0 X54.25
G1 F800.0 Y52.75
G1 X63.75
G1 Y18.25
G1 X54.25
G1 Y22.25
G1 F300.0 X53.25
G1 F800.0 Y53.75
G1 X64.75
G1 Y17.25
G1 X53.25
G1 Y22.25
G0 Z3.0
G0 X58.25
G1 F300.0 Z-1.0
G1 F800.0 Y48.75
G1 X59.75
G1 Y22.25
G1 X58.25
G1 F300.0 X57.25
G1 F800.0 Y49.75
G1 X60.75
G1 Y21.25
G1 X57.25
G1 Y22.25
G1 F300.0 X56.25
G1 F800.0 Y50.75
G1 X61.75
G1 Y20.25
G1 X56.25
G1 Y22.25
G1 F300.0 X55.25
G1 F800.0 Y51.75
G1 X62.75
G1 Y19.25
G1 X55.25
G1 Y22.25
G1 F300.0 X54.25
G1 F800.0 Y52.75
G1 X63.75
G1 Y18.25
G1 X54.25
G1 Y22.25
G1 F300.0 X53.25
G1 F800.0 Y53.75
G1 X64.75
G1 Y17.25
G1 X53.25
G1 Y22.25
G0 Z3.0
G0 X58.25
G1 F300.0 Z-1.5
G1 F800.0 Y48.75
G1 X59.75
G1 Y22.25
G1 X58.25
G1 F300.0 X57.25
G1 F800.0 Y49.75
G1 X60.75
G1 Y21.25
G1 X57.25
G1 Y22.25
G1 F300.0 X56.25
G1 F800.0 Y50.75
G1 X61.75
G1 Y20.25
G1 X56.25
G1 Y22.25
G1 F300.0 X55.25
G1 F800.0 Y51.75
G1 X62.75
G1 Y19.25
G1 X55.25
G1 Y22.25
G1 F300.0 X54.25
G1 F800.0 Y52.75
G1 X63.75
G1 Y18.25
G1 X54.25
G1 Y22.25
G1 F300.0 X53.25
G1 F800.0 Y53.75
G1 X64.75
G1 Y17.25
G1 X53.25
G1 Y22.25
G0 Z3.0
G0 X58.25
G1 F300.0 Z-2.0
G1 F800.0 Y48.75
G1 X59.75
G1 Y22.25
G1 X58.25
G1 F300.0 X57.25
G1 F800.0 Y49.75
G1 X60.75
G1 Y21.25
G1 X57.25
G1 Y22.25
G1 F300.0 X56.25
G1 F800.0 Y50.75
G1 X61.75
G1 Y20.25
G1 X56.25
G1 Y22.25
G1 F300.0 X55.25
G1 F800.0 Y51.75
G1 X62.75
G1 Y19.25
G1 X55.25
G1 Y22.25
G1 F300.0 X54.25
G1 F800.0 Y52.75
G1 X63.75
G1 Y18.25
G1 X54.25
G1 Y22.25
G1 F300.0 X53.25
G1 F800.0 Y53.75
G1 X64.75
G1 Y17.25
G1 X53.25
G1 Y22.25
G0 Z3.0
G0 X58.25
G1 F300.0 Z-2.5
G1 F800.0 Y48.75
G1 X59.75
G1 Y22.25
G1 X58.25
G1 F300.0 X57.25
G1 F800.0 Y49.75
G1 X60.75
G1 Y21.25
G1 X57.25
G1 Y22.25
G1 F300.0 X56.25
G1 F800.0 Y50.75
G1 X61.75
G1 Y20.25
G1 X56.25
G1 Y22.25
G1 F300.0 X55.25
G1 F800.0 Y51.75
G1 X62.75
G1 Y19.25
G1 X55.25
G1 Y22.25
G1 F300.0 X54.25
G1 F800.0 Y52.75
G1 X63.75
G1 Y18.25
G1 X54.25
G1 Y22.25
G1 F300.0 X53.25
G1 F800.0 Y53.75
G1 X64.75
G1 Y17.25
G1 X53.25
G1 Y22.25
G0 Z3.0
G0 X58.25
G1 F300.0 Z-3.0
G1 F800.0 Y48.75
G1 X59.75
G1 Y22.25
G1 X58.25
G1 F300.0 X57.25
G1 F800.0 Y49.75
G1 X60.75
G1 Y21.25
G1 X57.25
G1 Y22.25
G1 F300.0 X56.25
G1 F800.0 Y50.75
G1 X61.75
G1 Y20.25
G1 X56.25
G1 Y22.25
G1 F300.0 X55.25
G1 F800.0 Y51.75
G1 X62.75
G1 Y19.25
G1 X55.25
G1 Y22.25
G1 F300.0 X54.25
G1 F800.0 Y52.75
G1 X63.75
G1 Y18.25
G1 X54.25
G1 Y22.25
G1 F300.0 X53.25
G1 F800.0 Y53.75
G1 X64.75
G1 Y17.25
G1 X53.25
G1 Y22.25
G0 Z3.0
G0 X58.25
G1 F300.0 Z-3.5
G1 F800.0 Y48.75
G1 X59.75
G1 Y22.25
G1 X58.25
G1 F300.0 X57.25
G1 F800.0 Y49.75
G1 X60.75
G1 Y21.25
G1 X57.25
G1 Y22.25
G1 F300.0 X56.25
G1 F800.0 Y50.75
G1 X61.75
G1 Y20.25
G1 X56.25
G1 Y22.25
G1 F300.0 X55.25
G1 F800.0 Y51.75
G1 X62.75
G1 Y19.25
G1 X55.25
G1 Y22.25
G1 F300.0 X54.25
G1 F800.0 Y52.75
G1 X63.75
G1 Y18.25
G1 X54.25
G1 Y22.25
G1 F300.0 X53.25
G1 F800.0 Y53.75
G1 X64.75
G1 Y17.25
G1 X53.25
G1 Y22.25
G0 Z3.0
G0 X58.25
G1 F300.0 Z-4.0
G1 F800.0 Y48.75
G1 X59.75
G1 Y22.25
G1 X58.25
G1 F300.0 X57.25
G1 F800.0 Y49.75
G1 X60.75
G1 Y21.25
G1 X57.25
G1 Y22.25
G1 F300.0 X56.25
G1 F800.0 Y50.75
G1 X61.75
G1 Y20.25
G1 X56.25
G1 Y22.25
G1 F300.0 X55.25
G1 F800.0 Y51.75
G1 X62.75
G1 Y19.25
G1 X55.25
G1 Y22.25
G1 F300.0 X54.25
G1 F800.0 Y52.75
G1 X63.75
G1 Y18.25
G1 X54.25
G1 Y22.25
G1 F300.0 X53.25
G1 F800.0 Y53.75
G1 X64.75
G1 Y17.25
G1 X53.25
G1 Y22.25
G0 Z3.0
G0 X58.25
G1 F300.0 Z-4.5
G1 F800.0 Y48.75
G1 X59.75
G1 Y22.25
G1 X58.25
G1 F300.0 X57.25
G1 F800.0 Y49.75
G1 X60.75
G1 Y21.25
G1 X57.25
G1 Y22.25
G1 F300.0 X56.25
G1 F800.0 Y50.75
G1 X61.75
G1 Y20.25
G1 X56.25
G1 Y22.25
G1 F300.0 X55.25
G1 F800.0 Y51.75
G1 X62.75
G1 Y19.25
G1 X55.25
G1 Y22.25
G1 F300.0 X54.25
G1 F800.0 Y52.75
G1 X63.75
G1 Y18.25
G1 X54.25
G1 Y22.25
G1 F300.0 X53.25
G1 F800.0 Y53.75
G1 X64.75
G1 Y17.25
G1 X53.25
G1 Y22.25
G0 Z3.0
G0 X58.25
G1 F300.0 Z-5.0
G1 F800.0 Y48.75
G1 X59.75
G1 Y22.25
G1 X58.25
G1 F300.0 X57.25
G1 F800.0 Y49.75
G1 X60.75
G1 Y21.25
G1 X57.25
G1 Y22.25
G1 F300.0 X56.25
G1 F800.0 Y50.75
G1 X61.75
G1 Y20.25
G1 X56.25
G1 Y22.25
G1 F300.0 X55.25
G1 F800.0 Y51.75
G1 X62.75
G1 Y19.25
G1 X55.25
G1 Y22.25
G1 F300.0 X54.25
G1 F800.0 Y52.75
G1 X63.75
G1 Y18.25
G1 X54.25
G1 Y22.25
G1 F300.0 X53.25
G1 F800.0 Y53.75
G1 X64.75
G1 Y17.25
G1 X53.25
G1 Y22.25
G0 Z3.0
G0 X58.25
G1 F300.0 Z-5.5
G1 F800.0 Y48.75
G1 X59.75
G1 Y22.25
G1 X58.25
G1 F300.0 X57.25
G1 F800.0 Y49.75
G1 X60.75
G1 Y21.25
G1 X57.25
G1 Y22.25
G1 F300.0 X56.25
G1 F800.0 Y50.75
G1 X61.75
G1 Y20.25
G1 X56.25
G1 Y22.25
G1 F300.0 X55.25
G1 F800.0 Y51.75
G1 X62.75
G1 Y19.25
G1 X55.25
G1 Y22.25
G1 F300.0 X54.25
G1 F800.0 Y52.75
G1 X63.75
G1 Y18.25
G1 X54.25
G1 Y22.25
G1 F300.0 X53.25
G1 F800.0 Y53.75
G1 X64.75
G1 Y17.25
G1 X53.25
G1 Y22.25
G0 Z3.0
G0 X58.25
G1 F300.0 Z-6.0
G1 F800.0 Y48.75
G1 X59.75
G1 Y22.25
G1 X58.25
G1 F300.0 X57.25
G1 F800.0 Y49.75
G1 X60.75
G1 Y21.25
G1 X57.25
G1 Y22.25
G1 F300.0 X56.25
G1 F800.0 Y50.75
G1 X61.75
G1 Y20.25
G1 X56.25
G1 Y22.25
G1 F300.0 X55.25
G1 F800.0 Y51.75
G1 X62.75
G1 Y19.25
G1 X55.25
G1 Y22.25
G1 F300.0 X54.25
G1 F800.0 Y52.75
G1 X63.75
G1 Y18.25
G1 X54.25
G1 Y22.25
G1 F300.0 X53.25
G1 F800.0 Y53.75
G1 X64.75
G1 Y17.25
G1 X53.25
G1 Y22.25
G0 Z3.0
G0 X58.25
G1 F300.0 Z-6.5
G1 F800.0 Y48.75
G1 X59.75
G1 Y22.25
G1 X58.25
G1 F300.0 X57.25
G1 F800.0 Y49.75
G1 X60.75
G1 Y21.25
G1 X57.25
G1 Y22.25
G1 F300.0 X56.25
G1 F800.0 Y50.75
G1 X61.75
G1 Y20.25
G1 X56.25
G1 Y22.25
G1 F300.0 X55.25
G1 F800.0 Y51.75
G1 X62.75
G1 Y19.25
G1 X55.25
G1 Y22.25
G1 F300.0 X54.25
G1 F800.0 Y52.75
G1 X63.75
G1 Y18.25
G1 X54.25
G1 Y22.25
G1 F300.0 X53.25
G1 F800.0 Y53.75
G1 X64.75
G1 Y17.25
G1 X53.25
G1 Y22.25
G0 Z3.0
G0 X58.25
G1 F300.0 Z-7.0
G1 F800.0 Y48.75
G1 X59.75
G1 Y22.25
G1 X58.25
G1 F300.0 X57.25
G1 F800.0 Y49.75
G1 X60.75
G1 Y21.25
G1 X57.25
G1 Y22.25
G1 F300.0 X56.25
G1 F800.0 Y50.75
G1 X61.75
G1 Y20.25
G1 X56.25
G1 Y22.25
G1 F300.0 X55.25
G1 F800.0 Y51.75
G1 X62.75
G1 Y19.25
G1 X55.25
G1 Y22.25
G1 F300.0 X54.25
G1 F800.0 Y52.75
G1 X63.75
G1 Y18.25
G1 X54.25
G1 Y22.25
G1 F300.0 X53.25
G1 F800.0 Y53.75
G1 X64.75
G1 Y17.25
G1 X53.25
G1 Y22.25
G0 Z3.0
G0 X58.25
G1 F300.0 Z-7.5
G1 F800.0 Y48.75
G1 X59.75
G1 Y22.25
G1 X58.25
G1 F300.0 X57.25
G1 F800.0 Y49.75
G1 X60.75
G1 Y21.25
G1 X57.25
G1 Y22.25
G1 F300.0 X56.25
G1 F800.0 Y50.75
G1 X61.75
G1 Y20.25
G1 X56.25
G1 Y22.25
G1 F300.0 X55.25
G1 F800.0 Y51.75
G1 X62.75
G1 Y19.25
G1 X55.25
G1 Y22.25
G1 F300.0 X54.25
G1 F800.0 Y52.75
G1 X63.75
G1 Y18.25
G1 X54.25
G1 Y22.25
G1 F300.0 X53.25
G1 F800.0 Y53.75
G1 X64.75
G1 Y17.25
G1 X53.25
G1 Y22.25
G0 Z3.0
G0 X58.25
G1 F300.0 Z-8.0
G1 F800.0 Y48.75
G1 X59.75
G1 Y22.25
G1 X58.25
G1 F300.0 X57.25
G1 F800.0 Y49.75
G1 X60.75
G1 Y21.25
G1 X57.25
G1 Y22.25
G1 F300.0 X56.25
G1 F800.0 Y50.75
G1 X61.75
G1 Y20.25
G1 X56.25
G1 Y22.25
G1 F300.0 X55.25
G1 F800.0 Y51.75
G1 X62.75
G1 Y19.25
G1 X55.25
G1 Y22.25
G1 F300.0 X54.25
G1 F800.0 Y52.75
G1 X63.75
G1 Y18.25
G1 X54.25
G1 Y22.25
G1 F300.0 X53.25
G1 F800.0 Y53.75
G1 X64.75
G1 Y17.25
G1 X53.25
G1 Y22.25
( Sensor Arm - Magnet whole )
S1000
G0 Z3.0
G0 X60.0 Y47.0
G1 F300.0 Z-8.5
G2 F800.0 X58.5 Y46.134 I-1.0 J0.0
G2 Y47.866 I0.5 J0.866
G2 X60.0 Y47.0 I0.5 J-0.866
G1 F300.0 X61.0
G2 F800.0 X58.0 Y45.2679 I-2.0 J0.0
G2 Y48.7321 I1.0 J1.7321
G2 X61.0 Y47.0 I1.0 J-1.7321
G1 F300.0 X60.0
G1 Z-9.0
G2 F800.0 X58.5 Y46.134 I-1.0 J0.0
G2 Y47.866 I0.5 J0.866
G2 X60.0 Y47.0 I0.5 J-0.866
G1 F300.0 X61.0
G2 F800.0 X58.0 Y45.2679 I-2.0 J0.0
G2 Y48.7321 I1.0 J1.7321
G2 X61.0 Y47.0 I1.0 J-1.7321
G1 F300.0 X60.0
G1 Z-9.5
G2 F800.0 X58.5 Y46.134 I-1.0 J0.0
G2 Y47.866 I0.5 J0.866
G2 X60.0 Y47.0 I0.5 J-0.866
G1 F300.0 X61.0
G2 F800.0 X58.0 Y45.2679 I-2.0 J0.0
G2 Y48.7321 I1.0 J1.7321
G2 X61.0 Y47.0 I1.0 J-1.7321
G1 F300.0 X60.0
G1 Z-10.0
G2 F800.0 X58.5 Y46.134 I-1.0 J0.0
G2 Y47.866 I0.5 J0.866
G2 X60.0 Y47.0 I0.5 J-0.866
G1 F300.0 X61.0
G2 F800.0 X58.0 Y45.2679 I-2.0 J0.0
G2 Y48.7321 I1.0 J1.7321
G2 X61.0 Y47.0 I1.0 J-1.7321
( Sensor Arm - Outside Trigger )
S1000
G0 Z3.0
G0 X54.0 Y16.75
G1 F300.0 Z-8.5
G1 F800.0 X64.0
G3 X65.25 Y18.0 I0.0 J1.25
G1 Y53.0
G3 X64.0 Y54.25 I-1.25 J0.0
G1 X54.0
G3 X52.75 Y53.0 I0.0 J-1.25
G1 Y18.0
G3 X54.0 Y16.75 I1.25 J0.0
G1 F300.0 Y16.25
G1 F800.0 X64.0
G3 X65.75 Y18.0 I0.0 J1.75
G1 Y53.0
G3 X64.0 Y54.75 I-1.75 J0.0
G1 X54.0
G3 X52.25 Y53.0 I0.0 J-1.75
G1 Y18.0
G3 X54.0 Y16.25 I1.75 J0.0
G1 F300.0 Y16.75
G1 Z-9.0
G1 F800.0 X64.0
G3 X65.25 Y18.0 I0.0 J1.25
G1 Y53.0
G3 X64.0 Y54.25 I-1.25 J0.0
G1 X54.0
G3 X52.75 Y53.0 I0.0 J-1.25
G1 Y18.0
G3 X54.0 Y16.75 I1.25 J0.0
G1 F300.0 Y16.25
G1 F800.0 X64.0
G3 X65.75 Y18.0 I0.0 J1.75
G1 Y53.0
G3 X64.0 Y54.75 I-1.75 J0.0
G1 X54.0
G3 X52.25 Y53.0 I0.0 J-1.75
G1 Y18.0
G3 X54.0 Y16.25 I1.75 J0.0
G1 F300.0 Y16.75
G1 Z-9.5
G1 F800.0 X64.0
G3 X65.25 Y18.0 I0.0 J1.25
G1 Y53.0
G3 X64.0 Y54.25 I-1.25 J0.0
G1 X54.0
G3 X52.75 Y53.0 I0.0 J-1.25
G1 Y18.0
G3 X54.0 Y16.75 I1.25 J0.0
G1 F300.0 Y16.25
G1 F800.0 X64.0
G3 X65.75 Y18.0 I0.0 J1.75
G1 Y53.0
G3 X64.0 Y54.75 I-1.75 J0.0
G1 X54.0
G3 X52.25 Y53.0 I0.0 J-1.75
G1 Y18.0
G3 X54.0 Y16.25 I1.75 J0.0
G1 F300.0 Y16.75
G1 Z-10.0
G1 F800.0 X64.0
G3 X65.25 Y18.0 I0.0 J1.25
G1 Y53.0
G3 X64.0 Y54.25 I-1.25 J0.0
G1 X54.0
G3 X52.75 Y53.0 I0.0 J-1.25
G1 Y18.0
G3 X54.0 Y16.75 I1.25 J0.0
G1 F300.0 Y16.25
G1 F800.0 X64.0
G3 X65.75 Y18.0 I0.0 J1.75
G1 Y53.0
G3 X64.0 Y54.75 I-1.75 J0.0
G1 X54.0
G3 X52.25 Y53.0 I0.0 J-1.75
G1 Y18.0
G3 X54.0 Y16.25 I1.75 J0.0
G0 Z3.0
M5
M30
