( Made using CamBam - http://www.cambam.co.uk )
( HomeSensor 5/11/2015 6:57:12 PM )
( T0 : 2.5 )
G21 G90 G61 G40
G0 Z3.0
( T0 : 2.5 )
T0 M6
( Drill1 )
G17
M3 S1000
G0 X37.0 Y7.0
G98
G81 X37.0 Y7.0 Z-10.0 R3.0 F300.0
G80
( Drill2 )
S1000
G0 Y183.0
G98
G81 X37.0 Y183.0 Z-10.0 R3.0
G80
( Case - level all  -3 )
S1000
G0 X19.25 Y29.25
G1 Z-1.0
G1 F800.0 Y35.75
G1 X19.75
G1 Y29.25
G1 X19.25
G1 F300.0 X18.25
G1 F800.0 Y36.75
G1 X20.75
G1 Y28.25
G1 X18.25
G1 Y29.25
G1 F300.0 X17.25
G1 F800.0 Y37.75
G1 X21.75
G1 Y27.25
G1 X17.25
G1 Y29.25
G1 F300.0 X16.25
G1 F800.0 Y38.75
G1 X22.75
G1 Y26.25
G1 X16.25
G1 Y29.25
G1 F300.0 X15.25
G1 F800.0 Y39.75
G1 X23.75
G1 Y25.25
G1 X15.25
G1 Y29.25
G1 F300.0 X14.25
G1 F800.0 Y40.75
G1 X24.75
G1 Y24.25
G1 X14.25
G1 Y29.25
G1 F300.0 X13.25
G1 F800.0 Y41.75
G1 X25.75
G1 Y23.25
G1 X13.25
G1 Y29.25
G1 F300.0 X12.25
G1 F800.0 Y42.75
G1 X26.75
G1 Y22.25
G1 X12.25
G1 Y29.25
G1 F300.0 X11.25
G1 F800.0 Y43.75
G1 X27.75
G1 Y21.25
G1 X11.25
G1 Y29.25
G1 F300.0 X10.25
G1 F800.0 Y44.75
G1 X28.75
G1 Y20.25
G1 X10.25
G1 Y29.25
G1 F300.0 X9.25
G1 F800.0 Y45.75
G1 X29.75
G1 Y19.25
G1 X9.25
G1 Y29.25
G1 F300.0 X8.25
G1 F800.0 Y46.75
G1 X30.75
G1 Y18.25
G1 X8.25
G1 Y29.25
G1 F300.0 X7.25
G1 F800.0 Y47.75
G1 X31.75
G1 Y17.25
G1 X7.25
G1 Y29.25
G1 F300.0 X6.25
G1 F800.0 Y48.75
G1 X32.75
G1 Y16.25
G1 X6.25
G1 Y29.25
G1 F300.0 X5.25
G1 F800.0 Y49.75
G1 X33.75
G1 Y15.25
G1 X5.25
G1 Y29.25
G1 F300.0 X4.25
G1 F800.0 Y50.75
G1 X34.75
G1 Y14.25
G1 X4.25
G1 Y29.25
G0 Z3.0
G0 X19.25
G1 F300.0 Z-2.0
G1 F800.0 Y35.75
G1 X19.75
G1 Y29.25
G1 X19.25
G1 F300.0 X18.25
G1 F800.0 Y36.75
G1 X20.75
G1 Y28.25
G1 X18.25
G1 Y29.25
G1 F300.0 X17.25
G1 F800.0 Y37.75
G1 X21.75
G1 Y27.25
G1 X17.25
G1 Y29.25
G1 F300.0 X16.25
G1 F800.0 Y38.75
G1 X22.75
G1 Y26.25
G1 X16.25
G1 Y29.25
G1 F300.0 X15.25
G1 F800.0 Y39.75
G1 X23.75
G1 Y25.25
G1 X15.25
G1 Y29.25
G1 F300.0 X14.25
G1 F800.0 Y40.75
G1 X24.75
G1 Y24.25
G1 X14.25
G1 Y29.25
G1 F300.0 X13.25
G1 F800.0 Y41.75
G1 X25.75
G1 Y23.25
G1 X13.25
G1 Y29.25
G1 F300.0 X12.25
G1 F800.0 Y42.75
G1 X26.75
G1 Y22.25
G1 X12.25
G1 Y29.25
G1 F300.0 X11.25
G1 F800.0 Y43.75
G1 X27.75
G1 Y21.25
G1 X11.25
G1 Y29.25
G1 F300.0 X10.25
G1 F800.0 Y44.75
G1 X28.75
G1 Y20.25
G1 X10.25
G1 Y29.25
G1 F300.0 X9.25
G1 F800.0 Y45.75
G1 X29.75
G1 Y19.25
G1 X9.25
G1 Y29.25
G1 F300.0 X8.25
G1 F800.0 Y46.75
G1 X30.75
G1 Y18.25
G1 X8.25
G1 Y29.25
G1 F300.0 X7.25
G1 F800.0 Y47.75
G1 X31.75
G1 Y17.25
G1 X7.25
G1 Y29.25
G1 F300.0 X6.25
G1 F800.0 Y48.75
G1 X32.75
G1 Y16.25
G1 X6.25
G1 Y29.25
G1 F300.0 X5.25
G1 F800.0 Y49.75
G1 X33.75
G1 Y15.25
G1 X5.25
G1 Y29.25
G1 F300.0 X4.25
G1 F800.0 Y50.75
G1 X34.75
G1 Y14.25
G1 X4.25
G1 Y29.25
G0 Z3.0
G0 X19.25
G1 F300.0 Z-3.0
G1 F800.0 Y35.75
G1 X19.75
G1 Y29.25
G1 X19.25
G1 F300.0 X18.25
G1 F800.0 Y36.75
G1 X20.75
G1 Y28.25
G1 X18.25
G1 Y29.25
G1 F300.0 X17.25
G1 F800.0 Y37.75
G1 X21.75
G1 Y27.25
G1 X17.25
G1 Y29.25
G1 F300.0 X16.25
G1 F800.0 Y38.75
G1 X22.75
G1 Y26.25
G1 X16.25
G1 Y29.25
G1 F300.0 X15.25
G1 F800.0 Y39.75
G1 X23.75
G1 Y25.25
G1 X15.25
G1 Y29.25
G1 F300.0 X14.25
G1 F800.0 Y40.75
G1 X24.75
G1 Y24.25
G1 X14.25
G1 Y29.25
G1 F300.0 X13.25
G1 F800.0 Y41.75
G1 X25.75
G1 Y23.25
G1 X13.25
G1 Y29.25
G1 F300.0 X12.25
G1 F800.0 Y42.75
G1 X26.75
G1 Y22.25
G1 X12.25
G1 Y29.25
G1 F300.0 X11.25
G1 F800.0 Y43.75
G1 X27.75
G1 Y21.25
G1 X11.25
G1 Y29.25
G1 F300.0 X10.25
G1 F800.0 Y44.75
G1 X28.75
G1 Y20.25
G1 X10.25
G1 Y29.25
G1 F300.0 X9.25
G1 F800.0 Y45.75
G1 X29.75
G1 Y19.25
G1 X9.25
G1 Y29.25
G1 F300.0 X8.25
G1 F800.0 Y46.75
G1 X30.75
G1 Y18.25
G1 X8.25
G1 Y29.25
G1 F300.0 X7.25
G1 F800.0 Y47.75
G1 X31.75
G1 Y17.25
G1 X7.25
G1 Y29.25
G1 F300.0 X6.25
G1 F800.0 Y48.75
G1 X32.75
G1 Y16.25
G1 X6.25
G1 Y29.25
G1 F300.0 X5.25
G1 F800.0 Y49.75
G1 X33.75
G1 Y15.25
G1 X5.25
G1 Y29.25
G1 F300.0 X4.25
G1 F800.0 Y50.75
G1 X34.75
G1 Y14.25
G1 X4.25
G1 Y29.25
( Case - inside level all  -4.5 )
S1000
G0 Z3.0
G0 X19.25
G1 F300.0 Z-4.0
G1 F800.0 Y35.75
G1 X19.75
G1 Y29.25
G1 X19.25
G1 F300.0 X18.25
G1 F800.0 Y36.75
G1 X20.75
G1 Y28.25
G1 X18.25
G1 Y29.25
G1 F300.0 X17.25
G1 F800.0 Y37.75
G1 X21.75
G1 Y27.25
G1 X17.25
G1 Y29.25
G1 F300.0 X16.25
G1 F800.0 Y38.75
G1 X22.75
G1 Y26.25
G1 X16.25
G1 Y29.25
G1 F300.0 X15.25
G1 F800.0 Y39.75
G1 X23.75
G1 Y25.25
G1 X15.25
G1 Y29.25
G1 F300.0 X14.25
G1 F800.0 Y40.75
G1 X24.75
G1 Y24.25
G1 X14.25
G1 Y29.25
G1 F300.0 X13.25
G1 F800.0 Y41.75
G1 X25.75
G1 Y23.25
G1 X13.25
G1 Y29.25
G1 F300.0 X12.25
G1 F800.0 Y42.75
G1 X26.75
G1 Y22.25
G1 X12.25
G1 Y29.25
G1 F300.0 X11.25
G1 F800.0 Y43.75
G1 X27.75
G1 Y21.25
G1 X11.25
G1 Y29.25
G1 F300.0 X10.25
G1 F800.0 Y44.75
G1 X28.75
G1 Y20.25
G1 X10.25
G1 Y29.25
G1 F300.0 X9.25
G1 F800.0 Y45.75
G1 X29.75
G1 Y19.25
G1 X9.25
G1 Y29.25
G1 F300.0 X8.25
G1 F800.0 Y46.75
G1 X30.75
G1 Y18.25
G1 X8.25
G1 Y29.25
G0 Z3.0
G0 X19.25
G1 F300.0 Z-4.5
G1 F800.0 Y35.75
G1 X19.75
G1 Y29.25
G1 X19.25
G1 F300.0 X18.25
G1 F800.0 Y36.75
G1 X20.75
G1 Y28.25
G1 X18.25
G1 Y29.25
G1 F300.0 X17.25
G1 F800.0 Y37.75
G1 X21.75
G1 Y27.25
G1 X17.25
G1 Y29.25
G1 F300.0 X16.25
G1 F800.0 Y38.75
G1 X22.75
G1 Y26.25
G1 X16.25
G1 Y29.25
G1 F300.0 X15.25
G1 F800.0 Y39.75
G1 X23.75
G1 Y25.25
G1 X15.25
G1 Y29.25
G1 F300.0 X14.25
G1 F800.0 Y40.75
G1 X24.75
G1 Y24.25
G1 X14.25
G1 Y29.25
G1 F300.0 X13.25
G1 F800.0 Y41.75
G1 X25.75
G1 Y23.25
G1 X13.25
G1 Y29.25
G1 F300.0 X12.25
G1 F800.0 Y42.75
G1 X26.75
G1 Y22.25
G1 X12.25
G1 Y29.25
G1 F300.0 X11.25
G1 F800.0 Y43.75
G1 X27.75
G1 Y21.25
G1 X11.25
G1 Y29.25
G1 F300.0 X10.25
G1 F800.0 Y44.75
G1 X28.75
G1 Y20.25
G1 X10.25
G1 Y29.25
G1 F300.0 X9.25
G1 F800.0 Y45.75
G1 X29.75
G1 Y19.25
G1 X9.25
G1 Y29.25
G1 F300.0 X8.25
G1 F800.0 Y46.75
G1 X30.75
G1 Y18.25
G1 X8.25
G1 Y29.25
( Case - Inside Pocket )
S1000
G0 Z3.0
G0 X18.25 Y31.03342
G1 F300.0 Z-5.5
G1 F800.0 Y32.39828
G3 X20.75 Y34.31221 I-6.44 J11.00172
G1 Y32.89249
G3 X20.676 Y32.85009 I6.3 J-11.08249
G3 X18.25 Y31.03342 I6.374 J-11.04009
G1 F300.0 X18.9403 Y30.3099
G3 F800.0 X17.25 Y28.28885 I8.1097 J-8.4999
G1 Y32.98742
G3 X21.75 Y37.13806 I-5.44 J10.41258
G1 Y32.29454
G3 X21.176 Y31.98407 I5.3 J-10.48454
G3 X18.9403 Y30.3099 I5.874 J-10.17407
G1 F300.0 X19.63061 Y29.58638
G3 F800.0 X17.26195 Y26.25 I7.41939 J-7.77638
G1 X16.25
G1 Y33.61195
G3 X21.50005 Y38.75 I-4.44 J9.78805
G1 X22.75
G1 Y31.66036
G3 X21.676 Y31.11804 I4.3 J-9.85036
G3 X19.63061 Y29.58638 I5.374 J-9.30804
G1 F300.0 X20.32091 Y28.86286
G3 F800.0 X17.92915 Y25.25 I6.72909 J-7.05286
G1 X15.25
G1 Y34.27915
G3 X20.84886 Y39.75 I-3.44 J9.12085
G1 X23.75
G1 Y30.98243
G3 X22.176 Y30.25202 I3.3 J-9.17243
G3 X20.32091 Y28.86286 I4.874 J-8.44202
G1 F300.0 X21.01122 Y28.13935
G3 F800.0 X18.64917 Y24.25 I6.03878 J-6.32935
G1 X14.25
G1 Y34.99917
G3 X20.14697 Y40.75 I-2.44 J8.40083
G1 X24.75
G1 Y30.25023
G3 X22.676 Y29.38599 I2.3 J-8.44023
G3 X21.01122 Y28.13935 I4.374 J-7.57599
G1 F300.0 X21.70152 Y27.41583
G3 F800.0 X19.43699 Y23.25 I5.34848 J-5.60583
G1 X13.25
G1 Y35.78699
G3 X19.38027 Y41.75 I-1.44 J7.61301
G1 X25.75
G1 Y29.44816
G3 X23.176 Y28.51996 I1.3 J-7.63816
G3 X21.70152 Y27.41583 I3.874 J-6.70996
G1 F300.0 X22.39183 Y26.69231
G3 F800.0 X20.31636 Y22.25 I4.65817 J-4.88231
G1 X12.25
G1 Y36.66636
G3 X18.52662 Y42.75 I-0.44 J6.73364
G1 X26.75
G1 Y28.55133
G3 X23.676 Y27.65394 I0.3 J-6.74133
G3 X22.39183 Y26.69231 I3.374 J-5.84394
G1 F300.0 X23.08213 Y25.96879
G3 F800.0 X21.32934 Y21.25 I3.96787 J-4.15879
G1 X11.25
G1 Y37.67934
G3 X17.558 Y43.4 I0.56 J5.72066
G3 X17.54733 Y43.75 I-5.748 J0.0
G1 X27.75
G1 Y27.51522
G3 X24.176 Y26.78791 I-0.7 J-5.70522
G3 X23.08213 Y25.96879 I2.874 J-4.97791
G1 F300.0 X23.77243 Y25.24527
G3 F800.0 X22.56559 Y20.25 I3.27757 J-3.43527
G1 X10.25
G1 Y38.91559
G3 X16.558 Y43.4 I1.56 J4.48441
G3 X16.36203 Y44.75 I-4.748 J0.0
G1 X28.75
G1 Y26.24323
G3 X24.676 Y25.92189 I-1.7 J-4.43323
G3 X23.77243 Y25.24527 I2.374 J-4.11189
G1 F300.0 X24.46274 Y24.52175
G3 F800.0 X24.3125 Y19.25 I2.58726 J-2.71175
G1 X9.25
G1 Y40.6625
G3 X9.936 Y40.15414 I2.56 J2.7375
G3 X15.558 Y43.4 I1.874 J3.24586
G3 X14.72976 Y45.75 I-3.748 J0.0
G1 X29.75
G1 Y24.40952
G3 X25.176 Y25.05586 I-2.7 J-2.59952
G3 X24.46274 Y24.52175 I1.874 J-3.24586
G0 Z3.0
G0 Y18.25
G1 F300.0 Z-5.5
G1 F800.0 X8.25
G1 Y46.75
G1 X30.75
G1 Y18.25
G1 X24.46274
G1 F300.0 X25.43328 Y19.58543
G3 F800.0 X25.675 Y19.42843 I1.61672 J2.22457
G3 X29.8 Y21.81 I1.375 J2.38157
G3 X25.675 Y24.19157 I-2.75 J0.0
G3 X25.43328 Y19.58543 I1.375 J-2.38157
G1 F300.0 Z-6.5
G3 F800.0 X25.675 Y19.42843 I1.61672 J2.22457
G3 X29.8 Y21.81 I1.375 J2.38157
G3 X25.675 Y24.19157 I-2.75 J0.0
G3 X25.43328 Y19.58543 I1.375 J-2.38157
G0 Z3.0
G0 X13.17551 Y41.01298
G1 F300.0 Z-5.5
G3 F800.0 X14.56 Y43.4 I-1.36551 J2.38702
G3 X10.435 Y45.78157 I-2.75 J0.0
G3 Y41.01843 I1.375 J-2.38157
G3 X13.17551 Y41.01298 I1.375 J2.38157
G1 F300.0 Z-6.5
G3 F800.0 X14.56 Y43.4 I-1.36551 J2.38702
G3 X10.435 Y45.78157 I-2.75 J0.0
G3 Y41.01843 I1.375 J-2.38157
G3 X13.17551 Y41.01298 I1.375 J2.38157
G0 Z3.0
G0 X18.25 Y32.39828
G1 F300.0 Z-6.5
G3 F800.0 X20.75 Y34.31221 I-6.44 J11.00172
G1 Y32.89249
G3 X20.676 Y32.85009 I6.3 J-11.08249
G3 X18.25 Y31.03342 I6.374 J-11.04009
G1 Y32.39828
G1 F300.0 X17.74482 Y33.26129
G3 F800.0 X21.75 Y37.13806 I-5.93482 J10.13871
G1 Y32.29454
G3 X21.176 Y31.98407 I5.3 J-10.48454
G3 X17.25 Y28.28885 I5.874 J-10.17407
G1 Y32.98742
G3 X17.74482 Y33.26129 I-5.44 J10.41258
G1 F300.0 X17.23965 Y34.12431
G3 F800.0 X21.50005 Y38.75 I-5.42965 J9.27569
G1 X22.75
G1 Y31.66036
G3 X21.676 Y31.11804 I4.3 J-9.85036
G3 X17.26195 Y26.25 I5.374 J-9.30804
G1 X16.25
G1 Y33.61195
G3 X17.23965 Y34.12431 I-4.44 J9.78805
G1 F300.0 X16.73447 Y34.98732
G3 F800.0 X20.84886 Y39.75 I-4.92447 J8.41268
G1 X23.75
G1 Y30.98243
G3 X22.176 Y30.25202 I3.3 J-9.17243
G3 X17.92915 Y25.25 I4.874 J-8.44202
G1 X15.25
G1 Y34.27915
G3 X16.73447 Y34.98732 I-3.44 J9.12085
G1 F300.0 X16.22929 Y35.85034
G3 F800.0 X20.14697 Y40.75 I-4.41929 J7.54966
G1 X24.75
G1 Y30.25023
G3 X22.676 Y29.38599 I2.3 J-8.44023
G3 X18.64917 Y24.25 I4.374 J-7.57599
G1 X14.25
G1 Y34.99917
G3 X16.22929 Y35.85034 I-2.44 J8.40083
G1 F300.0 X15.72411 Y36.71336
G3 F800.0 X19.38027 Y41.75 I-3.91411 J6.68664
G1 X25.75
G1 Y29.44816
G3 X23.176 Y28.51996 I1.3 J-7.63816
G3 X19.43699 Y23.25 I3.874 J-6.70996
G1 X13.25
G1 Y35.78699
G3 X15.72411 Y36.71336 I-1.44 J7.61301
G1 F300.0 X15.21894 Y37.57637
G3 F800.0 X18.52662 Y42.75 I-3.40894 J5.82363
G1 X26.75
G1 Y28.55133
G3 X23.676 Y27.65394 I0.3 J-6.74133
G3 X20.31636 Y22.25 I3.374 J-5.84394
G1 X12.25
G1 Y36.66636
G3 X15.21894 Y37.57637 I-0.44 J6.73364
G1 F300.0 X14.71376 Y38.43939
G3 F800.0 X17.558 Y43.4 I-2.90376 J4.96061
G3 X17.54733 Y43.75 I-5.748 J0.0
G1 X27.75
G1 Y27.51522
G3 X24.176 Y26.78791 I-0.7 J-5.70522
G3 X21.32934 Y21.25 I2.874 J-4.97791
G1 X11.25
G1 Y37.67934
G3 X14.71376 Y38.43939 I0.56 J5.72066
G1 F300.0 X14.20858 Y39.3024
G3 F800.0 X16.558 Y43.4 I-2.39858 J4.0976
G3 X16.36203 Y44.75 I-4.748 J0.0
G1 X28.75
G1 Y26.24323
G3 X24.676 Y25.92189 I-1.7 J-4.43323
G3 X22.56559 Y20.25 I2.374 J-4.11189
G1 X10.25
G1 Y38.91559
G3 X14.20858 Y39.3024 I1.56 J4.48441
G1 F300.0 X13.7034 Y40.16542
G3 F800.0 X15.558 Y43.4 I-1.8934 J3.23458
G3 X14.72976 Y45.75 I-3.748 J0.0
G1 X29.75
G1 Y24.40952
G3 X25.176 Y25.05586 I-2.7 J-2.59952
G3 X24.3125 Y19.25 I1.874 J-3.24586
G1 X9.25
G1 Y40.6625
G3 X9.936 Y40.15414 I2.56 J2.7375
G3 X13.7034 Y40.16542 I1.874 J3.24586
G0 Z3.0
G0 X8.25
G1 F300.0 Z-6.5
G1 F800.0 Y46.75
G1 X30.75
G1 Y18.25
G1 X8.25
G1 Y40.16542
G0 Z3.0
G0 X9.77466 Y41.55071
G1 F300.0 Z-7.5
G3 F800.0 X10.435 Y41.01843 I2.03534 J1.84929
G3 X14.56 Y43.4 I1.375 J2.38157
G3 X10.435 Y45.78157 I-2.75 J0.0
G3 X9.77466 Y41.55071 I1.375 J-2.38157
G0 Z3.0
G0 X18.25 Y32.39828
G1 F300.0 Z-7.5
G3 F800.0 X20.75 Y34.31221 I-6.44 J11.00172
G1 Y32.89249
G3 X20.676 Y32.85009 I6.3 J-11.08249
G3 X18.25 Y31.03342 I6.374 J-11.04009
G1 Y32.39828
G1 F300.0 X17.74482 Y33.26129
G3 F800.0 X21.75 Y37.13806 I-5.93482 J10.13871
G1 Y32.29454
G3 X21.176 Y31.98407 I5.3 J-10.48454
G3 X17.25 Y28.28885 I5.874 J-10.17407
G1 Y32.98742
G3 X17.74482 Y33.26129 I-5.44 J10.41258
G1 F300.0 X17.23965 Y34.12431
G3 F800.0 X21.50005 Y38.75 I-5.42965 J9.27569
G1 X22.75
G1 Y31.66036
G3 X21.676 Y31.11804 I4.3 J-9.85036
G3 X17.26195 Y26.25 I5.374 J-9.30804
G1 X16.25
G1 Y33.61195
G3 X17.23965 Y34.12431 I-4.44 J9.78805
G1 F300.0 X16.73447 Y34.98732
G3 F800.0 X20.84886 Y39.75 I-4.92447 J8.41268
G1 X23.75
G1 Y30.98243
G3 X22.176 Y30.25202 I3.3 J-9.17243
G3 X17.92915 Y25.25 I4.874 J-8.44202
G1 X15.25
G1 Y34.27915
G3 X16.73447 Y34.98732 I-3.44 J9.12085
G1 F300.0 X16.22929 Y35.85034
G3 F800.0 X20.14697 Y40.75 I-4.41929 J7.54966
G1 X24.75
G1 Y30.25023
G3 X22.676 Y29.38599 I2.3 J-8.44023
G3 X18.64917 Y24.25 I4.374 J-7.57599
G1 X14.25
G1 Y34.99917
G3 X16.22929 Y35.85034 I-2.44 J8.40083
G1 F300.0 X15.72411 Y36.71336
G3 F800.0 X19.38027 Y41.75 I-3.91411 J6.68664
G1 X25.75
G1 Y29.44816
G3 X23.176 Y28.51996 I1.3 J-7.63816
G3 X19.43699 Y23.25 I3.874 J-6.70996
G1 X13.25
G1 Y35.78699
G3 X15.72411 Y36.71336 I-1.44 J7.61301
G1 F300.0 X15.21894 Y37.57637
G3 F800.0 X18.52662 Y42.75 I-3.40894 J5.82363
G1 X26.75
G1 Y28.55133
G3 X23.676 Y27.65394 I0.3 J-6.74133
G3 X20.31636 Y22.25 I3.374 J-5.84394
G1 X12.25
G1 Y36.66636
G3 X15.21894 Y37.57637 I-0.44 J6.73364
G1 F300.0 X14.71376 Y38.43939
G3 F800.0 X17.558 Y43.4 I-2.90376 J4.96061
G3 X17.54733 Y43.75 I-5.748 J0.0
G1 X27.75
G1 Y27.51522
G3 X24.176 Y26.78791 I-0.7 J-5.70522
G3 X21.32934 Y21.25 I2.874 J-4.97791
G1 X11.25
G1 Y37.67934
G3 X14.71376 Y38.43939 I0.56 J5.72066
G1 F300.0 X14.20858 Y39.3024
G3 F800.0 X16.558 Y43.4 I-2.39858 J4.0976
G3 X16.36203 Y44.75 I-4.748 J0.0
G1 X28.75
G1 Y26.24323
G3 X24.676 Y25.92189 I-1.7 J-4.43323
G3 X22.56559 Y20.25 I2.374 J-4.11189
G1 X10.25
G1 Y38.91559
G3 X14.20858 Y39.3024 I1.56 J4.48441
G1 F300.0 X13.7034 Y40.16542
G3 F800.0 X15.558 Y43.4 I-1.8934 J3.23458
G3 X14.72976 Y45.75 I-3.748 J0.0
G1 X29.75
G1 Y24.40952
G3 X25.176 Y25.05586 I-2.7 J-2.59952
G3 X24.3125 Y19.25 I1.874 J-3.24586
G1 X9.25
G1 Y40.6625
G3 X9.936 Y40.15414 I2.56 J2.7375
G3 X13.7034 Y40.16542 I1.874 J3.24586
G0 Z3.0
G0 X8.25
G1 F300.0 Z-7.5
G1 F800.0 Y46.75
G1 X30.75
G1 Y18.25
G1 X8.25
G1 Y40.16542
G0 Z3.0
G0 X9.77466 Y41.55071
G1 F300.0 Z-8.0
G3 F800.0 X10.435 Y41.01843 I2.03534 J1.84929
G3 X14.56 Y43.4 I1.375 J2.38157
G3 X10.435 Y45.78157 I-2.75 J0.0
G3 X9.77466 Y41.55071 I1.375 J-2.38157
G0 Z3.0
G0 X25.23898 Y23.87947
G1 F300.0 Z-7.5
G3 F800.0 X25.675 Y19.42843 I1.81102 J-2.06947
G3 X29.8 Y21.81 I1.375 J2.38157
G3 X25.675 Y24.19157 I-2.75 J0.0
G3 X25.23898 Y23.87947 I1.375 J-2.38157
G1 F300.0 Z-8.0
G3 F800.0 X25.675 Y19.42843 I1.81102 J-2.06947
G3 X29.8 Y21.81 I1.375 J2.38157
G3 X25.675 Y24.19157 I-2.75 J0.0
G3 X25.23898 Y23.87947 I1.375 J-2.38157
G0 Z3.0
G0 X18.65477 Y31.40331
G1 F300.0 Z-8.0
G3 F800.0 X18.25 Y31.03342 I8.39523 J-9.59331
G1 Y32.39828
G3 X20.75 Y34.31221 I-6.44 J11.00172
G1 Y32.89249
G3 X20.676 Y32.85009 I6.3 J-11.08249
G3 X18.65477 Y31.40331 I6.374 J-11.04009
G1 F300.0 X19.31332 Y30.65078
G3 F800.0 X17.25 Y28.28885 I7.73668 J-8.84078
G1 Y32.98742
G3 X21.75 Y37.13806 I-5.44 J10.41258
G1 Y32.29454
G3 X21.176 Y31.98407 I5.3 J-10.48454
G3 X19.31332 Y30.65078 I5.874 J-10.17407
G1 F300.0 X19.97188 Y29.89824
G3 F800.0 X17.26195 Y26.25 I7.07812 J-8.08824
G1 X16.25
G1 Y33.61195
G3 X21.50005 Y38.75 I-4.44 J9.78805
G1 X22.75
G1 Y31.66036
G3 X21.676 Y31.11804 I4.3 J-9.85036
G3 X19.97188 Y29.89824 I5.374 J-9.30804
G1 F300.0 X20.63043 Y29.14571
G3 F800.0 X17.92915 Y25.25 I6.41957 J-7.33571
G1 X15.25
G1 Y34.27915
G3 X20.84886 Y39.75 I-3.44 J9.12085
G1 X23.75
G1 Y30.98243
G3 X22.176 Y30.25202 I3.3 J-9.17243
G3 X20.63043 Y29.14571 I4.874 J-8.44202
G1 F300.0 X21.28898 Y28.39317
G3 F800.0 X18.64917 Y24.25 I5.76102 J-6.58317
G1 X14.25
G1 Y34.99917
G3 X20.14697 Y40.75 I-2.44 J8.40083
G1 X24.75
G1 Y30.25023
G3 X22.676 Y29.38599 I2.3 J-8.44023
G3 X21.28898 Y28.39317 I4.374 J-7.57599
G1 F300.0 X21.94753 Y27.64064
G3 F800.0 X19.43699 Y23.25 I5.10247 J-5.83064
G1 X13.25
G1 Y35.78699
G3 X19.38027 Y41.75 I-1.44 J7.61301
G1 X25.75
G1 Y29.44816
G3 X23.176 Y28.51996 I1.3 J-7.63816
G3 X21.94753 Y27.64064 I3.874 J-6.70996
G1 F300.0 X22.60609 Y26.8881
G3 F800.0 X20.31636 Y22.25 I4.44391 J-5.0781
G1 X12.25
G1 Y36.66636
G3 X18.52662 Y42.75 I-0.44 J6.73364
G1 X26.75
G1 Y28.55133
G3 X23.676 Y27.65394 I0.3 J-6.74133
G3 X22.60609 Y26.8881 I3.374 J-5.84394
G1 F300.0 X23.26464 Y26.13557
G3 F800.0 X21.32934 Y21.25 I3.78536 J-4.32557
G1 X11.25
G1 Y37.67934
G3 X17.558 Y43.4 I0.56 J5.72066
G3 X17.54733 Y43.75 I-5.748 J0.0
G1 X27.75
G1 Y27.51522
G3 X24.176 Y26.78791 I-0.7 J-5.70522
G3 X23.26464 Y26.13557 I2.874 J-4.97791
G1 F300.0 X23.92319 Y25.38303
G3 F800.0 X22.56559 Y20.25 I3.12681 J-3.57303
G1 X10.25
G1 Y38.91559
G3 X16.558 Y43.4 I1.56 J4.48441
G3 X16.36203 Y44.75 I-4.748 J0.0
G1 X28.75
G1 Y26.24323
G3 X24.676 Y25.92189 I-1.7 J-4.43323
G3 X23.92319 Y25.38303 I2.374 J-4.11189
G1 F300.0 X24.58174 Y24.6305
G3 F800.0 X24.3125 Y19.25 I2.46826 J-2.8205
G1 X9.25
G1 Y40.6625
G3 X9.936 Y40.15414 I2.56 J2.7375
G3 X15.558 Y43.4 I1.874 J3.24586
G3 X14.72976 Y45.75 I-3.748 J0.0
G1 X29.75
G1 Y24.40952
G3 X25.176 Y25.05586 I-2.7 J-2.59952
G3 X24.58174 Y24.6305 I1.874 J-3.24586
G0 Z3.0
G0 X30.75
G1 F300.0 Z-8.0
G1 F800.0 Y18.25
G1 X8.25
G1 Y46.75
G1 X30.75
G1 Y24.6305
( Case - Sensor Pocket )
S1000
G0 Z3.0
G0 X19.5 Y21.25
G1 F300.0 Z-9.0
G1 F800.0 Y22.25
G1 X21.5
G1 Y21.25
G1 X19.5
G1 F300.0 X18.5
G1 F800.0 Y23.25
G1 X22.5
G1 Y20.25
G1 X18.5
G1 Y21.25
( Case - LED top )
S1000
G0 Z3.0
G0 X19.73 Y40.86
G1 F300.0 Z-9.0
G2 F800.0 X19.28 Y40.60019 I-0.3 J0.0
G2 Y41.11981 I0.15 J0.25981
G2 X19.73 Y40.86 I0.15 J-0.25981
G1 F300.0 X20.73
G2 F800.0 X18.78 Y39.73417 I-1.3 J0.0
G2 Y41.98583 I0.65 J1.12583
G2 X20.73 Y40.86 I0.65 J-1.12583
G1 F300.0 X19.73
G1 Z-10.0
G2 F800.0 X19.28 Y40.60019 I-0.3 J0.0
G2 Y41.11981 I0.15 J0.25981
G2 X19.73 Y40.86 I0.15 J-0.25981
G1 F300.0 X20.73
G2 F800.0 X18.78 Y39.73417 I-1.3 J0.0
G2 Y41.98583 I0.65 J1.12583
G2 X20.73 Y40.86 I0.65 J-1.12583
( Case - LED bottom )
S1000
G0 Z3.0
G0 X19.73 Y33.24
G1 F300.0 Z-9.0
G2 F800.0 X19.28 Y32.98019 I-0.3 J0.0
G2 Y33.49981 I0.15 J0.25981
G2 X19.73 Y33.24 I0.15 J-0.25981
G1 F300.0 X20.73
G2 F800.0 X18.78 Y32.11417 I-1.3 J0.0
G2 Y34.36583 I0.65 J1.12583
G2 X20.73 Y33.24 I0.65 J-1.12583
G1 F300.0 X19.73
G1 Z-10.0
G2 F800.0 X19.28 Y32.98019 I-0.3 J0.0
G2 Y33.49981 I0.15 J0.25981
G2 X19.73 Y33.24 I0.15 J-0.25981
G1 F300.0 X20.73
G2 F800.0 X18.78 Y32.11417 I-1.3 J0.0
G2 Y34.36583 I0.65 J1.12583
G2 X20.73 Y33.24 I0.65 J-1.12583
( Case - Wire Whole )
S1000
G0 Z3.0
G0 X3.25 Y23.25
G1 F300.0 Z-5.5
G1 F800.0 Y24.75
G1 X6.75
G1 Y23.25
G1 X3.25
G1 F300.0 Z-6.5
G1 F800.0 Y24.75
G1 X6.75
G1 Y23.25
G1 X3.25
G1 F300.0 Z-7.5
G1 F800.0 Y24.75
G1 X6.75
G1 Y23.25
G1 X3.25
G1 F300.0 Z-8.0
G1 F800.0 Y24.75
G1 X6.75
G1 Y23.25
G1 X3.25
( Case - Outside body )
S1000
G0 Z3.0
G0 X5.0 Y13.75
G1 F300.0 Z-4.0
G1 F800.0 X34.0
G3 X35.25 Y15.0 I0.0 J1.25
G1 Y50.0
G3 X34.0 Y51.25 I-1.25 J0.0
G1 X5.0
G3 X3.75 Y50.0 I0.0 J-1.25
G1 Y15.0
G3 X5.0 Y13.75 I1.25 J0.0
G1 F300.0 Y13.25
G1 F800.0 X34.0
G3 X35.75 Y15.0 I0.0 J1.75
G1 Y50.0
G3 X34.0 Y51.75 I-1.75 J0.0
G1 X5.0
G3 X3.25 Y50.0 I0.0 J-1.75
G1 Y15.0
G3 X5.0 Y13.25 I1.75 J0.0
G1 F300.0 Y13.75
G1 Z-5.0
G1 F800.0 X34.0
G3 X35.25 Y15.0 I0.0 J1.25
G1 Y50.0
G3 X34.0 Y51.25 I-1.25 J0.0
G1 X5.0
G3 X3.75 Y50.0 I0.0 J-1.25
G1 Y15.0
G3 X5.0 Y13.75 I1.25 J0.0
G1 F300.0 Y13.25
G1 F800.0 X34.0
G3 X35.75 Y15.0 I0.0 J1.75
G1 Y50.0
G3 X34.0 Y51.75 I-1.75 J0.0
G1 X5.0
G3 X3.25 Y50.0 I0.0 J-1.75
G1 Y15.0
G3 X5.0 Y13.25 I1.75 J0.0
G1 F300.0 Y13.75
G1 Z-6.0
G1 F800.0 X34.0
G3 X35.25 Y15.0 I0.0 J1.25
G1 Y50.0
G3 X34.0 Y51.25 I-1.25 J0.0
G1 X5.0
G3 X3.75 Y50.0 I0.0 J-1.25
G1 Y15.0
G3 X5.0 Y13.75 I1.25 J0.0
G1 F300.0 Y13.25
G1 F800.0 X34.0
G3 X35.75 Y15.0 I0.0 J1.75
G1 Y50.0
G3 X34.0 Y51.75 I-1.75 J0.0
G1 X5.0
G3 X3.25 Y50.0 I0.0 J-1.75
G1 Y15.0
G3 X5.0 Y13.25 I1.75 J0.0
G1 F300.0 Y13.75
G1 Z-7.0
G1 F800.0 X34.0
G3 X35.25 Y15.0 I0.0 J1.25
G1 Y50.0
G3 X34.0 Y51.25 I-1.25 J0.0
G1 X5.0
G3 X3.75 Y50.0 I0.0 J-1.25
G1 Y15.0
G3 X5.0 Y13.75 I1.25 J0.0
G1 F300.0 Y13.25
G1 F800.0 X34.0
G3 X35.75 Y15.0 I0.0 J1.75
G1 Y50.0
G3 X34.0 Y51.75 I-1.75 J0.0
G1 X5.0
G3 X3.25 Y50.0 I0.0 J-1.75
G1 Y15.0
G3 X5.0 Y13.25 I1.75 J0.0
G1 F300.0 Y13.75
G1 Z-8.0
G1 F800.0 X34.0
G3 X35.25 Y15.0 I0.0 J1.25
G1 Y50.0
G3 X34.0 Y51.25 I-1.25 J0.0
G1 X5.0
G3 X3.75 Y50.0 I0.0 J-1.25
G1 Y15.0
G3 X5.0 Y13.75 I1.25 J0.0
G1 F300.0 Y13.25
G1 F800.0 X34.0
G3 X35.75 Y15.0 I0.0 J1.75
G1 Y50.0
G3 X34.0 Y51.75 I-1.75 J0.0
G1 X5.0
G3 X3.25 Y50.0 I0.0 J-1.75
G1 Y15.0
G3 X5.0 Y13.25 I1.75 J0.0
G1 F300.0 Y13.75
G1 Z-9.0
G1 F800.0 X34.0
G3 X35.25 Y15.0 I0.0 J1.25
G1 Y50.0
G3 X34.0 Y51.25 I-1.25 J0.0
G1 X5.0
G3 X3.75 Y50.0 I0.0 J-1.25
G1 Y15.0
G3 X5.0 Y13.75 I1.25 J0.0
G1 F300.0 Y13.25
G1 F800.0 X34.0
G3 X35.75 Y15.0 I0.0 J1.75
G1 Y50.0
G3 X34.0 Y51.75 I-1.75 J0.0
G1 X5.0
G3 X3.25 Y50.0 I0.0 J-1.75
G1 Y15.0
G3 X5.0 Y13.25 I1.75 J0.0
G1 F300.0 Y13.75
G1 Z-10.0
G1 F800.0 X34.0
G3 X35.25 Y15.0 I0.0 J1.25
G1 Y50.0
G3 X34.0 Y51.25 I-1.25 J0.0
G1 X5.0
G3 X3.75 Y50.0 I0.0 J-1.25
G1 Y15.0
G3 X5.0 Y13.75 I1.25 J0.0
G1 F300.0 Y13.25
G1 F800.0 X34.0
G3 X35.75 Y15.0 I0.0 J1.75
G1 Y50.0
G3 X34.0 Y51.75 I-1.75 J0.0
G1 X5.0
G3 X3.25 Y50.0 I0.0 J-1.75
G1 Y15.0
G3 X5.0 Y13.25 I1.75 J0.0
( Cover - level all -8 )
S1000
G0 Z3.0
G0 X17.25 Y71.25
G1 F300.0 Z-1.0
G1 F800.0 Y77.75
G1 X17.75
G1 Y71.25
G1 X17.25
G1 F300.0 X16.25
G1 F800.0 Y78.75
G1 X18.75
G1 Y70.25
G1 X16.25
G1 Y71.25
G1 F300.0 X15.25
G1 F800.0 Y79.75
G1 X19.75
G1 Y69.25
G1 X15.25
G1 Y71.25
G1 F300.0 X14.25
G1 F800.0 Y80.75
G1 X20.75
G1 Y68.25
G1 X14.25
G1 Y71.25
G1 F300.0 X13.25
G1 F800.0 Y81.75
G1 X21.75
G1 Y67.25
G1 X13.25
G1 Y71.25
G1 F300.0 X12.25
G1 F800.0 Y82.75
G1 X22.75
G1 Y66.25
G1 X12.25
G1 Y71.25
G1 F300.0 X11.25
G1 F800.0 Y83.75
G1 X23.75
G1 Y65.25
G1 X11.25
G1 Y71.25
G1 F300.0 X10.25
G1 F800.0 Y84.75
G1 X24.75
G1 Y64.25
G1 X10.25
G1 Y71.25
G1 F300.0 X9.25
G1 F800.0 Y85.75
G1 X25.75
G1 Y63.25
G1 X9.25
G1 Y71.25
G1 F300.0 X8.25
G1 F800.0 Y86.75
G1 X26.75
G1 Y62.25
G1 X8.25
G1 Y71.25
G1 F300.0 X7.25
G1 F800.0 Y87.75
G1 X27.75
G1 Y61.25
G1 X7.25
G1 Y71.25
G1 F300.0 X6.25
G1 F800.0 Y88.75
G1 X28.75
G1 Y60.25
G1 X6.25
G1 Y71.25
G1 F300.0 X5.25
G1 F800.0 Y89.75
G1 X29.75
G1 Y59.25
G1 X5.25
G1 Y71.25
G1 F300.0 X4.25
G1 F800.0 Y90.75
G1 X30.75
G1 Y58.25
G1 X4.25
G1 Y71.25
G0 Z3.0
G0 X17.25
G1 F300.0 Z-2.0
G1 F800.0 Y77.75
G1 X17.75
G1 Y71.25
G1 X17.25
G1 F300.0 X16.25
G1 F800.0 Y78.75
G1 X18.75
G1 Y70.25
G1 X16.25
G1 Y71.25
G1 F300.0 X15.25
G1 F800.0 Y79.75
G1 X19.75
G1 Y69.25
G1 X15.25
G1 Y71.25
G1 F300.0 X14.25
G1 F800.0 Y80.75
G1 X20.75
G1 Y68.25
G1 X14.25
G1 Y71.25
G1 F300.0 X13.25
G1 F800.0 Y81.75
G1 X21.75
G1 Y67.25
G1 X13.25
G1 Y71.25
G1 F300.0 X12.25
G1 F800.0 Y82.75
G1 X22.75
G1 Y66.25
G1 X12.25
G1 Y71.25
G1 F300.0 X11.25
G1 F800.0 Y83.75
G1 X23.75
G1 Y65.25
G1 X11.25
G1 Y71.25
G1 F300.0 X10.25
G1 F800.0 Y84.75
G1 X24.75
G1 Y64.25
G1 X10.25
G1 Y71.25
G1 F300.0 X9.25
G1 F800.0 Y85.75
G1 X25.75
G1 Y63.25
G1 X9.25
G1 Y71.25
G1 F300.0 X8.25
G1 F800.0 Y86.75
G1 X26.75
G1 Y62.25
G1 X8.25
G1 Y71.25
G1 F300.0 X7.25
G1 F800.0 Y87.75
G1 X27.75
G1 Y61.25
G1 X7.25
G1 Y71.25
G1 F300.0 X6.25
G1 F800.0 Y88.75
G1 X28.75
G1 Y60.25
G1 X6.25
G1 Y71.25
G1 F300.0 X5.25
G1 F800.0 Y89.75
G1 X29.75
G1 Y59.25
G1 X5.25
G1 Y71.25
G1 F300.0 X4.25
G1 F800.0 Y90.75
G1 X30.75
G1 Y58.25
G1 X4.25
G1 Y71.25
G0 Z3.0
G0 X17.25
G1 F300.0 Z-3.0
G1 F800.0 Y77.75
G1 X17.75
G1 Y71.25
G1 X17.25
G1 F300.0 X16.25
G1 F800.0 Y78.75
G1 X18.75
G1 Y70.25
G1 X16.25
G1 Y71.25
G1 F300.0 X15.25
G1 F800.0 Y79.75
G1 X19.75
G1 Y69.25
G1 X15.25
G1 Y71.25
G1 F300.0 X14.25
G1 F800.0 Y80.75
G1 X20.75
G1 Y68.25
G1 X14.25
G1 Y71.25
G1 F300.0 X13.25
G1 F800.0 Y81.75
G1 X21.75
G1 Y67.25
G1 X13.25
G1 Y71.25
G1 F300.0 X12.25
G1 F800.0 Y82.75
G1 X22.75
G1 Y66.25
G1 X12.25
G1 Y71.25
G1 F300.0 X11.25
G1 F800.0 Y83.75
G1 X23.75
G1 Y65.25
G1 X11.25
G1 Y71.25
G1 F300.0 X10.25
G1 F800.0 Y84.75
G1 X24.75
G1 Y64.25
G1 X10.25
G1 Y71.25
G1 F300.0 X9.25
G1 F800.0 Y85.75
G1 X25.75
G1 Y63.25
G1 X9.25
G1 Y71.25
G1 F300.0 X8.25
G1 F800.0 Y86.75
G1 X26.75
G1 Y62.25
G1 X8.25
G1 Y71.25
G1 F300.0 X7.25
G1 F800.0 Y87.75
G1 X27.75
G1 Y61.25
G1 X7.25
G1 Y71.25
G1 F300.0 X6.25
G1 F800.0 Y88.75
G1 X28.75
G1 Y60.25
G1 X6.25
G1 Y71.25
G1 F300.0 X5.25
G1 F800.0 Y89.75
G1 X29.75
G1 Y59.25
G1 X5.25
G1 Y71.25
G1 F300.0 X4.25
G1 F800.0 Y90.75
G1 X30.75
G1 Y58.25
G1 X4.25
G1 Y71.25
G0 Z3.0
G0 X17.25
G1 F300.0 Z-4.0
G1 F800.0 Y77.75
G1 X17.75
G1 Y71.25
G1 X17.25
G1 F300.0 X16.25
G1 F800.0 Y78.75
G1 X18.75
G1 Y70.25
G1 X16.25
G1 Y71.25
G1 F300.0 X15.25
G1 F800.0 Y79.75
G1 X19.75
G1 Y69.25
G1 X15.25
G1 Y71.25
G1 F300.0 X14.25
G1 F800.0 Y80.75
G1 X20.75
G1 Y68.25
G1 X14.25
G1 Y71.25
G1 F300.0 X13.25
G1 F800.0 Y81.75
G1 X21.75
G1 Y67.25
G1 X13.25
G1 Y71.25
G1 F300.0 X12.25
G1 F800.0 Y82.75
G1 X22.75
G1 Y66.25
G1 X12.25
G1 Y71.25
G1 F300.0 X11.25
G1 F800.0 Y83.75
G1 X23.75
G1 Y65.25
G1 X11.25
G1 Y71.25
G1 F300.0 X10.25
G1 F800.0 Y84.75
G1 X24.75
G1 Y64.25
G1 X10.25
G1 Y71.25
G1 F300.0 X9.25
G1 F800.0 Y85.75
G1 X25.75
G1 Y63.25
G1 X9.25
G1 Y71.25
G1 F300.0 X8.25
G1 F800.0 Y86.75
G1 X26.75
G1 Y62.25
G1 X8.25
G1 Y71.25
G1 F300.0 X7.25
G1 F800.0 Y87.75
G1 X27.75
G1 Y61.25
G1 X7.25
G1 Y71.25
G1 F300.0 X6.25
G1 F800.0 Y88.75
G1 X28.75
G1 Y60.25
G1 X6.25
G1 Y71.25
G1 F300.0 X5.25
G1 F800.0 Y89.75
G1 X29.75
G1 Y59.25
G1 X5.25
G1 Y71.25
G1 F300.0 X4.25
G1 F800.0 Y90.75
G1 X30.75
G1 Y58.25
G1 X4.25
G1 Y71.25
G0 Z3.0
G0 X17.25
G1 F300.0 Z-5.0
G1 F800.0 Y77.75
G1 X17.75
G1 Y71.25
G1 X17.25
G1 F300.0 X16.25
G1 F800.0 Y78.75
G1 X18.75
G1 Y70.25
G1 X16.25
G1 Y71.25
G1 F300.0 X15.25
G1 F800.0 Y79.75
G1 X19.75
G1 Y69.25
G1 X15.25
G1 Y71.25
G1 F300.0 X14.25
G1 F800.0 Y80.75
G1 X20.75
G1 Y68.25
G1 X14.25
G1 Y71.25
G1 F300.0 X13.25
G1 F800.0 Y81.75
G1 X21.75
G1 Y67.25
G1 X13.25
G1 Y71.25
G1 F300.0 X12.25
G1 F800.0 Y82.75
G1 X22.75
G1 Y66.25
G1 X12.25
G1 Y71.25
G1 F300.0 X11.25
G1 F800.0 Y83.75
G1 X23.75
G1 Y65.25
G1 X11.25
G1 Y71.25
G1 F300.0 X10.25
G1 F800.0 Y84.75
G1 X24.75
G1 Y64.25
G1 X10.25
G1 Y71.25
G1 F300.0 X9.25
G1 F800.0 Y85.75
G1 X25.75
G1 Y63.25
G1 X9.25
G1 Y71.25
G1 F300.0 X8.25
G1 F800.0 Y86.75
G1 X26.75
G1 Y62.25
G1 X8.25
G1 Y71.25
G1 F300.0 X7.25
G1 F800.0 Y87.75
G1 X27.75
G1 Y61.25
G1 X7.25
G1 Y71.25
G1 F300.0 X6.25
G1 F800.0 Y88.75
G1 X28.75
G1 Y60.25
G1 X6.25
G1 Y71.25
G1 F300.0 X5.25
G1 F800.0 Y89.75
G1 X29.75
G1 Y59.25
G1 X5.25
G1 Y71.25
G1 F300.0 X4.25
G1 F800.0 Y90.75
G1 X30.75
G1 Y58.25
G1 X4.25
G1 Y71.25
G0 Z3.0
G0 X17.25
G1 F300.0 Z-6.0
G1 F800.0 Y77.75
G1 X17.75
G1 Y71.25
G1 X17.25
G1 F300.0 X16.25
G1 F800.0 Y78.75
G1 X18.75
G1 Y70.25
G1 X16.25
G1 Y71.25
G1 F300.0 X15.25
G1 F800.0 Y79.75
G1 X19.75
G1 Y69.25
G1 X15.25
G1 Y71.25
G1 F300.0 X14.25
G1 F800.0 Y80.75
G1 X20.75
G1 Y68.25
G1 X14.25
G1 Y71.25
G1 F300.0 X13.25
G1 F800.0 Y81.75
G1 X21.75
G1 Y67.25
G1 X13.25
G1 Y71.25
G1 F300.0 X12.25
G1 F800.0 Y82.75
G1 X22.75
G1 Y66.25
G1 X12.25
G1 Y71.25
G1 F300.0 X11.25
G1 F800.0 Y83.75
G1 X23.75
G1 Y65.25
G1 X11.25
G1 Y71.25
G1 F300.0 X10.25
G1 F800.0 Y84.75
G1 X24.75
G1 Y64.25
G1 X10.25
G1 Y71.25
G1 F300.0 X9.25
G1 F800.0 Y85.75
G1 X25.75
G1 Y63.25
G1 X9.25
G1 Y71.25
G1 F300.0 X8.25
G1 F800.0 Y86.75
G1 X26.75
G1 Y62.25
G1 X8.25
G1 Y71.25
G1 F300.0 X7.25
G1 F800.0 Y87.75
G1 X27.75
G1 Y61.25
G1 X7.25
G1 Y71.25
G1 F300.0 X6.25
G1 F800.0 Y88.75
G1 X28.75
G1 Y60.25
G1 X6.25
G1 Y71.25
G1 F300.0 X5.25
G1 F800.0 Y89.75
G1 X29.75
G1 Y59.25
G1 X5.25
G1 Y71.25
G1 F300.0 X4.25
G1 F800.0 Y90.75
G1 X30.75
G1 Y58.25
G1 X4.25
G1 Y71.25
G0 Z3.0
G0 X17.25
G1 F300.0 Z-7.0
G1 F800.0 Y77.75
G1 X17.75
G1 Y71.25
G1 X17.25
G1 F300.0 X16.25
G1 F800.0 Y78.75
G1 X18.75
G1 Y70.25
G1 X16.25
G1 Y71.25
G1 F300.0 X15.25
G1 F800.0 Y79.75
G1 X19.75
G1 Y69.25
G1 X15.25
G1 Y71.25
G1 F300.0 X14.25
G1 F800.0 Y80.75
G1 X20.75
G1 Y68.25
G1 X14.25
G1 Y71.25
G1 F300.0 X13.25
G1 F800.0 Y81.75
G1 X21.75
G1 Y67.25
G1 X13.25
G1 Y71.25
G1 F300.0 X12.25
G1 F800.0 Y82.75
G1 X22.75
G1 Y66.25
G1 X12.25
G1 Y71.25
G1 F300.0 X11.25
G1 F800.0 Y83.75
G1 X23.75
G1 Y65.25
G1 X11.25
G1 Y71.25
G1 F300.0 X10.25
G1 F800.0 Y84.75
G1 X24.75
G1 Y64.25
G1 X10.25
G1 Y71.25
G1 F300.0 X9.25
G1 F800.0 Y85.75
G1 X25.75
G1 Y63.25
G1 X9.25
G1 Y71.25
G1 F300.0 X8.25
G1 F800.0 Y86.75
G1 X26.75
G1 Y62.25
G1 X8.25
G1 Y71.25
G1 F300.0 X7.25
G1 F800.0 Y87.75
G1 X27.75
G1 Y61.25
G1 X7.25
G1 Y71.25
G1 F300.0 X6.25
G1 F800.0 Y88.75
G1 X28.75
G1 Y60.25
G1 X6.25
G1 Y71.25
G1 F300.0 X5.25
G1 F800.0 Y89.75
G1 X29.75
G1 Y59.25
G1 X5.25
G1 Y71.25
G1 F300.0 X4.25
G1 F800.0 Y90.75
G1 X30.75
G1 Y58.25
G1 X4.25
G1 Y71.25
G0 Z3.0
G0 X17.25
G1 F300.0 Z-8.0
G1 F800.0 Y77.75
G1 X17.75
G1 Y71.25
G1 X17.25
G1 F300.0 X16.25
G1 F800.0 Y78.75
G1 X18.75
G1 Y70.25
G1 X16.25
G1 Y71.25
G1 F300.0 X15.25
G1 F800.0 Y79.75
G1 X19.75
G1 Y69.25
G1 X15.25
G1 Y71.25
G1 F300.0 X14.25
G1 F800.0 Y80.75
G1 X20.75
G1 Y68.25
G1 X14.25
G1 Y71.25
G1 F300.0 X13.25
G1 F800.0 Y81.75
G1 X21.75
G1 Y67.25
G1 X13.25
G1 Y71.25
G1 F300.0 X12.25
G1 F800.0 Y82.75
G1 X22.75
G1 Y66.25
G1 X12.25
G1 Y71.25
G1 F300.0 X11.25
G1 F800.0 Y83.75
G1 X23.75
G1 Y65.25
G1 X11.25
G1 Y71.25
G1 F300.0 X10.25
G1 F800.0 Y84.75
G1 X24.75
G1 Y64.25
G1 X10.25
G1 Y71.25
G1 F300.0 X9.25
G1 F800.0 Y85.75
G1 X25.75
G1 Y63.25
G1 X9.25
G1 Y71.25
G1 F300.0 X8.25
G1 F800.0 Y86.75
G1 X26.75
G1 Y62.25
G1 X8.25
G1 Y71.25
G1 F300.0 X7.25
G1 F800.0 Y87.75
G1 X27.75
G1 Y61.25
G1 X7.25
G1 Y71.25
G1 F300.0 X6.25
G1 F800.0 Y88.75
G1 X28.75
G1 Y60.25
G1 X6.25
G1 Y71.25
G1 F300.0 X5.25
G1 F800.0 Y89.75
G1 X29.75
G1 Y59.25
G1 X5.25
G1 Y71.25
G1 F300.0 X4.25
G1 F800.0 Y90.75
G1 X30.75
G1 Y58.25
G1 X4.25
G1 Y71.25
( Cover - Wire Whole )
S1000
G0 Z3.0
G0 X4.75 Y65.25
G1 F300.0 Z-9.0
G1 F800.0 Y66.75
G1 X9.25
G1 Y65.25
G1 X4.75
G1 F300.0 Z-10.0
G1 F800.0 Y66.75
G1 X9.25
G1 Y65.25
G1 X4.75
( Cover - Outside cover )
S1000
G0 Z3.0
G0 X5.0 Y57.75
G1 F300.0 Z-9.0
G1 F800.0 X30.0
G3 X31.25 Y59.0 I0.0 J1.25
G1 Y90.0
G3 X30.0 Y91.25 I-1.25 J0.0
G1 X5.0
G3 X3.75 Y90.0 I0.0 J-1.25
G1 Y59.0
G3 X5.0 Y57.75 I1.25 J0.0
G1 F300.0 Y57.25
G1 F800.0 X30.0
G3 X31.75 Y59.0 I0.0 J1.75
G1 Y90.0
G3 X30.0 Y91.75 I-1.75 J0.0
G1 X5.0
G3 X3.25 Y90.0 I0.0 J-1.75
G1 Y59.0
G3 X5.0 Y57.25 I1.75 J0.0
G1 F300.0 Y57.75
G1 Z-10.0
G1 F800.0 X30.0
G3 X31.25 Y59.0 I0.0 J1.25
G1 Y90.0
G3 X30.0 Y91.25 I-1.25 J0.0
G1 X5.0
G3 X3.75 Y90.0 I0.0 J-1.25
G1 Y59.0
G3 X5.0 Y57.75 I1.25 J0.0
G1 F300.0 Y57.25
G1 F800.0 X30.0
G3 X31.75 Y59.0 I0.0 J1.75
G1 Y90.0
G3 X30.0 Y91.75 I-1.75 J0.0
G1 X5.0
G3 X3.25 Y90.0 I0.0 J-1.75
G1 Y59.0
G3 X5.0 Y57.25 I1.75 J0.0
( Sensor Arm - level all -7 )
S1000
G0 Z3.0
G0 X48.25 Y20.25
G1 F300.0 Z-1.0
G1 F800.0 Y83.75
G1 X49.75
G1 Y20.25
G1 X48.25
G1 F300.0 X47.25
G1 F800.0 Y84.75
G1 X50.75
G1 Y19.25
G1 X47.25
G1 Y20.25
G1 F300.0 X46.25
G1 F800.0 Y85.75
G1 X51.75
G1 Y18.25
G1 X46.25
G1 Y20.25
G1 F300.0 X45.25
G1 F800.0 Y86.75
G1 X52.75
G1 Y17.25
G1 X45.25
G1 Y20.25
G1 F300.0 X44.25
G1 F800.0 Y87.75
G1 X53.75
G1 Y16.25
G1 X44.25
G1 Y20.25
G1 F300.0 X43.25
G1 F800.0 Y88.75
G1 X54.75
G1 Y15.25
G1 X43.25
G1 Y20.25
G1 F300.0 X42.25
G1 F800.0 Y89.75
G1 X55.75
G1 Y14.25
G1 X42.25
G1 Y20.25
G0 Z3.0
G0 X48.25
G1 F300.0 Z-2.0
G1 F800.0 Y83.75
G1 X49.75
G1 Y20.25
G1 X48.25
G1 F300.0 X47.25
G1 F800.0 Y84.75
G1 X50.75
G1 Y19.25
G1 X47.25
G1 Y20.25
G1 F300.0 X46.25
G1 F800.0 Y85.75
G1 X51.75
G1 Y18.25
G1 X46.25
G1 Y20.25
G1 F300.0 X45.25
G1 F800.0 Y86.75
G1 X52.75
G1 Y17.25
G1 X45.25
G1 Y20.25
G1 F300.0 X44.25
G1 F800.0 Y87.75
G1 X53.75
G1 Y16.25
G1 X44.25
G1 Y20.25
G1 F300.0 X43.25
G1 F800.0 Y88.75
G1 X54.75
G1 Y15.25
G1 X43.25
G1 Y20.25
G1 F300.0 X42.25
G1 F800.0 Y89.75
G1 X55.75
G1 Y14.25
G1 X42.25
G1 Y20.25
G0 Z3.0
G0 X48.25
G1 F300.0 Z-3.0
G1 F800.0 Y83.75
G1 X49.75
G1 Y20.25
G1 X48.25
G1 F300.0 X47.25
G1 F800.0 Y84.75
G1 X50.75
G1 Y19.25
G1 X47.25
G1 Y20.25
G1 F300.0 X46.25
G1 F800.0 Y85.75
G1 X51.75
G1 Y18.25
G1 X46.25
G1 Y20.25
G1 F300.0 X45.25
G1 F800.0 Y86.75
G1 X52.75
G1 Y17.25
G1 X45.25
G1 Y20.25
G1 F300.0 X44.25
G1 F800.0 Y87.75
G1 X53.75
G1 Y16.25
G1 X44.25
G1 Y20.25
G1 F300.0 X43.25
G1 F800.0 Y88.75
G1 X54.75
G1 Y15.25
G1 X43.25
G1 Y20.25
G1 F300.0 X42.25
G1 F800.0 Y89.75
G1 X55.75
G1 Y14.25
G1 X42.25
G1 Y20.25
G0 Z3.0
G0 X48.25
G1 F300.0 Z-4.0
G1 F800.0 Y83.75
G1 X49.75
G1 Y20.25
G1 X48.25
G1 F300.0 X47.25
G1 F800.0 Y84.75
G1 X50.75
G1 Y19.25
G1 X47.25
G1 Y20.25
G1 F300.0 X46.25
G1 F800.0 Y85.75
G1 X51.75
G1 Y18.25
G1 X46.25
G1 Y20.25
G1 F300.0 X45.25
G1 F800.0 Y86.75
G1 X52.75
G1 Y17.25
G1 X45.25
G1 Y20.25
G1 F300.0 X44.25
G1 F800.0 Y87.75
G1 X53.75
G1 Y16.25
G1 X44.25
G1 Y20.25
G1 F300.0 X43.25
G1 F800.0 Y88.75
G1 X54.75
G1 Y15.25
G1 X43.25
G1 Y20.25
G1 F300.0 X42.25
G1 F800.0 Y89.75
G1 X55.75
G1 Y14.25
G1 X42.25
G1 Y20.25
G0 Z3.0
G0 X48.25
G1 F300.0 Z-5.0
G1 F800.0 Y83.75
G1 X49.75
G1 Y20.25
G1 X48.25
G1 F300.0 X47.25
G1 F800.0 Y84.75
G1 X50.75
G1 Y19.25
G1 X47.25
G1 Y20.25
G1 F300.0 X46.25
G1 F800.0 Y85.75
G1 X51.75
G1 Y18.25
G1 X46.25
G1 Y20.25
G1 F300.0 X45.25
G1 F800.0 Y86.75
G1 X52.75
G1 Y17.25
G1 X45.25
G1 Y20.25
G1 F300.0 X44.25
G1 F800.0 Y87.75
G1 X53.75
G1 Y16.25
G1 X44.25
G1 Y20.25
G1 F300.0 X43.25
G1 F800.0 Y88.75
G1 X54.75
G1 Y15.25
G1 X43.25
G1 Y20.25
G1 F300.0 X42.25
G1 F800.0 Y89.75
G1 X55.75
G1 Y14.25
G1 X42.25
G1 Y20.25
G0 Z3.0
G0 X48.25
G1 F300.0 Z-6.0
G1 F800.0 Y83.75
G1 X49.75
G1 Y20.25
G1 X48.25
G1 F300.0 X47.25
G1 F800.0 Y84.75
G1 X50.75
G1 Y19.25
G1 X47.25
G1 Y20.25
G1 F300.0 X46.25
G1 F800.0 Y85.75
G1 X51.75
G1 Y18.25
G1 X46.25
G1 Y20.25
G1 F300.0 X45.25
G1 F800.0 Y86.75
G1 X52.75
G1 Y17.25
G1 X45.25
G1 Y20.25
G1 F300.0 X44.25
G1 F800.0 Y87.75
G1 X53.75
G1 Y16.25
G1 X44.25
G1 Y20.25
G1 F300.0 X43.25
G1 F800.0 Y88.75
G1 X54.75
G1 Y15.25
G1 X43.25
G1 Y20.25
G1 F300.0 X42.25
G1 F800.0 Y89.75
G1 X55.75
G1 Y14.25
G1 X42.25
G1 Y20.25
G0 Z3.0
G0 X48.25
G1 F300.0 Z-7.0
G1 F800.0 Y83.75
G1 X49.75
G1 Y20.25
G1 X48.25
G1 F300.0 X47.25
G1 F800.0 Y84.75
G1 X50.75
G1 Y19.25
G1 X47.25
G1 Y20.25
G1 F300.0 X46.25
G1 F800.0 Y85.75
G1 X51.75
G1 Y18.25
G1 X46.25
G1 Y20.25
G1 F300.0 X45.25
G1 F800.0 Y86.75
G1 X52.75
G1 Y17.25
G1 X45.25
G1 Y20.25
G1 F300.0 X44.25
G1 F800.0 Y87.75
G1 X53.75
G1 Y16.25
G1 X44.25
G1 Y20.25
G1 F300.0 X43.25
G1 F800.0 Y88.75
G1 X54.75
G1 Y15.25
G1 X43.25
G1 Y20.25
G1 F300.0 X42.25
G1 F800.0 Y89.75
G1 X55.75
G1 Y14.25
G1 X42.25
G1 Y20.25
( Sensor Arm - Magnet whole )
S1000
G0 Z3.0
G0 X50.5 Y83.0
G1 F300.0 Z-8.0
G2 F800.0 X48.25 Y81.70096 I-1.5 J0.0
G2 Y84.29904 I0.75 J1.29904
G2 X50.5 Y83.0 I0.75 J-1.29904
G1 F300.0 X51.0
G2 F800.0 X48.0 Y81.26795 I-2.0 J0.0
G2 Y84.73205 I1.0 J1.73205
G2 X51.0 Y83.0 I1.0 J-1.73205
G1 F300.0 X50.5
G1 Z-9.0
G2 F800.0 X48.25 Y81.70096 I-1.5 J0.0
G2 Y84.29904 I0.75 J1.29904
G2 X50.5 Y83.0 I0.75 J-1.29904
G1 F300.0 X51.0
G2 F800.0 X48.0 Y81.26795 I-2.0 J0.0
G2 Y84.73205 I1.0 J1.73205
G2 X51.0 Y83.0 I1.0 J-1.73205
( Sensor Arm - Outside Trigger )
S1000
G0 Z3.0
G0 X43.0 Y13.75
G1 F300.0 Z-8.0
G1 F800.0 X55.0
G3 X56.25 Y15.0 I0.0 J1.25
G1 Y89.0
G3 X55.0 Y90.25 I-1.25 J0.0
G1 X43.0
G3 X41.75 Y89.0 I0.0 J-1.25
G1 Y15.0
G3 X43.0 Y13.75 I1.25 J0.0
G1 F300.0 Y13.25
G1 F800.0 X55.0
G3 X56.75 Y15.0 I0.0 J1.75
G1 Y89.0
G3 X55.0 Y90.75 I-1.75 J0.0
G1 X43.0
G3 X41.25 Y89.0 I0.0 J-1.75
G1 Y15.0
G3 X43.0 Y13.25 I1.75 J0.0
G1 F300.0 Y13.75
G1 Z-9.0
G1 F800.0 X55.0
G3 X56.25 Y15.0 I0.0 J1.25
G1 Y89.0
G3 X55.0 Y90.25 I-1.25 J0.0
G1 X43.0
G3 X41.75 Y89.0 I0.0 J-1.25
G1 Y15.0
G3 X43.0 Y13.75 I1.25 J0.0
G1 F300.0 Y13.25
G1 F800.0 X55.0
G3 X56.75 Y15.0 I0.0 J1.75
G1 Y89.0
G3 X55.0 Y90.75 I-1.75 J0.0
G1 X43.0
G3 X41.25 Y89.0 I0.0 J-1.75
G1 Y15.0
G3 X43.0 Y13.25 I1.75 J0.0
G1 F300.0 Y13.75
G1 Z-10.0
G1 F800.0 X55.0
G3 X56.25 Y15.0 I0.0 J1.25
G1 Y89.0
G3 X55.0 Y90.25 I-1.25 J0.0
G1 X43.0
G3 X41.75 Y89.0 I0.0 J-1.25
G1 Y15.0
G3 X43.0 Y13.75 I1.25 J0.0
G1 F300.0 Y13.25
G1 F800.0 X55.0
G3 X56.75 Y15.0 I0.0 J1.75
G1 Y89.0
G3 X55.0 Y90.75 I-1.75 J0.0
G1 X43.0
G3 X41.25 Y89.0 I0.0 J-1.75
G1 Y15.0
G3 X43.0 Y13.25 I1.75 J0.0
G0 Z3.0
M5
M30
