( Made using CamBam - http://www.cambam.co.uk )
( HomeSensor 4/26/2015 12:54:32 PM )
( T0 : 2.5 )
G21 G90 G61 G40
G0 Z3.0
( T0 : 2.5 )
T0 M6
( Cover - level all -8 )
G17
M3 S1000
G0 X52.25 Y23.25
G1 F300.0 Z0.0
G1 F800.0 Y29.75
G1 X52.75
G1 Y23.25
G1 X52.25
G1 F300.0 X51.25
G1 F800.0 Y30.75
G1 X53.75
G1 Y22.25
G1 X51.25
G1 Y23.25
G1 F300.0 X50.25
G1 F800.0 Y31.75
G1 X54.75
G1 Y21.25
G1 X50.25
G1 Y23.25
G1 F300.0 X49.25
G1 F800.0 Y32.75
G1 X55.75
G1 Y20.25
G1 X49.25
G1 Y23.25
G1 F300.0 X48.25
G1 F800.0 Y33.75
G1 X56.75
G1 Y19.25
G1 X48.25
G1 Y23.25
G1 F300.0 X47.25
G1 F800.0 Y34.75
G1 X57.75
G1 Y18.25
G1 X47.25
G1 Y23.25
G1 F300.0 X46.25
G1 F800.0 Y35.75
G1 X58.75
G1 Y17.25
G1 X46.25
G1 Y23.25
G1 F300.0 X45.25
G1 F800.0 Y36.75
G1 X59.75
G1 Y16.25
G1 X45.25
G1 Y23.25
G1 F300.0 X44.25
G1 F800.0 Y37.75
G1 X60.75
G1 Y15.25
G1 X44.25
G1 Y23.25
G1 F300.0 X43.25
G1 F800.0 Y38.75
G1 X61.75
G1 Y14.25
G1 X43.25
G1 Y23.25
G1 F300.0 X42.25
G1 F800.0 Y39.75
G1 X62.75
G1 Y13.25
G1 X42.25
G1 Y23.25
G1 F300.0 X41.25
G1 F800.0 Y40.75
G1 X63.75
G1 Y12.25
G1 X41.25
G1 Y23.25
G1 F300.0 X40.25
G1 F800.0 Y41.75
G1 X64.75
G1 Y11.25
G1 X40.25
G1 Y23.25
G1 F300.0 X39.25
G1 F800.0 Y42.75
G1 X65.75
G1 Y10.25
G1 X39.25
G1 Y23.25
G0 Z3.0
G0 X52.25
G1 F300.0 Z-1.0
G1 F800.0 Y29.75
G1 X52.75
G1 Y23.25
G1 X52.25
G1 F300.0 X51.25
G1 F800.0 Y30.75
G1 X53.75
G1 Y22.25
G1 X51.25
G1 Y23.25
G1 F300.0 X50.25
G1 F800.0 Y31.75
G1 X54.75
G1 Y21.25
G1 X50.25
G1 Y23.25
G1 F300.0 X49.25
G1 F800.0 Y32.75
G1 X55.75
G1 Y20.25
G1 X49.25
G1 Y23.25
G1 F300.0 X48.25
G1 F800.0 Y33.75
G1 X56.75
G1 Y19.25
G1 X48.25
G1 Y23.25
G1 F300.0 X47.25
G1 F800.0 Y34.75
G1 X57.75
G1 Y18.25
G1 X47.25
G1 Y23.25
G1 F300.0 X46.25
G1 F800.0 Y35.75
G1 X58.75
G1 Y17.25
G1 X46.25
G1 Y23.25
G1 F300.0 X45.25
G1 F800.0 Y36.75
G1 X59.75
G1 Y16.25
G1 X45.25
G1 Y23.25
G1 F300.0 X44.25
G1 F800.0 Y37.75
G1 X60.75
G1 Y15.25
G1 X44.25
G1 Y23.25
G1 F300.0 X43.25
G1 F800.0 Y38.75
G1 X61.75
G1 Y14.25
G1 X43.25
G1 Y23.25
G1 F300.0 X42.25
G1 F800.0 Y39.75
G1 X62.75
G1 Y13.25
G1 X42.25
G1 Y23.25
G1 F300.0 X41.25
G1 F800.0 Y40.75
G1 X63.75
G1 Y12.25
G1 X41.25
G1 Y23.25
G1 F300.0 X40.25
G1 F800.0 Y41.75
G1 X64.75
G1 Y11.25
G1 X40.25
G1 Y23.25
G1 F300.0 X39.25
G1 F800.0 Y42.75
G1 X65.75
G1 Y10.25
G1 X39.25
G1 Y23.25
G0 Z3.0
G0 X52.25
G1 F300.0 Z-2.0
G1 F800.0 Y29.75
G1 X52.75
G1 Y23.25
G1 X52.25
G1 F300.0 X51.25
G1 F800.0 Y30.75
G1 X53.75
G1 Y22.25
G1 X51.25
G1 Y23.25
G1 F300.0 X50.25
G1 F800.0 Y31.75
G1 X54.75
G1 Y21.25
G1 X50.25
G1 Y23.25
G1 F300.0 X49.25
G1 F800.0 Y32.75
G1 X55.75
G1 Y20.25
G1 X49.25
G1 Y23.25
G1 F300.0 X48.25
G1 F800.0 Y33.75
G1 X56.75
G1 Y19.25
G1 X48.25
G1 Y23.25
G1 F300.0 X47.25
G1 F800.0 Y34.75
G1 X57.75
G1 Y18.25
G1 X47.25
G1 Y23.25
G1 F300.0 X46.25
G1 F800.0 Y35.75
G1 X58.75
G1 Y17.25
G1 X46.25
G1 Y23.25
G1 F300.0 X45.25
G1 F800.0 Y36.75
G1 X59.75
G1 Y16.25
G1 X45.25
G1 Y23.25
G1 F300.0 X44.25
G1 F800.0 Y37.75
G1 X60.75
G1 Y15.25
G1 X44.25
G1 Y23.25
G1 F300.0 X43.25
G1 F800.0 Y38.75
G1 X61.75
G1 Y14.25
G1 X43.25
G1 Y23.25
G1 F300.0 X42.25
G1 F800.0 Y39.75
G1 X62.75
G1 Y13.25
G1 X42.25
G1 Y23.25
G1 F300.0 X41.25
G1 F800.0 Y40.75
G1 X63.75
G1 Y12.25
G1 X41.25
G1 Y23.25
G1 F300.0 X40.25
G1 F800.0 Y41.75
G1 X64.75
G1 Y11.25
G1 X40.25
G1 Y23.25
G1 F300.0 X39.25
G1 F800.0 Y42.75
G1 X65.75
G1 Y10.25
G1 X39.25
G1 Y23.25
G0 Z3.0
G0 X52.25
G1 F300.0 Z-3.0
G1 F800.0 Y29.75
G1 X52.75
G1 Y23.25
G1 X52.25
G1 F300.0 X51.25
G1 F800.0 Y30.75
G1 X53.75
G1 Y22.25
G1 X51.25
G1 Y23.25
G1 F300.0 X50.25
G1 F800.0 Y31.75
G1 X54.75
G1 Y21.25
G1 X50.25
G1 Y23.25
G1 F300.0 X49.25
G1 F800.0 Y32.75
G1 X55.75
G1 Y20.25
G1 X49.25
G1 Y23.25
G1 F300.0 X48.25
G1 F800.0 Y33.75
G1 X56.75
G1 Y19.25
G1 X48.25
G1 Y23.25
G1 F300.0 X47.25
G1 F800.0 Y34.75
G1 X57.75
G1 Y18.25
G1 X47.25
G1 Y23.25
G1 F300.0 X46.25
G1 F800.0 Y35.75
G1 X58.75
G1 Y17.25
G1 X46.25
G1 Y23.25
G1 F300.0 X45.25
G1 F800.0 Y36.75
G1 X59.75
G1 Y16.25
G1 X45.25
G1 Y23.25
G1 F300.0 X44.25
G1 F800.0 Y37.75
G1 X60.75
G1 Y15.25
G1 X44.25
G1 Y23.25
G1 F300.0 X43.25
G1 F800.0 Y38.75
G1 X61.75
G1 Y14.25
G1 X43.25
G1 Y23.25
G1 F300.0 X42.25
G1 F800.0 Y39.75
G1 X62.75
G1 Y13.25
G1 X42.25
G1 Y23.25
G1 F300.0 X41.25
G1 F800.0 Y40.75
G1 X63.75
G1 Y12.25
G1 X41.25
G1 Y23.25
G1 F300.0 X40.25
G1 F800.0 Y41.75
G1 X64.75
G1 Y11.25
G1 X40.25
G1 Y23.25
G1 F300.0 X39.25
G1 F800.0 Y42.75
G1 X65.75
G1 Y10.25
G1 X39.25
G1 Y23.25
G0 Z3.0
G0 X52.25
G1 F300.0 Z-4.0
G1 F800.0 Y29.75
G1 X52.75
G1 Y23.25
G1 X52.25
G1 F300.0 X51.25
G1 F800.0 Y30.75
G1 X53.75
G1 Y22.25
G1 X51.25
G1 Y23.25
G1 F300.0 X50.25
G1 F800.0 Y31.75
G1 X54.75
G1 Y21.25
G1 X50.25
G1 Y23.25
G1 F300.0 X49.25
G1 F800.0 Y32.75
G1 X55.75
G1 Y20.25
G1 X49.25
G1 Y23.25
G1 F300.0 X48.25
G1 F800.0 Y33.75
G1 X56.75
G1 Y19.25
G1 X48.25
G1 Y23.25
G1 F300.0 X47.25
G1 F800.0 Y34.75
G1 X57.75
G1 Y18.25
G1 X47.25
G1 Y23.25
G1 F300.0 X46.25
G1 F800.0 Y35.75
G1 X58.75
G1 Y17.25
G1 X46.25
G1 Y23.25
G1 F300.0 X45.25
G1 F800.0 Y36.75
G1 X59.75
G1 Y16.25
G1 X45.25
G1 Y23.25
G1 F300.0 X44.25
G1 F800.0 Y37.75
G1 X60.75
G1 Y15.25
G1 X44.25
G1 Y23.25
G1 F300.0 X43.25
G1 F800.0 Y38.75
G1 X61.75
G1 Y14.25
G1 X43.25
G1 Y23.25
G1 F300.0 X42.25
G1 F800.0 Y39.75
G1 X62.75
G1 Y13.25
G1 X42.25
G1 Y23.25
G1 F300.0 X41.25
G1 F800.0 Y40.75
G1 X63.75
G1 Y12.25
G1 X41.25
G1 Y23.25
G1 F300.0 X40.25
G1 F800.0 Y41.75
G1 X64.75
G1 Y11.25
G1 X40.25
G1 Y23.25
G1 F300.0 X39.25
G1 F800.0 Y42.75
G1 X65.75
G1 Y10.25
G1 X39.25
G1 Y23.25
G0 Z3.0
G0 X52.25
G1 F300.0 Z-5.0
G1 F800.0 Y29.75
G1 X52.75
G1 Y23.25
G1 X52.25
G1 F300.0 X51.25
G1 F800.0 Y30.75
G1 X53.75
G1 Y22.25
G1 X51.25
G1 Y23.25
G1 F300.0 X50.25
G1 F800.0 Y31.75
G1 X54.75
G1 Y21.25
G1 X50.25
G1 Y23.25
G1 F300.0 X49.25
G1 F800.0 Y32.75
G1 X55.75
G1 Y20.25
G1 X49.25
G1 Y23.25
G1 F300.0 X48.25
G1 F800.0 Y33.75
G1 X56.75
G1 Y19.25
G1 X48.25
G1 Y23.25
G1 F300.0 X47.25
G1 F800.0 Y34.75
G1 X57.75
G1 Y18.25
G1 X47.25
G1 Y23.25
G1 F300.0 X46.25
G1 F800.0 Y35.75
G1 X58.75
G1 Y17.25
G1 X46.25
G1 Y23.25
G1 F300.0 X45.25
G1 F800.0 Y36.75
G1 X59.75
G1 Y16.25
G1 X45.25
G1 Y23.25
G1 F300.0 X44.25
G1 F800.0 Y37.75
G1 X60.75
G1 Y15.25
G1 X44.25
G1 Y23.25
G1 F300.0 X43.25
G1 F800.0 Y38.75
G1 X61.75
G1 Y14.25
G1 X43.25
G1 Y23.25
G1 F300.0 X42.25
G1 F800.0 Y39.75
G1 X62.75
G1 Y13.25
G1 X42.25
G1 Y23.25
G1 F300.0 X41.25
G1 F800.0 Y40.75
G1 X63.75
G1 Y12.25
G1 X41.25
G1 Y23.25
G1 F300.0 X40.25
G1 F800.0 Y41.75
G1 X64.75
G1 Y11.25
G1 X40.25
G1 Y23.25
G1 F300.0 X39.25
G1 F800.0 Y42.75
G1 X65.75
G1 Y10.25
G1 X39.25
G1 Y23.25
G0 Z3.0
G0 X52.25
G1 F300.0 Z-6.0
G1 F800.0 Y29.75
G1 X52.75
G1 Y23.25
G1 X52.25
G1 F300.0 X51.25
G1 F800.0 Y30.75
G1 X53.75
G1 Y22.25
G1 X51.25
G1 Y23.25
G1 F300.0 X50.25
G1 F800.0 Y31.75
G1 X54.75
G1 Y21.25
G1 X50.25
G1 Y23.25
G1 F300.0 X49.25
G1 F800.0 Y32.75
G1 X55.75
G1 Y20.25
G1 X49.25
G1 Y23.25
G1 F300.0 X48.25
G1 F800.0 Y33.75
G1 X56.75
G1 Y19.25
G1 X48.25
G1 Y23.25
G1 F300.0 X47.25
G1 F800.0 Y34.75
G1 X57.75
G1 Y18.25
G1 X47.25
G1 Y23.25
G1 F300.0 X46.25
G1 F800.0 Y35.75
G1 X58.75
G1 Y17.25
G1 X46.25
G1 Y23.25
G1 F300.0 X45.25
G1 F800.0 Y36.75
G1 X59.75
G1 Y16.25
G1 X45.25
G1 Y23.25
G1 F300.0 X44.25
G1 F800.0 Y37.75
G1 X60.75
G1 Y15.25
G1 X44.25
G1 Y23.25
G1 F300.0 X43.25
G1 F800.0 Y38.75
G1 X61.75
G1 Y14.25
G1 X43.25
G1 Y23.25
G1 F300.0 X42.25
G1 F800.0 Y39.75
G1 X62.75
G1 Y13.25
G1 X42.25
G1 Y23.25
G1 F300.0 X41.25
G1 F800.0 Y40.75
G1 X63.75
G1 Y12.25
G1 X41.25
G1 Y23.25
G1 F300.0 X40.25
G1 F800.0 Y41.75
G1 X64.75
G1 Y11.25
G1 X40.25
G1 Y23.25
G1 F300.0 X39.25
G1 F800.0 Y42.75
G1 X65.75
G1 Y10.25
G1 X39.25
G1 Y23.25
G0 Z3.0
G0 X52.25
G1 F300.0 Z-7.0
G1 F800.0 Y29.75
G1 X52.75
G1 Y23.25
G1 X52.25
G1 F300.0 X51.25
G1 F800.0 Y30.75
G1 X53.75
G1 Y22.25
G1 X51.25
G1 Y23.25
G1 F300.0 X50.25
G1 F800.0 Y31.75
G1 X54.75
G1 Y21.25
G1 X50.25
G1 Y23.25
G1 F300.0 X49.25
G1 F800.0 Y32.75
G1 X55.75
G1 Y20.25
G1 X49.25
G1 Y23.25
G1 F300.0 X48.25
G1 F800.0 Y33.75
G1 X56.75
G1 Y19.25
G1 X48.25
G1 Y23.25
G1 F300.0 X47.25
G1 F800.0 Y34.75
G1 X57.75
G1 Y18.25
G1 X47.25
G1 Y23.25
G1 F300.0 X46.25
G1 F800.0 Y35.75
G1 X58.75
G1 Y17.25
G1 X46.25
G1 Y23.25
G1 F300.0 X45.25
G1 F800.0 Y36.75
G1 X59.75
G1 Y16.25
G1 X45.25
G1 Y23.25
G1 F300.0 X44.25
G1 F800.0 Y37.75
G1 X60.75
G1 Y15.25
G1 X44.25
G1 Y23.25
G1 F300.0 X43.25
G1 F800.0 Y38.75
G1 X61.75
G1 Y14.25
G1 X43.25
G1 Y23.25
G1 F300.0 X42.25
G1 F800.0 Y39.75
G1 X62.75
G1 Y13.25
G1 X42.25
G1 Y23.25
G1 F300.0 X41.25
G1 F800.0 Y40.75
G1 X63.75
G1 Y12.25
G1 X41.25
G1 Y23.25
G1 F300.0 X40.25
G1 F800.0 Y41.75
G1 X64.75
G1 Y11.25
G1 X40.25
G1 Y23.25
G1 F300.0 X39.25
G1 F800.0 Y42.75
G1 X65.75
G1 Y10.25
G1 X39.25
G1 Y23.25
G0 Z3.0
G0 X52.25
G1 F300.0 Z-8.0
G1 F800.0 Y29.75
G1 X52.75
G1 Y23.25
G1 X52.25
G1 F300.0 X51.25
G1 F800.0 Y30.75
G1 X53.75
G1 Y22.25
G1 X51.25
G1 Y23.25
G1 F300.0 X50.25
G1 F800.0 Y31.75
G1 X54.75
G1 Y21.25
G1 X50.25
G1 Y23.25
G1 F300.0 X49.25
G1 F800.0 Y32.75
G1 X55.75
G1 Y20.25
G1 X49.25
G1 Y23.25
G1 F300.0 X48.25
G1 F800.0 Y33.75
G1 X56.75
G1 Y19.25
G1 X48.25
G1 Y23.25
G1 F300.0 X47.25
G1 F800.0 Y34.75
G1 X57.75
G1 Y18.25
G1 X47.25
G1 Y23.25
G1 F300.0 X46.25
G1 F800.0 Y35.75
G1 X58.75
G1 Y17.25
G1 X46.25
G1 Y23.25
G1 F300.0 X45.25
G1 F800.0 Y36.75
G1 X59.75
G1 Y16.25
G1 X45.25
G1 Y23.25
G1 F300.0 X44.25
G1 F800.0 Y37.75
G1 X60.75
G1 Y15.25
G1 X44.25
G1 Y23.25
G1 F300.0 X43.25
G1 F800.0 Y38.75
G1 X61.75
G1 Y14.25
G1 X43.25
G1 Y23.25
G1 F300.0 X42.25
G1 F800.0 Y39.75
G1 X62.75
G1 Y13.25
G1 X42.25
G1 Y23.25
G1 F300.0 X41.25
G1 F800.0 Y40.75
G1 X63.75
G1 Y12.25
G1 X41.25
G1 Y23.25
G1 F300.0 X40.25
G1 F800.0 Y41.75
G1 X64.75
G1 Y11.25
G1 X40.25
G1 Y23.25
G1 F300.0 X39.25
G1 F800.0 Y42.75
G1 X65.75
G1 Y10.25
G1 X39.25
G1 Y23.25
( Cover - Wire Whole )
S1000
G0 Z3.0
G0 X39.75 Y16.25
G1 F300.0 Z-9.0
G1 F800.0 Y17.75
G1 X44.25
G1 Y16.25
G1 X39.75
G1 F300.0 Z-10.0
G1 F800.0 Y17.75
G1 X44.25
G1 Y16.25
G1 X39.75
( Cover - Outside cover )
S1000
G0 Z3.0
G0 X40.0 Y9.75
G1 F300.0 Z-9.0
G1 F800.0 X65.0
G3 X66.25 Y11.0 I0.0 J1.25
G1 Y42.0
G3 X65.0 Y43.25 I-1.25 J0.0
G1 X40.0
G3 X38.75 Y42.0 I0.0 J-1.25
G1 Y11.0
G3 X40.0 Y9.75 I1.25 J0.0
G1 F300.0 Y9.25
G1 F800.0 X65.0
G3 X66.75 Y11.0 I0.0 J1.75
G1 Y42.0
G3 X65.0 Y43.75 I-1.75 J0.0
G1 X40.0
G3 X38.25 Y42.0 I0.0 J-1.75
G1 Y11.0
G3 X40.0 Y9.25 I1.75 J0.0
G1 F300.0 Y9.75
G1 Z-10.0
G1 F800.0 X65.0
G3 X66.25 Y11.0 I0.0 J1.25
G1 Y42.0
G3 X65.0 Y43.25 I-1.25 J0.0
G1 X40.0
G3 X38.75 Y42.0 I0.0 J-1.25
G1 Y11.0
G3 X40.0 Y9.75 I1.25 J0.0
G1 F300.0 Y9.25
G1 F800.0 X65.0
G3 X66.75 Y11.0 I0.0 J1.75
G1 Y42.0
G3 X65.0 Y43.75 I-1.75 J0.0
G1 X40.0
G3 X38.25 Y42.0 I0.0 J-1.75
G1 Y11.0
G3 X40.0 Y9.25 I1.75 J0.0
( Sensor Arm - level all -8 )
S1000
G0 Z3.0
G0 X41.25 Y53.25
G1 F300.0 Z0.0
G1 F800.0 Y79.75
G1 X42.75
G1 Y53.25
G1 X41.25
G1 F300.0 X40.25
G1 F800.0 Y80.75
G1 X43.75
G1 Y52.25
G1 X40.25
G1 Y53.25
G1 F300.0 X39.25
G1 F800.0 Y81.75
G1 X44.75
G1 Y51.25
G1 X39.25
G1 Y53.25
G1 F300.0 X38.25
G1 F800.0 Y82.75
G1 X45.75
G1 Y50.25
G1 X38.25
G1 Y53.25
G1 F300.0 X37.25
G1 F800.0 Y83.75
G1 X46.75
G1 Y49.25
G1 X37.25
G1 Y53.25
G1 F300.0 X36.25
G1 F800.0 Y84.75
G1 X47.75
G1 Y48.25
G1 X36.25
G1 Y53.25
G0 Z3.0
G0 X41.25
G1 F300.0 Z-1.0
G1 F800.0 Y79.75
G1 X42.75
G1 Y53.25
G1 X41.25
G1 F300.0 X40.25
G1 F800.0 Y80.75
G1 X43.75
G1 Y52.25
G1 X40.25
G1 Y53.25
G1 F300.0 X39.25
G1 F800.0 Y81.75
G1 X44.75
G1 Y51.25
G1 X39.25
G1 Y53.25
G1 F300.0 X38.25
G1 F800.0 Y82.75
G1 X45.75
G1 Y50.25
G1 X38.25
G1 Y53.25
G1 F300.0 X37.25
G1 F800.0 Y83.75
G1 X46.75
G1 Y49.25
G1 X37.25
G1 Y53.25
G1 F300.0 X36.25
G1 F800.0 Y84.75
G1 X47.75
G1 Y48.25
G1 X36.25
G1 Y53.25
G0 Z3.0
G0 X41.25
G1 F300.0 Z-2.0
G1 F800.0 Y79.75
G1 X42.75
G1 Y53.25
G1 X41.25
G1 F300.0 X40.25
G1 F800.0 Y80.75
G1 X43.75
G1 Y52.25
G1 X40.25
G1 Y53.25
G1 F300.0 X39.25
G1 F800.0 Y81.75
G1 X44.75
G1 Y51.25
G1 X39.25
G1 Y53.25
G1 F300.0 X38.25
G1 F800.0 Y82.75
G1 X45.75
G1 Y50.25
G1 X38.25
G1 Y53.25
G1 F300.0 X37.25
G1 F800.0 Y83.75
G1 X46.75
G1 Y49.25
G1 X37.25
G1 Y53.25
G1 F300.0 X36.25
G1 F800.0 Y84.75
G1 X47.75
G1 Y48.25
G1 X36.25
G1 Y53.25
G0 Z3.0
G0 X41.25
G1 F300.0 Z-3.0
G1 F800.0 Y79.75
G1 X42.75
G1 Y53.25
G1 X41.25
G1 F300.0 X40.25
G1 F800.0 Y80.75
G1 X43.75
G1 Y52.25
G1 X40.25
G1 Y53.25
G1 F300.0 X39.25
G1 F800.0 Y81.75
G1 X44.75
G1 Y51.25
G1 X39.25
G1 Y53.25
G1 F300.0 X38.25
G1 F800.0 Y82.75
G1 X45.75
G1 Y50.25
G1 X38.25
G1 Y53.25
G1 F300.0 X37.25
G1 F800.0 Y83.75
G1 X46.75
G1 Y49.25
G1 X37.25
G1 Y53.25
G1 F300.0 X36.25
G1 F800.0 Y84.75
G1 X47.75
G1 Y48.25
G1 X36.25
G1 Y53.25
G0 Z3.0
G0 X41.25
G1 F300.0 Z-4.0
G1 F800.0 Y79.75
G1 X42.75
G1 Y53.25
G1 X41.25
G1 F300.0 X40.25
G1 F800.0 Y80.75
G1 X43.75
G1 Y52.25
G1 X40.25
G1 Y53.25
G1 F300.0 X39.25
G1 F800.0 Y81.75
G1 X44.75
G1 Y51.25
G1 X39.25
G1 Y53.25
G1 F300.0 X38.25
G1 F800.0 Y82.75
G1 X45.75
G1 Y50.25
G1 X38.25
G1 Y53.25
G1 F300.0 X37.25
G1 F800.0 Y83.75
G1 X46.75
G1 Y49.25
G1 X37.25
G1 Y53.25
G1 F300.0 X36.25
G1 F800.0 Y84.75
G1 X47.75
G1 Y48.25
G1 X36.25
G1 Y53.25
G0 Z3.0
G0 X41.25
G1 F300.0 Z-5.0
G1 F800.0 Y79.75
G1 X42.75
G1 Y53.25
G1 X41.25
G1 F300.0 X40.25
G1 F800.0 Y80.75
G1 X43.75
G1 Y52.25
G1 X40.25
G1 Y53.25
G1 F300.0 X39.25
G1 F800.0 Y81.75
G1 X44.75
G1 Y51.25
G1 X39.25
G1 Y53.25
G1 F300.0 X38.25
G1 F800.0 Y82.75
G1 X45.75
G1 Y50.25
G1 X38.25
G1 Y53.25
G1 F300.0 X37.25
G1 F800.0 Y83.75
G1 X46.75
G1 Y49.25
G1 X37.25
G1 Y53.25
G1 F300.0 X36.25
G1 F800.0 Y84.75
G1 X47.75
G1 Y48.25
G1 X36.25
G1 Y53.25
G0 Z3.0
G0 X41.25
G1 F300.0 Z-6.0
G1 F800.0 Y79.75
G1 X42.75
G1 Y53.25
G1 X41.25
G1 F300.0 X40.25
G1 F800.0 Y80.75
G1 X43.75
G1 Y52.25
G1 X40.25
G1 Y53.25
G1 F300.0 X39.25
G1 F800.0 Y81.75
G1 X44.75
G1 Y51.25
G1 X39.25
G1 Y53.25
G1 F300.0 X38.25
G1 F800.0 Y82.75
G1 X45.75
G1 Y50.25
G1 X38.25
G1 Y53.25
G1 F300.0 X37.25
G1 F800.0 Y83.75
G1 X46.75
G1 Y49.25
G1 X37.25
G1 Y53.25
G1 F300.0 X36.25
G1 F800.0 Y84.75
G1 X47.75
G1 Y48.25
G1 X36.25
G1 Y53.25
G0 Z3.0
G0 X41.25
G1 F300.0 Z-7.0
G1 F800.0 Y79.75
G1 X42.75
G1 Y53.25
G1 X41.25
G1 F300.0 X40.25
G1 F800.0 Y80.75
G1 X43.75
G1 Y52.25
G1 X40.25
G1 Y53.25
G1 F300.0 X39.25
G1 F800.0 Y81.75
G1 X44.75
G1 Y51.25
G1 X39.25
G1 Y53.25
G1 F300.0 X38.25
G1 F800.0 Y82.75
G1 X45.75
G1 Y50.25
G1 X38.25
G1 Y53.25
G1 F300.0 X37.25
G1 F800.0 Y83.75
G1 X46.75
G1 Y49.25
G1 X37.25
G1 Y53.25
G1 F300.0 X36.25
G1 F800.0 Y84.75
G1 X47.75
G1 Y48.25
G1 X36.25
G1 Y53.25
G0 Z3.0
G0 X41.25
G1 F300.0 Z-8.0
G1 F800.0 Y79.75
G1 X42.75
G1 Y53.25
G1 X41.25
G1 F300.0 X40.25
G1 F800.0 Y80.75
G1 X43.75
G1 Y52.25
G1 X40.25
G1 Y53.25
G1 F300.0 X39.25
G1 F800.0 Y81.75
G1 X44.75
G1 Y51.25
G1 X39.25
G1 Y53.25
G1 F300.0 X38.25
G1 F800.0 Y82.75
G1 X45.75
G1 Y50.25
G1 X38.25
G1 Y53.25
G1 F300.0 X37.25
G1 F800.0 Y83.75
G1 X46.75
G1 Y49.25
G1 X37.25
G1 Y53.25
G1 F300.0 X36.25
G1 F800.0 Y84.75
G1 X47.75
G1 Y48.25
G1 X36.25
G1 Y53.25
( Sensor Arm - Magnet whole )
S1000
G0 Z3.0
G0 X43.5 Y78.0
G1 F300.0 Z-9.0
G2 F800.0 X41.25 Y76.701 I-1.5 J0.0
G2 Y79.299 I0.75 J1.299
G2 X43.5 Y78.0 I0.75 J-1.299
G1 F300.0 X44.0
G2 F800.0 X41.0 Y76.2679 I-2.0 J0.0
G2 Y79.7321 I1.0 J1.7321
G2 X44.0 Y78.0 I1.0 J-1.7321
G1 F300.0 X43.5
G1 Z-10.0
G2 F800.0 X41.25 Y76.701 I-1.5 J0.0
G2 Y79.299 I0.75 J1.299
G2 X43.5 Y78.0 I0.75 J-1.299
G1 F300.0 X44.0
G2 F800.0 X41.0 Y76.2679 I-2.0 J0.0
G2 Y79.7321 I1.0 J1.7321
G2 X44.0 Y78.0 I1.0 J-1.7321
( Sensor Arm - Outside Trigger )
S1000
G0 Z3.0
G0 X37.0 Y47.75
G1 F300.0 Z-9.0
G1 F800.0 X47.0
G3 X48.25 Y49.0 I0.0 J1.25
G1 Y84.0
G3 X47.0 Y85.25 I-1.25 J0.0
G1 X37.0
G3 X35.75 Y84.0 I0.0 J-1.25
G1 Y49.0
G3 X37.0 Y47.75 I1.25 J0.0
G1 F300.0 Y47.25
G1 F800.0 X47.0
G3 X48.75 Y49.0 I0.0 J1.75
G1 Y84.0
G3 X47.0 Y85.75 I-1.75 J0.0
G1 X37.0
G3 X35.25 Y84.0 I0.0 J-1.75
G1 Y49.0
G3 X37.0 Y47.25 I1.75 J0.0
G1 F300.0 Y47.75
G1 Z-10.0
G1 F800.0 X47.0
G3 X48.25 Y49.0 I0.0 J1.25
G1 Y84.0
G3 X47.0 Y85.25 I-1.25 J0.0
G1 X37.0
G3 X35.75 Y84.0 I0.0 J-1.25
G1 Y49.0
G3 X37.0 Y47.75 I1.25 J0.0
G1 F300.0 Y47.25
G1 F800.0 X47.0
G3 X48.75 Y49.0 I0.0 J1.75
G1 Y84.0
G3 X47.0 Y85.75 I-1.75 J0.0
G1 X37.0
G3 X35.25 Y84.0 I0.0 J-1.75
G1 Y49.0
G3 X37.0 Y47.25 I1.75 J0.0
( Sensor Arm - level all -8 )
S1000
G0 Z3.0
G0 X57.25 Y53.25
G1 F300.0 Z0.0
G1 F800.0 Y79.75
G1 X58.75
G1 Y53.25
G1 X57.25
G1 F300.0 X56.25
G1 F800.0 Y80.75
G1 X59.75
G1 Y52.25
G1 X56.25
G1 Y53.25
G1 F300.0 X55.25
G1 F800.0 Y81.75
G1 X60.75
G1 Y51.25
G1 X55.25
G1 Y53.25
G1 F300.0 X54.25
G1 F800.0 Y82.75
G1 X61.75
G1 Y50.25
G1 X54.25
G1 Y53.25
G1 F300.0 X53.25
G1 F800.0 Y83.75
G1 X62.75
G1 Y49.25
G1 X53.25
G1 Y53.25
G1 F300.0 X52.25
G1 F800.0 Y84.75
G1 X63.75
G1 Y48.25
G1 X52.25
G1 Y53.25
G0 Z3.0
G0 X57.25
G1 F300.0 Z-1.0
G1 F800.0 Y79.75
G1 X58.75
G1 Y53.25
G1 X57.25
G1 F300.0 X56.25
G1 F800.0 Y80.75
G1 X59.75
G1 Y52.25
G1 X56.25
G1 Y53.25
G1 F300.0 X55.25
G1 F800.0 Y81.75
G1 X60.75
G1 Y51.25
G1 X55.25
G1 Y53.25
G1 F300.0 X54.25
G1 F800.0 Y82.75
G1 X61.75
G1 Y50.25
G1 X54.25
G1 Y53.25
G1 F300.0 X53.25
G1 F800.0 Y83.75
G1 X62.75
G1 Y49.25
G1 X53.25
G1 Y53.25
G1 F300.0 X52.25
G1 F800.0 Y84.75
G1 X63.75
G1 Y48.25
G1 X52.25
G1 Y53.25
G0 Z3.0
G0 X57.25
G1 F300.0 Z-2.0
G1 F800.0 Y79.75
G1 X58.75
G1 Y53.25
G1 X57.25
G1 F300.0 X56.25
G1 F800.0 Y80.75
G1 X59.75
G1 Y52.25
G1 X56.25
G1 Y53.25
G1 F300.0 X55.25
G1 F800.0 Y81.75
G1 X60.75
G1 Y51.25
G1 X55.25
G1 Y53.25
G1 F300.0 X54.25
G1 F800.0 Y82.75
G1 X61.75
G1 Y50.25
G1 X54.25
G1 Y53.25
G1 F300.0 X53.25
G1 F800.0 Y83.75
G1 X62.75
G1 Y49.25
G1 X53.25
G1 Y53.25
G1 F300.0 X52.25
G1 F800.0 Y84.75
G1 X63.75
G1 Y48.25
G1 X52.25
G1 Y53.25
G0 Z3.0
G0 X57.25
G1 F300.0 Z-3.0
G1 F800.0 Y79.75
G1 X58.75
G1 Y53.25
G1 X57.25
G1 F300.0 X56.25
G1 F800.0 Y80.75
G1 X59.75
G1 Y52.25
G1 X56.25
G1 Y53.25
G1 F300.0 X55.25
G1 F800.0 Y81.75
G1 X60.75
G1 Y51.25
G1 X55.25
G1 Y53.25
G1 F300.0 X54.25
G1 F800.0 Y82.75
G1 X61.75
G1 Y50.25
G1 X54.25
G1 Y53.25
G1 F300.0 X53.25
G1 F800.0 Y83.75
G1 X62.75
G1 Y49.25
G1 X53.25
G1 Y53.25
G1 F300.0 X52.25
G1 F800.0 Y84.75
G1 X63.75
G1 Y48.25
G1 X52.25
G1 Y53.25
G0 Z3.0
G0 X57.25
G1 F300.0 Z-4.0
G1 F800.0 Y79.75
G1 X58.75
G1 Y53.25
G1 X57.25
G1 F300.0 X56.25
G1 F800.0 Y80.75
G1 X59.75
G1 Y52.25
G1 X56.25
G1 Y53.25
G1 F300.0 X55.25
G1 F800.0 Y81.75
G1 X60.75
G1 Y51.25
G1 X55.25
G1 Y53.25
G1 F300.0 X54.25
G1 F800.0 Y82.75
G1 X61.75
G1 Y50.25
G1 X54.25
G1 Y53.25
G1 F300.0 X53.25
G1 F800.0 Y83.75
G1 X62.75
G1 Y49.25
G1 X53.25
G1 Y53.25
G1 F300.0 X52.25
G1 F800.0 Y84.75
G1 X63.75
G1 Y48.25
G1 X52.25
G1 Y53.25
G0 Z3.0
G0 X57.25
G1 F300.0 Z-5.0
G1 F800.0 Y79.75
G1 X58.75
G1 Y53.25
G1 X57.25
G1 F300.0 X56.25
G1 F800.0 Y80.75
G1 X59.75
G1 Y52.25
G1 X56.25
G1 Y53.25
G1 F300.0 X55.25
G1 F800.0 Y81.75
G1 X60.75
G1 Y51.25
G1 X55.25
G1 Y53.25
G1 F300.0 X54.25
G1 F800.0 Y82.75
G1 X61.75
G1 Y50.25
G1 X54.25
G1 Y53.25
G1 F300.0 X53.25
G1 F800.0 Y83.75
G1 X62.75
G1 Y49.25
G1 X53.25
G1 Y53.25
G1 F300.0 X52.25
G1 F800.0 Y84.75
G1 X63.75
G1 Y48.25
G1 X52.25
G1 Y53.25
G0 Z3.0
G0 X57.25
G1 F300.0 Z-6.0
G1 F800.0 Y79.75
G1 X58.75
G1 Y53.25
G1 X57.25
G1 F300.0 X56.25
G1 F800.0 Y80.75
G1 X59.75
G1 Y52.25
G1 X56.25
G1 Y53.25
G1 F300.0 X55.25
G1 F800.0 Y81.75
G1 X60.75
G1 Y51.25
G1 X55.25
G1 Y53.25
G1 F300.0 X54.25
G1 F800.0 Y82.75
G1 X61.75
G1 Y50.25
G1 X54.25
G1 Y53.25
G1 F300.0 X53.25
G1 F800.0 Y83.75
G1 X62.75
G1 Y49.25
G1 X53.25
G1 Y53.25
G1 F300.0 X52.25
G1 F800.0 Y84.75
G1 X63.75
G1 Y48.25
G1 X52.25
G1 Y53.25
G0 Z3.0
G0 X57.25
G1 F300.0 Z-7.0
G1 F800.0 Y79.75
G1 X58.75
G1 Y53.25
G1 X57.25
G1 F300.0 X56.25
G1 F800.0 Y80.75
G1 X59.75
G1 Y52.25
G1 X56.25
G1 Y53.25
G1 F300.0 X55.25
G1 F800.0 Y81.75
G1 X60.75
G1 Y51.25
G1 X55.25
G1 Y53.25
G1 F300.0 X54.25
G1 F800.0 Y82.75
G1 X61.75
G1 Y50.25
G1 X54.25
G1 Y53.25
G1 F300.0 X53.25
G1 F800.0 Y83.75
G1 X62.75
G1 Y49.25
G1 X53.25
G1 Y53.25
G1 F300.0 X52.25
G1 F800.0 Y84.75
G1 X63.75
G1 Y48.25
G1 X52.25
G1 Y53.25
G0 Z3.0
G0 X57.25
G1 F300.0 Z-8.0
G1 F800.0 Y79.75
G1 X58.75
G1 Y53.25
G1 X57.25
G1 F300.0 X56.25
G1 F800.0 Y80.75
G1 X59.75
G1 Y52.25
G1 X56.25
G1 Y53.25
G1 F300.0 X55.25
G1 F800.0 Y81.75
G1 X60.75
G1 Y51.25
G1 X55.25
G1 Y53.25
G1 F300.0 X54.25
G1 F800.0 Y82.75
G1 X61.75
G1 Y50.25
G1 X54.25
G1 Y53.25
G1 F300.0 X53.25
G1 F800.0 Y83.75
G1 X62.75
G1 Y49.25
G1 X53.25
G1 Y53.25
G1 F300.0 X52.25
G1 F800.0 Y84.75
G1 X63.75
G1 Y48.25
G1 X52.25
G1 Y53.25
( Sensor Arm - Magnet whole )
S1000
G0 Z3.0
G0 X59.5 Y78.0
G1 F300.0 Z-9.0
G2 F800.0 X57.25 Y76.701 I-1.5 J0.0
G2 Y79.299 I0.75 J1.299
G2 X59.5 Y78.0 I0.75 J-1.299
G1 F300.0 X60.0
G2 F800.0 X57.0 Y76.2679 I-2.0 J0.0
G2 Y79.7321 I1.0 J1.7321
G2 X60.0 Y78.0 I1.0 J-1.7321
G1 F300.0 X59.5
G1 Z-10.0
G2 F800.0 X57.25 Y76.701 I-1.5 J0.0
G2 Y79.299 I0.75 J1.299
G2 X59.5 Y78.0 I0.75 J-1.299
G1 F300.0 X60.0
G2 F800.0 X57.0 Y76.2679 I-2.0 J0.0
G2 Y79.7321 I1.0 J1.7321
G2 X60.0 Y78.0 I1.0 J-1.7321
( Sensor Arm - Outside Trigger )
S1000
G0 Z3.0
G0 X53.0 Y47.75
G1 F300.0 Z-9.0
G1 F800.0 X63.0
G3 X64.25 Y49.0 I0.0 J1.25
G1 Y84.0
G3 X63.0 Y85.25 I-1.25 J0.0
G1 X53.0
G3 X51.75 Y84.0 I0.0 J-1.25
G1 Y49.0
G3 X53.0 Y47.75 I1.25 J0.0
G1 F300.0 Y47.25
G1 F800.0 X63.0
G3 X64.75 Y49.0 I0.0 J1.75
G1 Y84.0
G3 X63.0 Y85.75 I-1.75 J0.0
G1 X53.0
G3 X51.25 Y84.0 I0.0 J-1.75
G1 Y49.0
G3 X53.0 Y47.25 I1.75 J0.0
G1 F300.0 Y47.75
G1 Z-10.0
G1 F800.0 X63.0
G3 X64.25 Y49.0 I0.0 J1.25
G1 Y84.0
G3 X63.0 Y85.25 I-1.25 J0.0
G1 X53.0
G3 X51.75 Y84.0 I0.0 J-1.25
G1 Y49.0
G3 X53.0 Y47.75 I1.25 J0.0
G1 F300.0 Y47.25
G1 F800.0 X63.0
G3 X64.75 Y49.0 I0.0 J1.75
G1 Y84.0
G3 X63.0 Y85.75 I-1.75 J0.0
G1 X53.0
G3 X51.25 Y84.0 I0.0 J-1.75
G1 Y49.0
G3 X53.0 Y47.25 I1.75 J0.0
G0 Z3.0
M5
M30
