( Made using CamBam - http://www.cambam.co.uk )
(STOCK/BLOCK,65.5,90.45,11.5,-7.75,-9.75,11.5)
( HomeSensor_Positive_Mold v3 5/11/2015 8:45:34 PM )
( T0 : 2.5 )
G21 G90 G61 G40
(TOOL/MILL,2.5,0,15,0)
(COLOR,255,128,0)
G0 Z3.0
( T0 : 2.5 )
T0 M6
( Case - level all  -3 )
G17
M3 S1000
G0 X30.25 Y32.25
G1 F300.0 Z-1.0
G1 F800.0 Y38.75
G1 X30.75
G1 Y32.25
G1 X30.25
G1 F300.0 X29.25
G1 F800.0 Y39.75
G1 X31.75
G1 Y31.25
G1 X29.25
G1 Y32.25
G1 F300.0 X28.25
G1 F800.0 Y40.75
G1 X32.75
G1 Y30.25
G1 X28.25
G1 Y32.25
G1 F300.0 X27.25
G1 F800.0 Y41.75
G1 X33.75
G1 Y29.25
G1 X27.25
G1 Y32.25
G1 F300.0 X26.25
G1 F800.0 Y42.75
G1 X34.75
G1 Y28.25
G1 X26.25
G1 Y32.25
G1 F300.0 X25.25
G1 F800.0 Y43.75
G1 X35.75
G1 Y27.25
G1 X25.25
G1 Y32.25
G1 F300.0 X24.25
G1 F800.0 Y44.75
G1 X36.75
G1 Y26.25
G1 X24.25
G1 Y32.25
G1 F300.0 X23.25
G1 F800.0 Y45.75
G1 X37.75
G1 Y25.25
G1 X23.25
G1 Y32.25
G1 F300.0 X22.25
G1 F800.0 Y46.75
G1 X38.75
G1 Y24.25
G1 X22.25
G1 Y32.25
G1 F300.0 X21.25
G1 F800.0 Y47.75
G1 X39.75
G1 Y23.25
G1 X21.25
G1 Y32.25
G1 F300.0 X20.25
G1 F800.0 Y48.75
G1 X40.75
G1 Y22.25
G1 X20.25
G1 Y32.25
G1 F300.0 X19.25
G1 F800.0 Y49.75
G1 X41.75
G1 Y21.25
G1 X19.25
G1 Y32.25
G1 F300.0 X18.25
G1 F800.0 Y50.75
G1 X42.75
G1 Y20.25
G1 X18.25
G1 Y32.25
G1 F300.0 X17.25
G1 F800.0 Y51.75
G1 X43.75
G1 Y19.25
G1 X17.25
G1 Y32.25
G1 F300.0 X16.25
G1 F800.0 Y52.75
G1 X44.75
G1 Y18.25
G1 X16.25
G1 Y32.25
G1 F300.0 X15.25
G1 F800.0 Y53.75
G1 X45.75
G1 Y17.25
G1 X15.25
G1 Y32.25
G0 Z3.0
G0 X30.25
G1 F300.0 Z-2.0
G1 F800.0 Y38.75
G1 X30.75
G1 Y32.25
G1 X30.25
G1 F300.0 X29.25
G1 F800.0 Y39.75
G1 X31.75
G1 Y31.25
G1 X29.25
G1 Y32.25
G1 F300.0 X28.25
G1 F800.0 Y40.75
G1 X32.75
G1 Y30.25
G1 X28.25
G1 Y32.25
G1 F300.0 X27.25
G1 F800.0 Y41.75
G1 X33.75
G1 Y29.25
G1 X27.25
G1 Y32.25
G1 F300.0 X26.25
G1 F800.0 Y42.75
G1 X34.75
G1 Y28.25
G1 X26.25
G1 Y32.25
G1 F300.0 X25.25
G1 F800.0 Y43.75
G1 X35.75
G1 Y27.25
G1 X25.25
G1 Y32.25
G1 F300.0 X24.25
G1 F800.0 Y44.75
G1 X36.75
G1 Y26.25
G1 X24.25
G1 Y32.25
G1 F300.0 X23.25
G1 F800.0 Y45.75
G1 X37.75
G1 Y25.25
G1 X23.25
G1 Y32.25
G1 F300.0 X22.25
G1 F800.0 Y46.75
G1 X38.75
G1 Y24.25
G1 X22.25
G1 Y32.25
G1 F300.0 X21.25
G1 F800.0 Y47.75
G1 X39.75
G1 Y23.25
G1 X21.25
G1 Y32.25
G1 F300.0 X20.25
G1 F800.0 Y48.75
G1 X40.75
G1 Y22.25
G1 X20.25
G1 Y32.25
G1 F300.0 X19.25
G1 F800.0 Y49.75
G1 X41.75
G1 Y21.25
G1 X19.25
G1 Y32.25
G1 F300.0 X18.25
G1 F800.0 Y50.75
G1 X42.75
G1 Y20.25
G1 X18.25
G1 Y32.25
G1 F300.0 X17.25
G1 F800.0 Y51.75
G1 X43.75
G1 Y19.25
G1 X17.25
G1 Y32.25
G1 F300.0 X16.25
G1 F800.0 Y52.75
G1 X44.75
G1 Y18.25
G1 X16.25
G1 Y32.25
G1 F300.0 X15.25
G1 F800.0 Y53.75
G1 X45.75
G1 Y17.25
G1 X15.25
G1 Y32.25
G0 Z3.0
G0 X30.25
G1 F300.0 Z-3.0
G1 F800.0 Y38.75
G1 X30.75
G1 Y32.25
G1 X30.25
G1 F300.0 X29.25
G1 F800.0 Y39.75
G1 X31.75
G1 Y31.25
G1 X29.25
G1 Y32.25
G1 F300.0 X28.25
G1 F800.0 Y40.75
G1 X32.75
G1 Y30.25
G1 X28.25
G1 Y32.25
G1 F300.0 X27.25
G1 F800.0 Y41.75
G1 X33.75
G1 Y29.25
G1 X27.25
G1 Y32.25
G1 F300.0 X26.25
G1 F800.0 Y42.75
G1 X34.75
G1 Y28.25
G1 X26.25
G1 Y32.25
G1 F300.0 X25.25
G1 F800.0 Y43.75
G1 X35.75
G1 Y27.25
G1 X25.25
G1 Y32.25
G1 F300.0 X24.25
G1 F800.0 Y44.75
G1 X36.75
G1 Y26.25
G1 X24.25
G1 Y32.25
G1 F300.0 X23.25
G1 F800.0 Y45.75
G1 X37.75
G1 Y25.25
G1 X23.25
G1 Y32.25
G1 F300.0 X22.25
G1 F800.0 Y46.75
G1 X38.75
G1 Y24.25
G1 X22.25
G1 Y32.25
G1 F300.0 X21.25
G1 F800.0 Y47.75
G1 X39.75
G1 Y23.25
G1 X21.25
G1 Y32.25
G1 F300.0 X20.25
G1 F800.0 Y48.75
G1 X40.75
G1 Y22.25
G1 X20.25
G1 Y32.25
G1 F300.0 X19.25
G1 F800.0 Y49.75
G1 X41.75
G1 Y21.25
G1 X19.25
G1 Y32.25
G1 F300.0 X18.25
G1 F800.0 Y50.75
G1 X42.75
G1 Y20.25
G1 X18.25
G1 Y32.25
G1 F300.0 X17.25
G1 F800.0 Y51.75
G1 X43.75
G1 Y19.25
G1 X17.25
G1 Y32.25
G1 F300.0 X16.25
G1 F800.0 Y52.75
G1 X44.75
G1 Y18.25
G1 X16.25
G1 Y32.25
G1 F300.0 X15.25
G1 F800.0 Y53.75
G1 X45.75
G1 Y17.25
G1 X15.25
G1 Y32.25
( Case - inside level all  -4.5 )
S1000
G0 Z3.0
G0 X30.25
G1 F300.0 Z-4.0
G1 F800.0 Y38.75
G1 X30.75
G1 Y32.25
G1 X30.25
G1 F300.0 X29.25
G1 F800.0 Y39.75
G1 X31.75
G1 Y31.25
G1 X29.25
G1 Y32.25
G1 F300.0 X28.25
G1 F800.0 Y40.75
G1 X32.75
G1 Y30.25
G1 X28.25
G1 Y32.25
G1 F300.0 X27.25
G1 F800.0 Y41.75
G1 X33.75
G1 Y29.25
G1 X27.25
G1 Y32.25
G1 F300.0 X26.25
G1 F800.0 Y42.75
G1 X34.75
G1 Y28.25
G1 X26.25
G1 Y32.25
G1 F300.0 X25.25
G1 F800.0 Y43.75
G1 X35.75
G1 Y27.25
G1 X25.25
G1 Y32.25
G1 F300.0 X24.25
G1 F800.0 Y44.75
G1 X36.75
G1 Y26.25
G1 X24.25
G1 Y32.25
G1 F300.0 X23.25
G1 F800.0 Y45.75
G1 X37.75
G1 Y25.25
G1 X23.25
G1 Y32.25
G1 F300.0 X22.25
G1 F800.0 Y46.75
G1 X38.75
G1 Y24.25
G1 X22.25
G1 Y32.25
G1 F300.0 X21.25
G1 F800.0 Y47.75
G1 X39.75
G1 Y23.25
G1 X21.25
G1 Y32.25
G1 F300.0 X20.25
G1 F800.0 Y48.75
G1 X40.75
G1 Y22.25
G1 X20.25
G1 Y32.25
G1 F300.0 X19.25
G1 F800.0 Y49.75
G1 X41.75
G1 Y21.25
G1 X19.25
G1 Y32.25
G0 Z3.0
G0 X30.25
G1 F300.0 Z-4.5
G1 F800.0 Y38.75
G1 X30.75
G1 Y32.25
G1 X30.25
G1 F300.0 X29.25
G1 F800.0 Y39.75
G1 X31.75
G1 Y31.25
G1 X29.25
G1 Y32.25
G1 F300.0 X28.25
G1 F800.0 Y40.75
G1 X32.75
G1 Y30.25
G1 X28.25
G1 Y32.25
G1 F300.0 X27.25
G1 F800.0 Y41.75
G1 X33.75
G1 Y29.25
G1 X27.25
G1 Y32.25
G1 F300.0 X26.25
G1 F800.0 Y42.75
G1 X34.75
G1 Y28.25
G1 X26.25
G1 Y32.25
G1 F300.0 X25.25
G1 F800.0 Y43.75
G1 X35.75
G1 Y27.25
G1 X25.25
G1 Y32.25
G1 F300.0 X24.25
G1 F800.0 Y44.75
G1 X36.75
G1 Y26.25
G1 X24.25
G1 Y32.25
G1 F300.0 X23.25
G1 F800.0 Y45.75
G1 X37.75
G1 Y25.25
G1 X23.25
G1 Y32.25
G1 F300.0 X22.25
G1 F800.0 Y46.75
G1 X38.75
G1 Y24.25
G1 X22.25
G1 Y32.25
G1 F300.0 X21.25
G1 F800.0 Y47.75
G1 X39.75
G1 Y23.25
G1 X21.25
G1 Y32.25
G1 F300.0 X20.25
G1 F800.0 Y48.75
G1 X40.75
G1 Y22.25
G1 X20.25
G1 Y32.25
G1 F300.0 X19.25
G1 F800.0 Y49.75
G1 X41.75
G1 Y21.25
G1 X19.25
G1 Y32.25
( Case - Inside Pocket )
S1000
G0 Z3.0
G0 X29.25 Y34.03342
G1 F300.0 Z-5.5
G1 F800.0 Y35.39828
G3 X31.75 Y37.31221 I-6.44 J11.00172
G1 Y35.89249
G3 X31.676 Y35.85009 I6.3 J-11.08249
G3 X29.25 Y34.03342 I6.374 J-11.04009
G1 F300.0 X28.25
G1 F800.0 Y35.98742
G3 X32.75 Y40.13806 I-5.44 J10.41258
G1 Y35.29454
G3 X32.176 Y34.98407 I5.3 J-10.48454
G3 X28.25 Y31.28885 I5.874 J-10.17407
G1 Y34.03342
G1 F300.0 X27.25
G1 F800.0 Y36.61195
G3 X32.50005 Y41.75 I-4.44 J9.78805
G1 X33.75
G1 Y34.66036
G3 X32.676 Y34.11804 I4.3 J-9.85036
G3 X28.26195 Y29.25 I5.374 J-9.30804
G1 X27.25
G1 Y34.03342
G1 F300.0 X26.25
G1 F800.0 Y37.27915
G3 X31.84886 Y42.75 I-3.44 J9.12085
G1 X34.75
G1 Y33.98243
G3 X33.176 Y33.25202 I3.3 J-9.17243
G3 X28.92915 Y28.25 I4.874 J-8.44202
G1 X26.25
G1 Y34.03342
G1 F300.0 X25.25
G1 F800.0 Y37.99917
G3 X31.14697 Y43.75 I-2.44 J8.40083
G1 X35.75
G1 Y33.25023
G3 X33.676 Y32.38599 I2.3 J-8.44023
G3 X29.64917 Y27.25 I4.374 J-7.57599
G1 X25.25
G1 Y34.03342
G1 F300.0 X24.25
G1 F800.0 Y38.78699
G3 X30.38027 Y44.75 I-1.44 J7.61301
G1 X36.75
G1 Y32.44816
G3 X34.176 Y31.51996 I1.3 J-7.63816
G3 X30.43699 Y26.25 I3.874 J-6.70996
G1 X24.25
G1 Y34.03342
G1 F300.0 X23.25
G1 F800.0 Y39.66636
G3 X29.52662 Y45.75 I-0.44 J6.73364
G1 X37.75
G1 Y31.55133
G3 X34.676 Y30.65394 I0.3 J-6.74133
G3 X31.31636 Y25.25 I3.374 J-5.84394
G1 X23.25
G1 Y34.03342
G1 F300.0 X22.25
G1 F800.0 Y40.67934
G3 X28.558 Y46.4 I0.56 J5.72066
G3 X28.54733 Y46.75 I-5.748 J0.0
G1 X38.75
G1 Y30.51522
G3 X35.176 Y29.78791 I-0.7 J-5.70522
G3 X32.32934 Y24.25 I2.874 J-4.97791
G1 X22.25
G1 Y34.03342
G1 F300.0 X21.25
G1 F800.0 Y41.91559
G3 X27.558 Y46.4 I1.56 J4.48441
G3 X27.36203 Y47.75 I-4.748 J0.0
G1 X39.75
G1 Y29.24323
G3 X35.676 Y28.92189 I-1.7 J-4.43323
G3 X33.56559 Y23.25 I2.374 J-4.11189
G1 X21.25
G1 Y34.03342
G1 F300.0 X20.25
G1 F800.0 Y43.6625
G3 X20.936 Y43.15414 I2.56 J2.7375
G3 X26.558 Y46.4 I1.874 J3.24586
G3 X25.72976 Y48.75 I-3.748 J0.0
G1 X40.75
G1 Y27.40952
G3 X36.176 Y28.05586 I-2.7 J-2.59952
G3 X35.3125 Y22.25 I1.874 J-3.24586
G1 X20.25
G1 Y34.03342
G1 F300.0 X19.25
G1 F800.0 Y49.75
G1 X41.75
G1 Y21.25
G1 X19.25
G1 Y34.03342
G0 Z3.0
G0 X22.04924 Y43.75732
G1 F300.0 Z-5.5
G3 F800.0 X25.56 Y46.4 I0.76076 J2.64268
G3 X21.435 Y48.78157 I-2.75 J0.0
G3 Y44.01843 I1.375 J-2.38157
G3 X22.04924 Y43.75732 I1.375 J2.38157
G1 F300.0 Z-6.5
G3 F800.0 X25.56 Y46.4 I0.76076 J2.64268
G3 X21.435 Y48.78157 I-2.75 J0.0
G3 Y44.01843 I1.375 J-2.38157
G3 X22.04924 Y43.75732 I1.375 J2.38157
G0 Z3.0
G0 X36.2757 Y26.91104
G1 F300.0 Z-5.5
G3 F800.0 X36.675 Y22.42843 I1.7743 J-2.10104
G3 X40.8 Y24.81 I1.375 J2.38157
G3 X36.675 Y27.19157 I-2.75 J0.0
G3 X36.2757 Y26.91104 I1.375 J-2.38157
G1 F300.0 Z-6.5
G3 F800.0 X36.675 Y22.42843 I1.7743 J-2.10104
G3 X40.8 Y24.81 I1.375 J2.38157
G3 X36.675 Y27.19157 I-2.75 J0.0
G3 X36.2757 Y26.91104 I1.375 J-2.38157
G0 Z3.0
G0 X29.825 Y34.54965
G1 F300.0 Z-6.5
G3 F800.0 X29.25 Y34.03342 I8.225 J-9.73965
G1 Y35.39828
G3 X31.75 Y37.31221 I-6.44 J11.00172
G1 Y35.89249
G3 X31.676 Y35.85009 I6.3 J-11.08249
G3 X29.825 Y34.54965 I6.374 J-11.04009
G1 F300.0 X30.4702 Y33.78564
G3 F800.0 X28.25 Y31.28885 I7.5798 J-8.97564
G1 Y35.98742
G3 X32.75 Y40.13806 I-5.44 J10.41258
G1 Y35.29454
G3 X32.176 Y34.98407 I5.3 J-10.48454
G3 X30.4702 Y33.78564 I5.874 J-10.17407
G1 F300.0 X31.1154 Y33.02162
G3 F800.0 X28.26195 Y29.25 I6.9346 J-8.21162
G1 X27.25
G1 Y36.61195
G3 X32.50005 Y41.75 I-4.44 J9.78805
G1 X33.75
G1 Y34.66036
G3 X32.676 Y34.11804 I4.3 J-9.85036
G3 X31.1154 Y33.02162 I5.374 J-9.30804
G1 F300.0 X31.76059 Y32.25761
G3 F800.0 X28.92915 Y28.25 I6.28941 J-7.44761
G1 X26.25
G1 Y37.27915
G3 X31.84886 Y42.75 I-3.44 J9.12085
G1 X34.75
G1 Y33.98243
G3 X33.176 Y33.25202 I3.3 J-9.17243
G3 X31.76059 Y32.25761 I4.874 J-8.44202
G1 F300.0 X32.40579 Y31.4936
G3 F800.0 X29.64917 Y27.25 I5.64421 J-6.6836
G1 X25.25
G1 Y37.99917
G3 X31.14697 Y43.75 I-2.44 J8.40083
G1 X35.75
G1 Y33.25023
G3 X33.676 Y32.38599 I2.3 J-8.44023
G3 X32.40579 Y31.4936 I4.374 J-7.57599
G1 F300.0 X33.05099 Y30.72958
G3 F800.0 X30.43699 Y26.25 I4.99901 J-5.91958
G1 X24.25
G1 Y38.78699
G3 X30.38027 Y44.75 I-1.44 J7.61301
G1 X36.75
G1 Y32.44816
G3 X34.176 Y31.51996 I1.3 J-7.63816
G3 X33.05099 Y30.72958 I3.874 J-6.70996
G1 F300.0 X33.69619 Y29.96557
G3 F800.0 X31.31636 Y25.25 I4.35381 J-5.15557
G1 X23.25
G1 Y39.66636
G3 X29.52662 Y45.75 I-0.44 J6.73364
G1 X37.75
G1 Y31.55133
G3 X34.676 Y30.65394 I0.3 J-6.74133
G3 X33.69619 Y29.96557 I3.374 J-5.84394
G1 F300.0 X34.34139 Y29.20155
G3 F800.0 X32.32934 Y24.25 I3.70861 J-4.39155
G1 X22.25
G1 Y40.67934
G3 X28.558 Y46.4 I0.56 J5.72066
G3 X28.54733 Y46.75 I-5.748 J0.0
G1 X38.75
G1 Y30.51522
G3 X35.176 Y29.78791 I-0.7 J-5.70522
G3 X34.34139 Y29.20155 I2.874 J-4.97791
G1 F300.0 X34.98659 Y28.43754
G3 F800.0 X33.56559 Y23.25 I3.06341 J-3.62754
G1 X21.25
G1 Y41.91559
G3 X27.558 Y46.4 I1.56 J4.48441
G3 X27.36203 Y47.75 I-4.748 J0.0
G1 X39.75
G1 Y29.24323
G3 X35.676 Y28.92189 I-1.7 J-4.43323
G3 X34.98659 Y28.43754 I2.374 J-4.11189
G1 F300.0 X35.63179 Y27.67352
G3 F800.0 X35.3125 Y22.25 I2.41821 J-2.86352
G1 X20.25
G1 Y43.6625
G3 X20.936 Y43.15414 I2.56 J2.7375
G3 X26.558 Y46.4 I1.874 J3.24586
G3 X25.72976 Y48.75 I-3.748 J0.0
G1 X40.75
G1 Y27.40952
G3 X36.176 Y28.05586 I-2.7 J-2.59952
G3 X35.63179 Y27.67352 I1.874 J-3.24586
G0 Z3.0
G0 X41.75
G1 F300.0 Z-6.5
G1 F800.0 Y21.25
G1 X19.25
G1 Y49.75
G1 X41.75
G1 Y27.67352
G0 Z3.0
G0 X40.22477 Y26.49311
G1 F300.0 Z-7.5
G3 F800.0 X36.675 Y27.19157 I-2.17477 J-1.68311
G3 Y22.42843 I1.375 J-2.38157
G3 X40.8 Y24.81 I1.375 J2.38157
G3 X40.22477 Y26.49311 I-2.75 J0.0
G0 Z3.0
G0 X31.75 Y35.89249
G1 F300.0 Z-7.5
G3 F800.0 X31.676 Y35.85009 I6.3 J-11.08249
G3 X29.25 Y34.03342 I6.374 J-11.04009
G1 Y35.39828
G3 X31.75 Y37.31221 I-6.44 J11.00172
G1 Y35.89249
G1 F300.0 X32.2442 Y35.02314
G3 F800.0 X32.176 Y34.98407 I5.8058 J-10.21314
G3 X28.25 Y31.28885 I5.874 J-10.17407
G1 Y35.98742
G3 X32.75 Y40.13806 I-5.44 J10.41258
G1 Y35.29454
G3 X32.2442 Y35.02314 I5.3 J-10.48454
G1 F300.0 X32.73839 Y34.15378
G3 F800.0 X32.676 Y34.11804 I5.31161 J-9.34378
G3 X28.26195 Y29.25 I5.374 J-9.30804
G1 X27.25
G1 Y36.61195
G3 X32.50005 Y41.75 I-4.44 J9.78805
G1 X33.75
G1 Y34.66036
G3 X32.73839 Y34.15378 I4.3 J-9.85036
G1 F300.0 X33.23259 Y33.28443
G3 F800.0 X33.176 Y33.25202 I4.81741 J-8.47443
G3 X28.92915 Y28.25 I4.874 J-8.44202
G1 X26.25
G1 Y37.27915
G3 X31.84886 Y42.75 I-3.44 J9.12085
G1 X34.75
G1 Y33.98243
G3 X33.23259 Y33.28443 I3.3 J-9.17243
G1 F300.0 X33.72678 Y32.41508
G3 F800.0 X33.676 Y32.38599 I4.32322 J-7.60508
G3 X29.64917 Y27.25 I4.374 J-7.57599
G1 X25.25
G1 Y37.99917
G3 X31.14697 Y43.75 I-2.44 J8.40083
G1 X35.75
G1 Y33.25023
G3 X33.72678 Y32.41508 I2.3 J-8.44023
G1 F300.0 X34.22098 Y31.54573
G3 F800.0 X34.176 Y31.51996 I3.82902 J-6.73573
G3 X30.43699 Y26.25 I3.874 J-6.70996
G1 X24.25
G1 Y38.78699
G3 X30.38027 Y44.75 I-1.44 J7.61301
G1 X36.75
G1 Y32.44816
G3 X34.22098 Y31.54573 I1.3 J-7.63816
G1 F300.0 X34.71517 Y30.67638
G3 F800.0 X34.676 Y30.65394 I3.33483 J-5.86638
G3 X31.31636 Y25.25 I3.374 J-5.84394
G1 X23.25
G1 Y39.66636
G3 X29.52662 Y45.75 I-0.44 J6.73364
G1 X37.75
G1 Y31.55133
G3 X34.71517 Y30.67638 I0.3 J-6.74133
G1 F300.0 X35.20937 Y29.80703
G3 F800.0 X35.176 Y29.78791 I2.84063 J-4.99703
G3 X32.32934 Y24.25 I2.874 J-4.97791
G1 X22.25
G1 Y40.67934
G3 X28.558 Y46.4 I0.56 J5.72066
G3 X28.54733 Y46.75 I-5.748 J0.0
G1 X38.75
G1 Y30.51522
G3 X35.20937 Y29.80703 I-0.7 J-5.70522
G1 F300.0 X35.70356 Y28.93768
G3 F800.0 X35.676 Y28.92189 I2.34644 J-4.12768
G3 X33.56559 Y23.25 I2.374 J-4.11189
G1 X21.25
G1 Y41.91559
G3 X27.558 Y46.4 I1.56 J4.48441
G3 X27.36203 Y47.75 I-4.748 J0.0
G1 X39.75
G1 Y29.24323
G3 X35.70356 Y28.93768 I-1.7 J-4.43323
G1 F300.0 X36.19776 Y28.06833
G3 F800.0 X36.176 Y28.05586 I1.85224 J-3.25833
G3 X35.3125 Y22.25 I1.874 J-3.24586
G1 X20.25
G1 Y43.6625
G3 X20.936 Y43.15414 I2.56 J2.7375
G3 X26.558 Y46.4 I1.874 J3.24586
G3 X25.72976 Y48.75 I-3.748 J0.0
G1 X40.75
G1 Y27.40952
G3 X36.19776 Y28.06833 I-2.7 J-2.59952
G0 Z3.0
G0 X41.75
G1 F300.0 Z-7.5
G1 F800.0 Y21.25
G1 X19.25
G1 Y49.75
G1 X41.75
G1 Y28.06833
G0 Z3.0
G0 X40.11382 Y26.62746
G1 F300.0 Z-8.0
G3 F800.0 X36.675 Y27.19157 I-2.06382 J-1.81746
G3 Y22.42843 I1.375 J-2.38157
G3 X40.8 Y24.81 I1.375 J2.38157
G3 X40.11382 Y26.62746 I-2.75 J0.0
G0 Z3.0
G0 X24.62106 Y44.33056
G1 F300.0 Z-7.5
G3 F800.0 X25.56 Y46.4 I-1.81106 J2.06944
G3 X21.435 Y48.78157 I-2.75 J0.0
G3 Y44.01843 I1.375 J-2.38157
G3 X24.62106 Y44.33056 I1.375 J2.38157
G1 F300.0 Z-8.0
G3 F800.0 X25.56 Y46.4 I-1.81106 J2.06944
G3 X21.435 Y48.78157 I-2.75 J0.0
G3 Y44.01843 I1.375 J-2.38157
G3 X24.62106 Y44.33056 I1.375 J2.38157
G0 Z3.0
G0 X31.2054 Y36.80684
G1 F300.0 Z-8.0
G3 F800.0 X31.75 Y37.31221 I-8.3954 J9.59316
G1 Y35.89249
G3 X31.676 Y35.85009 I6.3 J-11.08249
G3 X29.25 Y34.03342 I6.374 J-11.04009
G1 Y35.39828
G3 X31.2054 Y36.80684 I-6.44 J11.00172
G1 F300.0 X30.54683 Y37.55936
G3 F800.0 X32.75 Y40.13806 I-7.73683 J8.84064
G1 Y35.29454
G3 X32.176 Y34.98407 I5.3 J-10.48454
G3 X28.25 Y31.28885 I5.874 J-10.17407
G1 Y35.98742
G3 X30.54683 Y37.55936 I-5.44 J10.41258
G1 F300.0 X29.88827 Y38.31188
G3 F800.0 X32.50005 Y41.75 I-7.07827 J8.08812
G1 X33.75
G1 Y34.66036
G3 X32.676 Y34.11804 I4.3 J-9.85036
G3 X28.26195 Y29.25 I5.374 J-9.30804
G1 X27.25
G1 Y36.61195
G3 X29.88827 Y38.31188 I-4.44 J9.78805
G1 F300.0 X29.2297 Y39.06441
G3 F800.0 X31.84886 Y42.75 I-6.4197 J7.33559
G1 X34.75
G1 Y33.98243
G3 X33.176 Y33.25202 I3.3 J-9.17243
G3 X28.92915 Y28.25 I4.874 J-8.44202
G1 X26.25
G1 Y37.27915
G3 X29.2297 Y39.06441 I-3.44 J9.12085
G1 F300.0 X28.57113 Y39.81693
G3 F800.0 X31.14697 Y43.75 I-5.76113 J6.58307
G1 X35.75
G1 Y33.25023
G3 X33.676 Y32.38599 I2.3 J-8.44023
G3 X29.64917 Y27.25 I4.374 J-7.57599
G1 X25.25
G1 Y37.99917
G3 X28.57113 Y39.81693 I-2.44 J8.40083
G1 F300.0 X27.91257 Y40.56945
G3 F800.0 X30.38027 Y44.75 I-5.10257 J5.83055
G1 X36.75
G1 Y32.44816
G3 X34.176 Y31.51996 I1.3 J-7.63816
G3 X30.43699 Y26.25 I3.874 J-6.70996
G1 X24.25
G1 Y38.78699
G3 X27.91257 Y40.56945 I-1.44 J7.61301
G1 F300.0 X27.254 Y41.32197
G3 F800.0 X29.52662 Y45.75 I-4.444 J5.07803
G1 X37.75
G1 Y31.55133
G3 X34.676 Y30.65394 I0.3 J-6.74133
G3 X31.31636 Y25.25 I3.374 J-5.84394
G1 X23.25
G1 Y39.66636
G3 X27.254 Y41.32197 I-0.44 J6.73364
G1 F300.0 X26.59544 Y42.0745
G3 F800.0 X28.558 Y46.4 I-3.78544 J4.3255
G3 X28.54733 Y46.75 I-5.748 J0.0
G1 X38.75
G1 Y30.51522
G3 X35.176 Y29.78791 I-0.7 J-5.70522
G3 X32.32934 Y24.25 I2.874 J-4.97791
G1 X22.25
G1 Y40.67934
G3 X26.59544 Y42.0745 I0.56 J5.72066
G1 F300.0 X25.93687 Y42.82702
G3 F800.0 X27.558 Y46.4 I-3.12687 J3.57298
G3 X27.36203 Y47.75 I-4.748 J0.0
G1 X39.75
G1 Y29.24323
G3 X35.676 Y28.92189 I-1.7 J-4.43323
G3 X33.56559 Y23.25 I2.374 J-4.11189
G1 X21.25
G1 Y41.91559
G3 X25.93687 Y42.82702 I1.56 J4.48441
G1 F300.0 X25.27831 Y43.57954
G3 F800.0 X26.558 Y46.4 I-2.46831 J2.82046
G3 X25.72976 Y48.75 I-3.748 J0.0
G1 X40.75
G1 Y27.40952
G3 X36.176 Y28.05586 I-2.7 J-2.59952
G3 X35.3125 Y22.25 I1.874 J-3.24586
G1 X20.25
G1 Y43.6625
G3 X20.936 Y43.15414 I2.56 J2.7375
G3 X25.27831 Y43.57954 I1.874 J3.24586
G0 Z3.0
G0 X19.25
G1 F300.0 Z-8.0
G1 F800.0 Y49.75
G1 X41.75
G1 Y21.25
G1 X19.25
G1 Y43.57954
( Case - Sensor Pocket )
S1000
G0 Z3.0
G0 X31.5 Y25.25
G1 F300.0 Z-9.0
G1 F800.0 Y28.25
G1 Y25.25
G1 F300.0 X30.5
G1 F800.0 Y29.25
G1 X32.5
G1 Y24.25
G1 X30.5
G1 Y25.25
G1 F300.0 X29.5
G1 F800.0 Y30.25
G1 X33.5
G1 Y23.25
G1 X29.5
G1 Y25.25
( Case - LED top )
S1000
G0 Z3.0
G0 X30.73 Y43.86
G1 F300.0 Z-9.0
G2 F800.0 X30.28 Y43.60019 I-0.3 J0.0
G2 Y44.11981 I0.15 J0.25981
G2 X30.73 Y43.86 I0.15 J-0.25981
G1 F300.0 X31.73
G2 F800.0 X29.78 Y42.73417 I-1.3 J0.0
G2 Y44.98583 I0.65 J1.12583
G2 X31.73 Y43.86 I0.65 J-1.12583
G1 F300.0 X30.73
G1 Z-10.0
G2 F800.0 X30.28 Y43.60019 I-0.3 J0.0
G2 Y44.11981 I0.15 J0.25981
G2 X30.73 Y43.86 I0.15 J-0.25981
G1 F300.0 X31.73
G2 F800.0 X29.78 Y42.73417 I-1.3 J0.0
G2 Y44.98583 I0.65 J1.12583
G2 X31.73 Y43.86 I0.65 J-1.12583
( Case - LED bottom )
S1000
G0 Z3.0
G0 X30.73 Y36.24
G1 F300.0 Z-9.0
G2 F800.0 X30.28 Y35.98019 I-0.3 J0.0
G2 Y36.49981 I0.15 J0.25981
G2 X30.73 Y36.24 I0.15 J-0.25981
G1 F300.0 X31.73
G2 F800.0 X29.78 Y35.11417 I-1.3 J0.0
G2 Y37.36583 I0.65 J1.12583
G2 X31.73 Y36.24 I0.65 J-1.12583
G1 F300.0 X30.73
G1 Z-10.0
G2 F800.0 X30.28 Y35.98019 I-0.3 J0.0
G2 Y36.49981 I0.15 J0.25981
G2 X30.73 Y36.24 I0.15 J-0.25981
G1 F300.0 X31.73
G2 F800.0 X29.78 Y35.11417 I-1.3 J0.0
G2 Y37.36583 I0.65 J1.12583
G2 X31.73 Y36.24 I0.65 J-1.12583
( Case - Wire Whole )
S1000
G0 Z3.0
G0 X15.25 Y26.75
G1 F300.0 Z-5.5
G1 F800.0 Y31.25
G1 X16.75
G1 Y26.75
G1 X15.25
G1 F300.0 X14.25
G1 F800.0 Y32.25
G1 X17.75
G1 Y25.75
G1 X14.25
G1 Y26.75
G1 F300.0 X15.25
G1 Z-6.0
G1 F800.0 Y31.25
G1 X16.75
G1 Y26.75
G1 X15.25
G1 F300.0 X14.25
G1 F800.0 Y32.25
G1 X17.75
G1 Y25.75
G1 X14.25
G1 Y26.75
( Case - Outside body )
S1000
G0 Z3.0
G0 X16.0 Y16.75
G1 F300.0 Z-4.0
G1 F800.0 X45.0
G3 X46.25 Y18.0 I0.0 J1.25
G1 Y53.0
G3 X45.0 Y54.25 I-1.25 J0.0
G1 X16.0
G3 X14.75 Y53.0 I0.0 J-1.25
G1 Y18.0
G3 X16.0 Y16.75 I1.25 J0.0
G1 F300.0 Y16.25
G1 F800.0 X45.0
G3 X46.75 Y18.0 I0.0 J1.75
G1 Y53.0
G3 X45.0 Y54.75 I-1.75 J0.0
G1 X16.0
G3 X14.25 Y53.0 I0.0 J-1.75
G1 Y18.0
G3 X16.0 Y16.25 I1.75 J0.0
G1 F300.0 Y16.75
G1 Z-5.0
G1 F800.0 X45.0
G3 X46.25 Y18.0 I0.0 J1.25
G1 Y53.0
G3 X45.0 Y54.25 I-1.25 J0.0
G1 X16.0
G3 X14.75 Y53.0 I0.0 J-1.25
G1 Y18.0
G3 X16.0 Y16.75 I1.25 J0.0
G1 F300.0 Y16.25
G1 F800.0 X45.0
G3 X46.75 Y18.0 I0.0 J1.75
G1 Y53.0
G3 X45.0 Y54.75 I-1.75 J0.0
G1 X16.0
G3 X14.25 Y53.0 I0.0 J-1.75
G1 Y18.0
G3 X16.0 Y16.25 I1.75 J0.0
G1 F300.0 Y16.75
G1 Z-6.0
G1 F800.0 X45.0
G3 X46.25 Y18.0 I0.0 J1.25
G1 Y53.0
G3 X45.0 Y54.25 I-1.25 J0.0
G1 X16.0
G3 X14.75 Y53.0 I0.0 J-1.25
G1 Y18.0
G3 X16.0 Y16.75 I1.25 J0.0
G1 F300.0 Y16.25
G1 F800.0 X45.0
G3 X46.75 Y18.0 I0.0 J1.75
G1 Y53.0
G3 X45.0 Y54.75 I-1.75 J0.0
G1 X16.0
G3 X14.25 Y53.0 I0.0 J-1.75
G1 Y18.0
G3 X16.0 Y16.25 I1.75 J0.0
G1 F300.0 Y16.75
G1 Z-7.0
G1 F800.0 X45.0
G3 X46.25 Y18.0 I0.0 J1.25
G1 Y53.0
G3 X45.0 Y54.25 I-1.25 J0.0
G1 X16.0
G3 X14.75 Y53.0 I0.0 J-1.25
G1 Y18.0
G3 X16.0 Y16.75 I1.25 J0.0
G1 F300.0 Y16.25
G1 F800.0 X45.0
G3 X46.75 Y18.0 I0.0 J1.75
G1 Y53.0
G3 X45.0 Y54.75 I-1.75 J0.0
G1 X16.0
G3 X14.25 Y53.0 I0.0 J-1.75
G1 Y18.0
G3 X16.0 Y16.25 I1.75 J0.0
G1 F300.0 Y16.75
G1 Z-8.0
G1 F800.0 X45.0
G3 X46.25 Y18.0 I0.0 J1.25
G1 Y53.0
G3 X45.0 Y54.25 I-1.25 J0.0
G1 X16.0
G3 X14.75 Y53.0 I0.0 J-1.25
G1 Y18.0
G3 X16.0 Y16.75 I1.25 J0.0
G1 F300.0 Y16.25
G1 F800.0 X45.0
G3 X46.75 Y18.0 I0.0 J1.75
G1 Y53.0
G3 X45.0 Y54.75 I-1.75 J0.0
G1 X16.0
G3 X14.25 Y53.0 I0.0 J-1.75
G1 Y18.0
G3 X16.0 Y16.25 I1.75 J0.0
G1 F300.0 Y16.75
G1 Z-9.0
G1 F800.0 X45.0
G3 X46.25 Y18.0 I0.0 J1.25
G1 Y53.0
G3 X45.0 Y54.25 I-1.25 J0.0
G1 X16.0
G3 X14.75 Y53.0 I0.0 J-1.25
G1 Y18.0
G3 X16.0 Y16.75 I1.25 J0.0
G1 F300.0 Y16.25
G1 F800.0 X45.0
G3 X46.75 Y18.0 I0.0 J1.75
G1 Y53.0
G3 X45.0 Y54.75 I-1.75 J0.0
G1 X16.0
G3 X14.25 Y53.0 I0.0 J-1.75
G1 Y18.0
G3 X16.0 Y16.25 I1.75 J0.0
G1 F300.0 Y16.75
G1 Z-10.0
G1 F800.0 X45.0
G3 X46.25 Y18.0 I0.0 J1.25
G1 Y53.0
G3 X45.0 Y54.25 I-1.25 J0.0
G1 X16.0
G3 X14.75 Y53.0 I0.0 J-1.25
G1 Y18.0
G3 X16.0 Y16.75 I1.25 J0.0
G1 F300.0 Y16.25
G1 F800.0 X45.0
G3 X46.75 Y18.0 I0.0 J1.75
G1 Y53.0
G3 X45.0 Y54.75 I-1.75 J0.0
G1 X16.0
G3 X14.25 Y53.0 I0.0 J-1.75
G1 Y18.0
G3 X16.0 Y16.25 I1.75 J0.0
( Cover - level all -8 )
S1000
G0 Z3.0
G0 X28.25 Y74.25
G1 F300.0 Z-1.0
G1 F800.0 Y80.75
G1 X28.75
G1 Y74.25
G1 X28.25
G1 F300.0 X27.25
G1 F800.0 Y81.75
G1 X29.75
G1 Y73.25
G1 X27.25
G1 Y74.25
G1 F300.0 X26.25
G1 F800.0 Y82.75
G1 X30.75
G1 Y72.25
G1 X26.25
G1 Y74.25
G1 F300.0 X25.25
G1 F800.0 Y83.75
G1 X31.75
G1 Y71.25
G1 X25.25
G1 Y74.25
G1 F300.0 X24.25
G1 F800.0 Y84.75
G1 X32.75
G1 Y70.25
G1 X24.25
G1 Y74.25
G1 F300.0 X23.25
G1 F800.0 Y85.75
G1 X33.75
G1 Y69.25
G1 X23.25
G1 Y74.25
G1 F300.0 X22.25
G1 F800.0 Y86.75
G1 X34.75
G1 Y68.25
G1 X22.25
G1 Y74.25
G1 F300.0 X21.25
G1 F800.0 Y87.75
G1 X35.75
G1 Y67.25
G1 X21.25
G1 Y74.25
G1 F300.0 X20.25
G1 F800.0 Y88.75
G1 X36.75
G1 Y66.25
G1 X20.25
G1 Y74.25
G1 F300.0 X19.25
G1 F800.0 Y89.75
G1 X37.75
G1 Y65.25
G1 X19.25
G1 Y74.25
G1 F300.0 X18.25
G1 F800.0 Y90.75
G1 X38.75
G1 Y64.25
G1 X18.25
G1 Y74.25
G1 F300.0 X17.25
G1 F800.0 Y91.75
G1 X39.75
G1 Y63.25
G1 X17.25
G1 Y74.25
G1 F300.0 X16.25
G1 F800.0 Y92.75
G1 X40.75
G1 Y62.25
G1 X16.25
G1 Y74.25
G1 F300.0 X15.25
G1 F800.0 Y93.75
G1 X41.75
G1 Y61.25
G1 X15.25
G1 Y74.25
G0 Z3.0
G0 X28.25
G1 F300.0 Z-2.0
G1 F800.0 Y80.75
G1 X28.75
G1 Y74.25
G1 X28.25
G1 F300.0 X27.25
G1 F800.0 Y81.75
G1 X29.75
G1 Y73.25
G1 X27.25
G1 Y74.25
G1 F300.0 X26.25
G1 F800.0 Y82.75
G1 X30.75
G1 Y72.25
G1 X26.25
G1 Y74.25
G1 F300.0 X25.25
G1 F800.0 Y83.75
G1 X31.75
G1 Y71.25
G1 X25.25
G1 Y74.25
G1 F300.0 X24.25
G1 F800.0 Y84.75
G1 X32.75
G1 Y70.25
G1 X24.25
G1 Y74.25
G1 F300.0 X23.25
G1 F800.0 Y85.75
G1 X33.75
G1 Y69.25
G1 X23.25
G1 Y74.25
G1 F300.0 X22.25
G1 F800.0 Y86.75
G1 X34.75
G1 Y68.25
G1 X22.25
G1 Y74.25
G1 F300.0 X21.25
G1 F800.0 Y87.75
G1 X35.75
G1 Y67.25
G1 X21.25
G1 Y74.25
G1 F300.0 X20.25
G1 F800.0 Y88.75
G1 X36.75
G1 Y66.25
G1 X20.25
G1 Y74.25
G1 F300.0 X19.25
G1 F800.0 Y89.75
G1 X37.75
G1 Y65.25
G1 X19.25
G1 Y74.25
G1 F300.0 X18.25
G1 F800.0 Y90.75
G1 X38.75
G1 Y64.25
G1 X18.25
G1 Y74.25
G1 F300.0 X17.25
G1 F800.0 Y91.75
G1 X39.75
G1 Y63.25
G1 X17.25
G1 Y74.25
G1 F300.0 X16.25
G1 F800.0 Y92.75
G1 X40.75
G1 Y62.25
G1 X16.25
G1 Y74.25
G1 F300.0 X15.25
G1 F800.0 Y93.75
G1 X41.75
G1 Y61.25
G1 X15.25
G1 Y74.25
G0 Z3.0
G0 X28.25
G1 F300.0 Z-3.0
G1 F800.0 Y80.75
G1 X28.75
G1 Y74.25
G1 X28.25
G1 F300.0 X27.25
G1 F800.0 Y81.75
G1 X29.75
G1 Y73.25
G1 X27.25
G1 Y74.25
G1 F300.0 X26.25
G1 F800.0 Y82.75
G1 X30.75
G1 Y72.25
G1 X26.25
G1 Y74.25
G1 F300.0 X25.25
G1 F800.0 Y83.75
G1 X31.75
G1 Y71.25
G1 X25.25
G1 Y74.25
G1 F300.0 X24.25
G1 F800.0 Y84.75
G1 X32.75
G1 Y70.25
G1 X24.25
G1 Y74.25
G1 F300.0 X23.25
G1 F800.0 Y85.75
G1 X33.75
G1 Y69.25
G1 X23.25
G1 Y74.25
G1 F300.0 X22.25
G1 F800.0 Y86.75
G1 X34.75
G1 Y68.25
G1 X22.25
G1 Y74.25
G1 F300.0 X21.25
G1 F800.0 Y87.75
G1 X35.75
G1 Y67.25
G1 X21.25
G1 Y74.25
G1 F300.0 X20.25
G1 F800.0 Y88.75
G1 X36.75
G1 Y66.25
G1 X20.25
G1 Y74.25
G1 F300.0 X19.25
G1 F800.0 Y89.75
G1 X37.75
G1 Y65.25
G1 X19.25
G1 Y74.25
G1 F300.0 X18.25
G1 F800.0 Y90.75
G1 X38.75
G1 Y64.25
G1 X18.25
G1 Y74.25
G1 F300.0 X17.25
G1 F800.0 Y91.75
G1 X39.75
G1 Y63.25
G1 X17.25
G1 Y74.25
G1 F300.0 X16.25
G1 F800.0 Y92.75
G1 X40.75
G1 Y62.25
G1 X16.25
G1 Y74.25
G1 F300.0 X15.25
G1 F800.0 Y93.75
G1 X41.75
G1 Y61.25
G1 X15.25
G1 Y74.25
G0 Z3.0
G0 X28.25
G1 F300.0 Z-4.0
G1 F800.0 Y80.75
G1 X28.75
G1 Y74.25
G1 X28.25
G1 F300.0 X27.25
G1 F800.0 Y81.75
G1 X29.75
G1 Y73.25
G1 X27.25
G1 Y74.25
G1 F300.0 X26.25
G1 F800.0 Y82.75
G1 X30.75
G1 Y72.25
G1 X26.25
G1 Y74.25
G1 F300.0 X25.25
G1 F800.0 Y83.75
G1 X31.75
G1 Y71.25
G1 X25.25
G1 Y74.25
G1 F300.0 X24.25
G1 F800.0 Y84.75
G1 X32.75
G1 Y70.25
G1 X24.25
G1 Y74.25
G1 F300.0 X23.25
G1 F800.0 Y85.75
G1 X33.75
G1 Y69.25
G1 X23.25
G1 Y74.25
G1 F300.0 X22.25
G1 F800.0 Y86.75
G1 X34.75
G1 Y68.25
G1 X22.25
G1 Y74.25
G1 F300.0 X21.25
G1 F800.0 Y87.75
G1 X35.75
G1 Y67.25
G1 X21.25
G1 Y74.25
G1 F300.0 X20.25
G1 F800.0 Y88.75
G1 X36.75
G1 Y66.25
G1 X20.25
G1 Y74.25
G1 F300.0 X19.25
G1 F800.0 Y89.75
G1 X37.75
G1 Y65.25
G1 X19.25
G1 Y74.25
G1 F300.0 X18.25
G1 F800.0 Y90.75
G1 X38.75
G1 Y64.25
G1 X18.25
G1 Y74.25
G1 F300.0 X17.25
G1 F800.0 Y91.75
G1 X39.75
G1 Y63.25
G1 X17.25
G1 Y74.25
G1 F300.0 X16.25
G1 F800.0 Y92.75
G1 X40.75
G1 Y62.25
G1 X16.25
G1 Y74.25
G1 F300.0 X15.25
G1 F800.0 Y93.75
G1 X41.75
G1 Y61.25
G1 X15.25
G1 Y74.25
G0 Z3.0
G0 X28.25
G1 F300.0 Z-5.0
G1 F800.0 Y80.75
G1 X28.75
G1 Y74.25
G1 X28.25
G1 F300.0 X27.25
G1 F800.0 Y81.75
G1 X29.75
G1 Y73.25
G1 X27.25
G1 Y74.25
G1 F300.0 X26.25
G1 F800.0 Y82.75
G1 X30.75
G1 Y72.25
G1 X26.25
G1 Y74.25
G1 F300.0 X25.25
G1 F800.0 Y83.75
G1 X31.75
G1 Y71.25
G1 X25.25
G1 Y74.25
G1 F300.0 X24.25
G1 F800.0 Y84.75
G1 X32.75
G1 Y70.25
G1 X24.25
G1 Y74.25
G1 F300.0 X23.25
G1 F800.0 Y85.75
G1 X33.75
G1 Y69.25
G1 X23.25
G1 Y74.25
G1 F300.0 X22.25
G1 F800.0 Y86.75
G1 X34.75
G1 Y68.25
G1 X22.25
G1 Y74.25
G1 F300.0 X21.25
G1 F800.0 Y87.75
G1 X35.75
G1 Y67.25
G1 X21.25
G1 Y74.25
G1 F300.0 X20.25
G1 F800.0 Y88.75
G1 X36.75
G1 Y66.25
G1 X20.25
G1 Y74.25
G1 F300.0 X19.25
G1 F800.0 Y89.75
G1 X37.75
G1 Y65.25
G1 X19.25
G1 Y74.25
G1 F300.0 X18.25
G1 F800.0 Y90.75
G1 X38.75
G1 Y64.25
G1 X18.25
G1 Y74.25
G1 F300.0 X17.25
G1 F800.0 Y91.75
G1 X39.75
G1 Y63.25
G1 X17.25
G1 Y74.25
G1 F300.0 X16.25
G1 F800.0 Y92.75
G1 X40.75
G1 Y62.25
G1 X16.25
G1 Y74.25
G1 F300.0 X15.25
G1 F800.0 Y93.75
G1 X41.75
G1 Y61.25
G1 X15.25
G1 Y74.25
G0 Z3.0
G0 X28.25
G1 F300.0 Z-6.0
G1 F800.0 Y80.75
G1 X28.75
G1 Y74.25
G1 X28.25
G1 F300.0 X27.25
G1 F800.0 Y81.75
G1 X29.75
G1 Y73.25
G1 X27.25
G1 Y74.25
G1 F300.0 X26.25
G1 F800.0 Y82.75
G1 X30.75
G1 Y72.25
G1 X26.25
G1 Y74.25
G1 F300.0 X25.25
G1 F800.0 Y83.75
G1 X31.75
G1 Y71.25
G1 X25.25
G1 Y74.25
G1 F300.0 X24.25
G1 F800.0 Y84.75
G1 X32.75
G1 Y70.25
G1 X24.25
G1 Y74.25
G1 F300.0 X23.25
G1 F800.0 Y85.75
G1 X33.75
G1 Y69.25
G1 X23.25
G1 Y74.25
G1 F300.0 X22.25
G1 F800.0 Y86.75
G1 X34.75
G1 Y68.25
G1 X22.25
G1 Y74.25
G1 F300.0 X21.25
G1 F800.0 Y87.75
G1 X35.75
G1 Y67.25
G1 X21.25
G1 Y74.25
G1 F300.0 X20.25
G1 F800.0 Y88.75
G1 X36.75
G1 Y66.25
G1 X20.25
G1 Y74.25
G1 F300.0 X19.25
G1 F800.0 Y89.75
G1 X37.75
G1 Y65.25
G1 X19.25
G1 Y74.25
G1 F300.0 X18.25
G1 F800.0 Y90.75
G1 X38.75
G1 Y64.25
G1 X18.25
G1 Y74.25
G1 F300.0 X17.25
G1 F800.0 Y91.75
G1 X39.75
G1 Y63.25
G1 X17.25
G1 Y74.25
G1 F300.0 X16.25
G1 F800.0 Y92.75
G1 X40.75
G1 Y62.25
G1 X16.25
G1 Y74.25
G1 F300.0 X15.25
G1 F800.0 Y93.75
G1 X41.75
G1 Y61.25
G1 X15.25
G1 Y74.25
G0 Z3.0
G0 X28.25
G1 F300.0 Z-7.0
G1 F800.0 Y80.75
G1 X28.75
G1 Y74.25
G1 X28.25
G1 F300.0 X27.25
G1 F800.0 Y81.75
G1 X29.75
G1 Y73.25
G1 X27.25
G1 Y74.25
G1 F300.0 X26.25
G1 F800.0 Y82.75
G1 X30.75
G1 Y72.25
G1 X26.25
G1 Y74.25
G1 F300.0 X25.25
G1 F800.0 Y83.75
G1 X31.75
G1 Y71.25
G1 X25.25
G1 Y74.25
G1 F300.0 X24.25
G1 F800.0 Y84.75
G1 X32.75
G1 Y70.25
G1 X24.25
G1 Y74.25
G1 F300.0 X23.25
G1 F800.0 Y85.75
G1 X33.75
G1 Y69.25
G1 X23.25
G1 Y74.25
G1 F300.0 X22.25
G1 F800.0 Y86.75
G1 X34.75
G1 Y68.25
G1 X22.25
G1 Y74.25
G1 F300.0 X21.25
G1 F800.0 Y87.75
G1 X35.75
G1 Y67.25
G1 X21.25
G1 Y74.25
G1 F300.0 X20.25
G1 F800.0 Y88.75
G1 X36.75
G1 Y66.25
G1 X20.25
G1 Y74.25
G1 F300.0 X19.25
G1 F800.0 Y89.75
G1 X37.75
G1 Y65.25
G1 X19.25
G1 Y74.25
G1 F300.0 X18.25
G1 F800.0 Y90.75
G1 X38.75
G1 Y64.25
G1 X18.25
G1 Y74.25
G1 F300.0 X17.25
G1 F800.0 Y91.75
G1 X39.75
G1 Y63.25
G1 X17.25
G1 Y74.25
G1 F300.0 X16.25
G1 F800.0 Y92.75
G1 X40.75
G1 Y62.25
G1 X16.25
G1 Y74.25
G1 F300.0 X15.25
G1 F800.0 Y93.75
G1 X41.75
G1 Y61.25
G1 X15.25
G1 Y74.25
G0 Z3.0
G0 X28.25
G1 F300.0 Z-8.0
G1 F800.0 Y80.75
G1 X28.75
G1 Y74.25
G1 X28.25
G1 F300.0 X27.25
G1 F800.0 Y81.75
G1 X29.75
G1 Y73.25
G1 X27.25
G1 Y74.25
G1 F300.0 X26.25
G1 F800.0 Y82.75
G1 X30.75
G1 Y72.25
G1 X26.25
G1 Y74.25
G1 F300.0 X25.25
G1 F800.0 Y83.75
G1 X31.75
G1 Y71.25
G1 X25.25
G1 Y74.25
G1 F300.0 X24.25
G1 F800.0 Y84.75
G1 X32.75
G1 Y70.25
G1 X24.25
G1 Y74.25
G1 F300.0 X23.25
G1 F800.0 Y85.75
G1 X33.75
G1 Y69.25
G1 X23.25
G1 Y74.25
G1 F300.0 X22.25
G1 F800.0 Y86.75
G1 X34.75
G1 Y68.25
G1 X22.25
G1 Y74.25
G1 F300.0 X21.25
G1 F800.0 Y87.75
G1 X35.75
G1 Y67.25
G1 X21.25
G1 Y74.25
G1 F300.0 X20.25
G1 F800.0 Y88.75
G1 X36.75
G1 Y66.25
G1 X20.25
G1 Y74.25
G1 F300.0 X19.25
G1 F800.0 Y89.75
G1 X37.75
G1 Y65.25
G1 X19.25
G1 Y74.25
G1 F300.0 X18.25
G1 F800.0 Y90.75
G1 X38.75
G1 Y64.25
G1 X18.25
G1 Y74.25
G1 F300.0 X17.25
G1 F800.0 Y91.75
G1 X39.75
G1 Y63.25
G1 X17.25
G1 Y74.25
G1 F300.0 X16.25
G1 F800.0 Y92.75
G1 X40.75
G1 Y62.25
G1 X16.25
G1 Y74.25
G1 F300.0 X15.25
G1 F800.0 Y93.75
G1 X41.75
G1 Y61.25
G1 X15.25
G1 Y74.25
( Cover - Wire Whole )
S1000
G0 Z3.0
G0 X15.75 Y69.75
G1 F300.0 Z-9.0
G1 F800.0 Y72.25
G1 X16.25
G1 Y69.75
G1 X15.75
G1 F300.0 X14.75
G1 F800.0 Y73.25
G1 X17.25
G1 Y68.75
G1 X14.75
G1 Y69.75
G1 F300.0 X13.75
G1 F800.0 Y74.25
G1 X18.25
G1 Y67.75
G1 X13.75
G1 Y69.75
G0 Z3.0
G0 X15.75
G1 F300.0 Z-10.0
G1 F800.0 Y72.25
G1 X16.25
G1 Y69.75
G1 X15.75
G1 F300.0 X14.75
G1 F800.0 Y73.25
G1 X17.25
G1 Y68.75
G1 X14.75
G1 Y69.75
G1 F300.0 X13.75
G1 F800.0 Y74.25
G1 X18.25
G1 Y67.75
G1 X13.75
G1 Y69.75
( Cover - Outside cover )
S1000
G0 Z3.0
G0 X16.0 Y60.75
G1 F300.0 Z-9.0
G1 F800.0 X41.0
G3 X42.25 Y62.0 I0.0 J1.25
G1 Y93.0
G3 X41.0 Y94.25 I-1.25 J0.0
G1 X16.0
G3 X14.75 Y93.0 I0.0 J-1.25
G1 Y62.0
G3 X16.0 Y60.75 I1.25 J0.0
G1 F300.0 Y60.25
G1 F800.0 X41.0
G3 X42.75 Y62.0 I0.0 J1.75
G1 Y93.0
G3 X41.0 Y94.75 I-1.75 J0.0
G1 X16.0
G3 X14.25 Y93.0 I0.0 J-1.75
G1 Y62.0
G3 X16.0 Y60.25 I1.75 J0.0
G1 F300.0 Y60.75
G1 Z-10.0
G1 F800.0 X41.0
G3 X42.25 Y62.0 I0.0 J1.25
G1 Y93.0
G3 X41.0 Y94.25 I-1.25 J0.0
G1 X16.0
G3 X14.75 Y93.0 I0.0 J-1.25
G1 Y62.0
G3 X16.0 Y60.75 I1.25 J0.0
G1 F300.0 Y60.25
G1 F800.0 X41.0
G3 X42.75 Y62.0 I0.0 J1.75
G1 Y93.0
G3 X41.0 Y94.75 I-1.75 J0.0
G1 X16.0
G3 X14.25 Y93.0 I0.0 J-1.75
G1 Y62.0
G3 X16.0 Y60.25 I1.75 J0.0
( Sensor Arm - level all -7 )
S1000
G0 Z3.0
G0 X59.25 Y23.25
G1 F300.0 Z-1.0
G1 F800.0 Y86.75
G1 X60.75
G1 Y23.25
G1 X59.25
G1 F300.0 X58.25
G1 F800.0 Y87.75
G1 X61.75
G1 Y22.25
G1 X58.25
G1 Y23.25
G1 F300.0 X57.25
G1 F800.0 Y88.75
G1 X62.75
G1 Y21.25
G1 X57.25
G1 Y23.25
G1 F300.0 X56.25
G1 F800.0 Y89.75
G1 X63.75
G1 Y20.25
G1 X56.25
G1 Y23.25
G1 F300.0 X55.25
G1 F800.0 Y90.75
G1 X64.75
G1 Y19.25
G1 X55.25
G1 Y23.25
G1 F300.0 X54.25
G1 F800.0 Y91.75
G1 X65.75
G1 Y18.25
G1 X54.25
G1 Y23.25
G1 F300.0 X53.25
G1 F800.0 Y92.75
G1 X66.75
G1 Y17.25
G1 X53.25
G1 Y23.25
G0 Z3.0
G0 X59.25
G1 F300.0 Z-2.0
G1 F800.0 Y86.75
G1 X60.75
G1 Y23.25
G1 X59.25
G1 F300.0 X58.25
G1 F800.0 Y87.75
G1 X61.75
G1 Y22.25
G1 X58.25
G1 Y23.25
G1 F300.0 X57.25
G1 F800.0 Y88.75
G1 X62.75
G1 Y21.25
G1 X57.25
G1 Y23.25
G1 F300.0 X56.25
G1 F800.0 Y89.75
G1 X63.75
G1 Y20.25
G1 X56.25
G1 Y23.25
G1 F300.0 X55.25
G1 F800.0 Y90.75
G1 X64.75
G1 Y19.25
G1 X55.25
G1 Y23.25
G1 F300.0 X54.25
G1 F800.0 Y91.75
G1 X65.75
G1 Y18.25
G1 X54.25
G1 Y23.25
G1 F300.0 X53.25
G1 F800.0 Y92.75
G1 X66.75
G1 Y17.25
G1 X53.25
G1 Y23.25
G0 Z3.0
G0 X59.25
G1 F300.0 Z-3.0
G1 F800.0 Y86.75
G1 X60.75
G1 Y23.25
G1 X59.25
G1 F300.0 X58.25
G1 F800.0 Y87.75
G1 X61.75
G1 Y22.25
G1 X58.25
G1 Y23.25
G1 F300.0 X57.25
G1 F800.0 Y88.75
G1 X62.75
G1 Y21.25
G1 X57.25
G1 Y23.25
G1 F300.0 X56.25
G1 F800.0 Y89.75
G1 X63.75
G1 Y20.25
G1 X56.25
G1 Y23.25
G1 F300.0 X55.25
G1 F800.0 Y90.75
G1 X64.75
G1 Y19.25
G1 X55.25
G1 Y23.25
G1 F300.0 X54.25
G1 F800.0 Y91.75
G1 X65.75
G1 Y18.25
G1 X54.25
G1 Y23.25
G1 F300.0 X53.25
G1 F800.0 Y92.75
G1 X66.75
G1 Y17.25
G1 X53.25
G1 Y23.25
G0 Z3.0
G0 X59.25
G1 F300.0 Z-4.0
G1 F800.0 Y86.75
G1 X60.75
G1 Y23.25
G1 X59.25
G1 F300.0 X58.25
G1 F800.0 Y87.75
G1 X61.75
G1 Y22.25
G1 X58.25
G1 Y23.25
G1 F300.0 X57.25
G1 F800.0 Y88.75
G1 X62.75
G1 Y21.25
G1 X57.25
G1 Y23.25
G1 F300.0 X56.25
G1 F800.0 Y89.75
G1 X63.75
G1 Y20.25
G1 X56.25
G1 Y23.25
G1 F300.0 X55.25
G1 F800.0 Y90.75
G1 X64.75
G1 Y19.25
G1 X55.25
G1 Y23.25
G1 F300.0 X54.25
G1 F800.0 Y91.75
G1 X65.75
G1 Y18.25
G1 X54.25
G1 Y23.25
G1 F300.0 X53.25
G1 F800.0 Y92.75
G1 X66.75
G1 Y17.25
G1 X53.25
G1 Y23.25
G0 Z3.0
G0 X59.25
G1 F300.0 Z-5.0
G1 F800.0 Y86.75
G1 X60.75
G1 Y23.25
G1 X59.25
G1 F300.0 X58.25
G1 F800.0 Y87.75
G1 X61.75
G1 Y22.25
G1 X58.25
G1 Y23.25
G1 F300.0 X57.25
G1 F800.0 Y88.75
G1 X62.75
G1 Y21.25
G1 X57.25
G1 Y23.25
G1 F300.0 X56.25
G1 F800.0 Y89.75
G1 X63.75
G1 Y20.25
G1 X56.25
G1 Y23.25
G1 F300.0 X55.25
G1 F800.0 Y90.75
G1 X64.75
G1 Y19.25
G1 X55.25
G1 Y23.25
G1 F300.0 X54.25
G1 F800.0 Y91.75
G1 X65.75
G1 Y18.25
G1 X54.25
G1 Y23.25
G1 F300.0 X53.25
G1 F800.0 Y92.75
G1 X66.75
G1 Y17.25
G1 X53.25
G1 Y23.25
G0 Z3.0
G0 X59.25
G1 F300.0 Z-6.0
G1 F800.0 Y86.75
G1 X60.75
G1 Y23.25
G1 X59.25
G1 F300.0 X58.25
G1 F800.0 Y87.75
G1 X61.75
G1 Y22.25
G1 X58.25
G1 Y23.25
G1 F300.0 X57.25
G1 F800.0 Y88.75
G1 X62.75
G1 Y21.25
G1 X57.25
G1 Y23.25
G1 F300.0 X56.25
G1 F800.0 Y89.75
G1 X63.75
G1 Y20.25
G1 X56.25
G1 Y23.25
G1 F300.0 X55.25
G1 F800.0 Y90.75
G1 X64.75
G1 Y19.25
G1 X55.25
G1 Y23.25
G1 F300.0 X54.25
G1 F800.0 Y91.75
G1 X65.75
G1 Y18.25
G1 X54.25
G1 Y23.25
G1 F300.0 X53.25
G1 F800.0 Y92.75
G1 X66.75
G1 Y17.25
G1 X53.25
G1 Y23.25
G0 Z3.0
G0 X59.25
G1 F300.0 Z-7.0
G1 F800.0 Y86.75
G1 X60.75
G1 Y23.25
G1 X59.25
G1 F300.0 X58.25
G1 F800.0 Y87.75
G1 X61.75
G1 Y22.25
G1 X58.25
G1 Y23.25
G1 F300.0 X57.25
G1 F800.0 Y88.75
G1 X62.75
G1 Y21.25
G1 X57.25
G1 Y23.25
G1 F300.0 X56.25
G1 F800.0 Y89.75
G1 X63.75
G1 Y20.25
G1 X56.25
G1 Y23.25
G1 F300.0 X55.25
G1 F800.0 Y90.75
G1 X64.75
G1 Y19.25
G1 X55.25
G1 Y23.25
G1 F300.0 X54.25
G1 F800.0 Y91.75
G1 X65.75
G1 Y18.25
G1 X54.25
G1 Y23.25
G1 F300.0 X53.25
G1 F800.0 Y92.75
G1 X66.75
G1 Y17.25
G1 X53.25
G1 Y23.25
( Sensor Arm - Magnet whole 1 )
S1000
G0 Z3.0
G0 X61.5 Y86.0
G1 F300.0 Z-8.0
G2 F800.0 X59.25 Y84.70096 I-1.5 J0.0
G2 Y87.29904 I0.75 J1.29904
G2 X61.5 Y86.0 I0.75 J-1.29904
G1 F300.0 X62.0
G2 F800.0 X59.0 Y84.26795 I-2.0 J0.0
G2 Y87.73205 I1.0 J1.73205
G2 X62.0 Y86.0 I1.0 J-1.73205
G1 F300.0 X61.5
G1 Z-9.0
G2 F800.0 X59.25 Y84.70096 I-1.5 J0.0
G2 Y87.29904 I0.75 J1.29904
G2 X61.5 Y86.0 I0.75 J-1.29904
G1 F300.0 X62.0
G2 F800.0 X59.0 Y84.26795 I-2.0 J0.0
G2 Y87.73205 I1.0 J1.73205
G2 X62.0 Y86.0 I1.0 J-1.73205
( Sensor Arm - Magnet whole 2 )
S1000
G0 Z3.0
G0 X61.5 Y79.0
G1 F300.0 Z-8.0
G2 F800.0 X59.25 Y77.70096 I-1.5 J0.0
G2 Y80.29904 I0.75 J1.29904
G2 X61.5 Y79.0 I0.75 J-1.29904
G1 F300.0 X62.0
G2 F800.0 X59.0 Y77.26795 I-2.0 J0.0
G2 Y80.73205 I1.0 J1.73205
G2 X62.0 Y79.0 I1.0 J-1.73205
G1 F300.0 X61.5
G1 Z-9.0
G2 F800.0 X59.25 Y77.70096 I-1.5 J0.0
G2 Y80.29904 I0.75 J1.29904
G2 X61.5 Y79.0 I0.75 J-1.29904
G1 F300.0 X62.0
G2 F800.0 X59.0 Y77.26795 I-2.0 J0.0
G2 Y80.73205 I1.0 J1.73205
G2 X62.0 Y79.0 I1.0 J-1.73205
( Sensor Arm - Outside Trigger )
S1000
G0 Z3.0
G0 X54.0 Y16.75
G1 F300.0 Z-8.0
G1 F800.0 X66.0
G3 X67.25 Y18.0 I0.0 J1.25
G1 Y92.0
G3 X66.0 Y93.25 I-1.25 J0.0
G1 X54.0
G3 X52.75 Y92.0 I0.0 J-1.25
G1 Y18.0
G3 X54.0 Y16.75 I1.25 J0.0
G1 F300.0 Y16.25
G1 F800.0 X66.0
G3 X67.75 Y18.0 I0.0 J1.75
G1 Y92.0
G3 X66.0 Y93.75 I-1.75 J0.0
G1 X54.0
G3 X52.25 Y92.0 I0.0 J-1.75
G1 Y18.0
G3 X54.0 Y16.25 I1.75 J0.0
G1 F300.0 Y16.75
G1 Z-9.0
G1 F800.0 X66.0
G3 X67.25 Y18.0 I0.0 J1.25
G1 Y92.0
G3 X66.0 Y93.25 I-1.25 J0.0
G1 X54.0
G3 X52.75 Y92.0 I0.0 J-1.25
G1 Y18.0
G3 X54.0 Y16.75 I1.25 J0.0
G1 F300.0 Y16.25
G1 F800.0 X66.0
G3 X67.75 Y18.0 I0.0 J1.75
G1 Y92.0
G3 X66.0 Y93.75 I-1.75 J0.0
G1 X54.0
G3 X52.25 Y92.0 I0.0 J-1.75
G1 Y18.0
G3 X54.0 Y16.25 I1.75 J0.0
G1 F300.0 Y16.75
G1 Z-10.0
G1 F800.0 X66.0
G3 X67.25 Y18.0 I0.0 J1.25
G1 Y92.0
G3 X66.0 Y93.25 I-1.25 J0.0
G1 X54.0
G3 X52.75 Y92.0 I0.0 J-1.25
G1 Y18.0
G3 X54.0 Y16.75 I1.25 J0.0
G1 F300.0 Y16.25
G1 F800.0 X66.0
G3 X67.75 Y18.0 I0.0 J1.75
G1 Y92.0
G3 X66.0 Y93.75 I-1.75 J0.0
G1 X54.0
G3 X52.25 Y92.0 I0.0 J-1.75
G1 Y18.0
G3 X54.0 Y16.25 I1.75 J0.0
( Pocket1 )
G64
S1000
G0 Z3.0
G0 X11.25 Y13.25
G1 F300.0 Z-0.5
G1 F800.0 Y14.2717
G3 X12.2717 Y13.25 I2.75 J1.7283
G1 X11.25
G0 Z3.0
G0 X48.7283
G1 F300.0 Z-0.5
G3 F800.0 X49.5 Y13.92648 I-1.7283 J2.75
G3 X50.2717 Y13.25 I2.5 J2.07352
G1 X48.7283
G0 Z3.0
G0 X69.7283
G1 F300.0 Z-0.5
G3 F800.0 X69.75 Y13.26376 I-1.7283 J2.75
G1 Y13.25
G1 X69.7283
G0 Z3.0
G0 X47.752 Y59.18091
G1 F300.0 Z-0.5
G3 F800.0 X47.18022 Y59.24418 I-0.752 J-4.18091
G3 X47.248 Y60.0 I-4.18022 J0.75582
G1 Y95.0
G3 X47.18127 Y95.75 I-4.248 J0.0
G1 X48.12921
G3 X47.752 Y94.0 I3.87079 J-1.75
G1 Y59.18091
G1 F300.0 X47.57498 Y58.1967
G3 F800.0 X47.0 Y58.248 I-0.57498 J-3.1967
G1 X45.73496
G3 X46.248 Y60.0 I-2.73496 J1.752
G1 Y95.0
G3 X45.73624 Y96.75 I-3.248 J0.0
G1 X50.2717
G3 X48.752 Y94.0 I1.7283 J-2.75
G1 Y57.73496
G3 X47.57498 Y58.1967 I-1.752 J-2.73496
G0 Z3.0
G0 X11.92648 Y57.5
G1 F300.0 Z-0.5
G3 F800.0 X11.25 Y56.7283 I2.07352 J-2.5
G1 Y58.2717
G3 X11.92648 Y57.5 I2.75 J1.7283
G0 Z3.0
G0 X11.25 Y96.7283
G1 F300.0 Z-0.5
G1 F800.0 Y96.75
G1 X11.26376
G3 X11.25 Y96.7283 I2.73624 J-1.75
G0 Z3.0
G0 X69.7283 Y96.75
G1 F300.0 Z-0.5
G1 F800.0 X69.75
G1 Y96.73624
G3 X69.7283 Y96.75 I-1.75 J-2.73624
G1 F300.0 X69.19618 Y95.90333
G3 F800.0 X68.0 Y96.248 I-1.19618 J-1.90333
G1 X52.0
G3 X49.752 Y94.0 I0.0 J-2.248
G1 Y16.0
G3 X52.0 Y13.752 I2.248 J0.0
G1 X68.0
G3 X70.248 Y16.0 I0.0 J2.248
G1 Y94.0
G3 X69.19618 Y95.90333 I-2.248 J0.0
G1 F300.0 X68.66514 Y95.05834
G3 F800.0 X68.0 Y95.25 I-0.66514 J-1.05834
G1 X52.0
G3 X50.75 Y94.0 I0.0 J-1.25
G1 Y16.0
G3 X52.0 Y14.75 I1.25 J0.0
G1 X68.0
G3 X69.25 Y16.0 I0.0 J1.25
G1 Y94.0
G3 X68.66514 Y95.05834 I-1.25 J0.0
G0 Z3.0
G0 X45.24799 Y95.00511
G1 F300.0 Z-0.5
G3 F800.0 X43.0 Y97.248 I-2.24799 J-0.00511
G1 X14.0
G3 X11.752 Y95.0 I0.0 J-2.248
G1 Y60.0
G3 X14.0 Y57.752 I2.248 J0.0
G1 X43.0
G3 X45.248 Y60.0 I0.0 J2.248
G1 Y95.0
G3 X45.24799 Y95.00511 I-2.248 J0.0
G1 F300.0 X44.25 Y95.00284
G3 F800.0 X43.0 Y96.25 I-1.25 J-0.00284
G1 X14.0
G3 X12.75 Y95.0 I0.0 J-1.25
G1 Y60.0
G3 X14.0 Y58.75 I1.25 J0.0
G1 X43.0
G3 X44.25 Y60.0 I0.0 J1.25
G1 Y95.0
G3 Y95.00284 I-1.25 J0.0
G0 Z3.0
G0 Y57.248
G1 F300.0 Z-0.5
G1 F800.0 X14.0
G3 X11.752 Y55.0 I0.0 J-2.248
G1 Y16.0
G3 X14.0 Y13.752 I2.248 J0.0
G1 X47.0
G3 X49.248 Y16.0 I0.0 J2.248
G1 Y55.0
G3 X47.0 Y57.248 I-2.248 J0.0
G1 X44.25
G1 F300.0 Y56.25
G1 F800.0 X14.0
G3 X12.75 Y55.0 I0.0 J-1.25
G1 Y16.0
G3 X14.0 Y14.75 I1.25 J0.0
G1 X47.0
G3 X48.25 Y16.0 I0.0 J1.25
G1 Y55.0
G3 X47.0 Y56.25 I-1.25 J0.0
G1 X44.25
G0 Z3.0
G0 X70.75
G1 F300.0 Z-0.5
G1 F800.0 Y12.25
G1 X10.25
G1 Y97.75
G1 X70.75
G1 Y56.25
G1 F300.0 X71.75
G1 F800.0 Y11.25
G1 X9.25
G1 Y98.75
G1 X71.75
G1 Y56.25
G0 Z3.0
G0 X47.752 Y59.18091
G1 F300.0 Z-1.0
G3 F800.0 X47.18022 Y59.24418 I-0.752 J-4.18091
G3 X47.248 Y60.0 I-4.18022 J0.75582
G1 Y95.0
G3 X47.18127 Y95.75 I-4.248 J0.0
G1 X48.12921
G3 X47.752 Y94.0 I3.87079 J-1.75
G1 Y59.18091
G1 F300.0 X47.57498 Y58.1967
G3 F800.0 X47.0 Y58.248 I-0.57498 J-3.1967
G1 X45.73496
G3 X46.248 Y60.0 I-2.73496 J1.752
G1 Y95.0
G3 X45.73624 Y96.75 I-3.248 J0.0
G1 X50.2717
G3 X48.752 Y94.0 I1.7283 J-2.75
G1 Y57.73496
G3 X47.57498 Y58.1967 I-1.752 J-2.73496
G0 Z3.0
G0 X11.92648 Y57.5
G1 F300.0 Z-1.0
G3 F800.0 X11.25 Y56.7283 I2.07352 J-2.5
G1 Y58.2717
G3 X11.92648 Y57.5 I2.75 J1.7283
G0 Z3.0
G0 X11.25 Y96.7283
G1 F300.0 Z-1.0
G1 F800.0 Y96.75
G1 X11.26376
G3 X11.25 Y96.7283 I2.73624 J-1.75
G0 Z3.0
G0 X69.7283 Y96.75
G1 F300.0 Z-1.0
G1 F800.0 X69.75
G1 Y96.73624
G3 X69.7283 Y96.75 I-1.75 J-2.73624
G0 Z3.0
G0 X69.75 Y13.26376
G1 F300.0 Z-1.0
G1 F800.0 Y13.25
G1 X69.7283
G3 X69.75 Y13.26376 I-1.7283 J2.75
G0 Z3.0
G0 X50.2717 Y13.25
G1 F300.0 Z-1.0
G1 F800.0 X48.7283
G3 X49.5 Y13.92648 I-1.7283 J2.75
G3 X50.2717 Y13.25 I2.5 J2.07352
G0 Z3.0
G0 X12.2717
G1 F300.0 Z-1.0
G1 F800.0 X11.25
G1 Y14.2717
G3 X12.2717 Y13.25 I2.75 J1.7283
G1 F300.0 X12.80382 Y14.09667
G3 F800.0 X14.0 Y13.752 I1.19618 J1.90333
G1 X47.0
G3 X49.248 Y16.0 I0.0 J2.248
G1 Y55.0
G3 X47.0 Y57.248 I-2.248 J0.0
G1 X14.0
G3 X11.752 Y55.0 I0.0 J-2.248
G1 Y16.0
G3 X12.80382 Y14.09667 I2.248 J0.0
G1 F300.0 X13.33486 Y14.94166
G3 F800.0 X14.0 Y14.75 I0.66514 J1.05834
G1 X47.0
G3 X48.25 Y16.0 I0.0 J1.25
G1 Y55.0
G3 X47.0 Y56.25 I-1.25 J0.0
G1 X14.0
G3 X12.75 Y55.0 I0.0 J-1.25
G1 Y16.0
G3 X13.33486 Y14.94166 I1.25 J0.0
G0 Z3.0
G0 X49.75284 Y15.93849
G1 F300.0 Z-1.0
G3 F800.0 X52.0 Y13.752 I2.24716 J0.06151
G1 X68.0
G3 X70.248 Y16.0 I0.0 J2.248
G1 Y94.0
G3 X68.0 Y96.248 I-2.248 J0.0
G1 X52.0
G3 X49.752 Y94.0 I0.0 J-2.248
G1 Y16.0
G3 X49.75284 Y15.93849 I2.248 J0.0
G1 F300.0 X50.75047 Y15.9658
G3 F800.0 X52.0 Y14.75 I1.24953 J0.0342
G1 X68.0
G3 X69.25 Y16.0 I0.0 J1.25
G1 Y94.0
G3 X68.0 Y95.25 I-1.25 J0.0
G1 X52.0
G3 X50.75 Y94.0 I0.0 J-1.25
G1 Y16.0
G3 X50.75047 Y15.9658 I1.25 J0.0
G0 Z3.0
G0 X43.38968 Y57.78603
G1 F300.0 Z-1.0
G3 F800.0 X45.248 Y60.0 I-0.38968 J2.21397
G1 Y95.0
G3 X43.0 Y97.248 I-2.248 J0.0
G1 X14.0
G3 X11.752 Y95.0 I0.0 J-2.248
G1 Y60.0
G3 X14.0 Y57.752 I2.248 J0.0
G1 X43.0
G3 X43.38968 Y57.78603 I0.0 J2.248
G1 F300.0 X43.21668 Y58.76892
G3 F800.0 X44.25 Y60.0 I-0.21668 J1.23108
G1 Y95.0
G3 X43.0 Y96.25 I-1.25 J0.0
G1 X14.0
G3 X12.75 Y95.0 I0.0 J-1.25
G1 Y60.0
G3 X14.0 Y58.75 I1.25 J0.0
G1 X43.0
G3 X43.21668 Y58.76892 I0.0 J1.25
G0 Z3.0
G0 X70.75
G1 F300.0 Z-1.0
G1 F800.0 Y12.25
G1 X10.25
G1 Y97.75
G1 X70.75
G1 Y58.76892
G1 F300.0 X71.75
G1 F800.0 Y11.25
G1 X9.25
G1 Y98.75
G1 X71.75
G1 Y58.76892
G0 Z3.0
G0 X47.752 Y59.18091
G1 F300.0 Z-1.5
G3 F800.0 X47.18022 Y59.24418 I-0.752 J-4.18091
G3 X47.248 Y60.0 I-4.18022 J0.75582
G1 Y95.0
G3 X47.18127 Y95.75 I-4.248 J0.0
G1 X48.12921
G3 X47.752 Y94.0 I3.87079 J-1.75
G1 Y59.18091
G1 F300.0 X47.57498 Y58.1967
G3 F800.0 X47.0 Y58.248 I-0.57498 J-3.1967
G1 X45.73496
G3 X46.248 Y60.0 I-2.73496 J1.752
G1 Y95.0
G3 X45.73624 Y96.75 I-3.248 J0.0
G1 X50.2717
G3 X48.752 Y94.0 I1.7283 J-2.75
G1 Y57.73496
G3 X47.57498 Y58.1967 I-1.752 J-2.73496
G0 Z3.0
G0 X11.92648 Y57.5
G1 F300.0 Z-1.5
G3 F800.0 X11.25 Y56.7283 I2.07352 J-2.5
G1 Y58.2717
G3 X11.92648 Y57.5 I2.75 J1.7283
G0 Z3.0
G0 X11.25 Y96.7283
G1 F300.0 Z-1.5
G1 F800.0 Y96.75
G1 X11.26376
G3 X11.25 Y96.7283 I2.73624 J-1.75
G0 Z3.0
G0 X69.7283 Y96.75
G1 F300.0 Z-1.5
G1 F800.0 X69.75
G1 Y96.73624
G3 X69.7283 Y96.75 I-1.75 J-2.73624
G0 Z3.0
G0 X69.75 Y13.26376
G1 F300.0 Z-1.5
G1 F800.0 Y13.25
G1 X69.7283
G3 X69.75 Y13.26376 I-1.7283 J2.75
G0 Z3.0
G0 X50.2717 Y13.25
G1 F300.0 Z-1.5
G1 F800.0 X48.7283
G3 X49.5 Y13.92648 I-1.7283 J2.75
G3 X50.2717 Y13.25 I2.5 J2.07352
G0 Z3.0
G0 X12.2717
G1 F300.0 Z-1.5
G1 F800.0 X11.25
G1 Y14.2717
G3 X12.2717 Y13.25 I2.75 J1.7283
G1 F300.0 X12.80382 Y14.09667
G3 F800.0 X14.0 Y13.752 I1.19618 J1.90333
G1 X47.0
G3 X49.248 Y16.0 I0.0 J2.248
G1 Y55.0
G3 X47.0 Y57.248 I-2.248 J0.0
G1 X14.0
G3 X11.752 Y55.0 I0.0 J-2.248
G1 Y16.0
G3 X12.80382 Y14.09667 I2.248 J0.0
G1 F300.0 X13.33486 Y14.94166
G3 F800.0 X14.0 Y14.75 I0.66514 J1.05834
G1 X47.0
G3 X48.25 Y16.0 I0.0 J1.25
G1 Y55.0
G3 X47.0 Y56.25 I-1.25 J0.0
G1 X14.0
G3 X12.75 Y55.0 I0.0 J-1.25
G1 Y16.0
G3 X13.33486 Y14.94166 I1.25 J0.0
G0 Z3.0
G0 X49.75284 Y15.93849
G1 F300.0 Z-1.5
G3 F800.0 X52.0 Y13.752 I2.24716 J0.06151
G1 X68.0
G3 X70.248 Y16.0 I0.0 J2.248
G1 Y94.0
G3 X68.0 Y96.248 I-2.248 J0.0
G1 X52.0
G3 X49.752 Y94.0 I0.0 J-2.248
G1 Y16.0
G3 X49.75284 Y15.93849 I2.248 J0.0
G1 F300.0 X50.75047 Y15.9658
G3 F800.0 X52.0 Y14.75 I1.24953 J0.0342
G1 X68.0
G3 X69.25 Y16.0 I0.0 J1.25
G1 Y94.0
G3 X68.0 Y95.25 I-1.25 J0.0
G1 X52.0
G3 X50.75 Y94.0 I0.0 J-1.25
G1 Y16.0
G3 X50.75047 Y15.9658 I1.25 J0.0
G0 Z3.0
G0 X43.38968 Y57.78603
G1 F300.0 Z-1.5
G3 F800.0 X45.248 Y60.0 I-0.38968 J2.21397
G1 Y95.0
G3 X43.0 Y97.248 I-2.248 J0.0
G1 X14.0
G3 X11.752 Y95.0 I0.0 J-2.248
G1 Y60.0
G3 X14.0 Y57.752 I2.248 J0.0
G1 X43.0
G3 X43.38968 Y57.78603 I0.0 J2.248
G1 F300.0 X43.21668 Y58.76892
G3 F800.0 X44.25 Y60.0 I-0.21668 J1.23108
G1 Y95.0
G3 X43.0 Y96.25 I-1.25 J0.0
G1 X14.0
G3 X12.75 Y95.0 I0.0 J-1.25
G1 Y60.0
G3 X14.0 Y58.75 I1.25 J0.0
G1 X43.0
G3 X43.21668 Y58.76892 I0.0 J1.25
G0 Z3.0
G0 X70.75
G1 F300.0 Z-1.5
G1 F800.0 Y12.25
G1 X10.25
G1 Y97.75
G1 X70.75
G1 Y58.76892
G1 F300.0 X71.75
G1 F800.0 Y11.25
G1 X9.25
G1 Y98.75
G1 X71.75
G1 Y58.76892
G0 Z3.0
G0 X47.752 Y59.18091
G1 F300.0 Z-2.0
G3 F800.0 X47.18022 Y59.24418 I-0.752 J-4.18091
G3 X47.248 Y60.0 I-4.18022 J0.75582
G1 Y95.0
G3 X47.18127 Y95.75 I-4.248 J0.0
G1 X48.12921
G3 X47.752 Y94.0 I3.87079 J-1.75
G1 Y59.18091
G1 F300.0 X47.57498 Y58.1967
G3 F800.0 X47.0 Y58.248 I-0.57498 J-3.1967
G1 X45.73496
G3 X46.248 Y60.0 I-2.73496 J1.752
G1 Y95.0
G3 X45.73624 Y96.75 I-3.248 J0.0
G1 X50.2717
G3 X48.752 Y94.0 I1.7283 J-2.75
G1 Y57.73496
G3 X47.57498 Y58.1967 I-1.752 J-2.73496
G0 Z3.0
G0 X11.92648 Y57.5
G1 F300.0 Z-2.0
G3 F800.0 X11.25 Y56.7283 I2.07352 J-2.5
G1 Y58.2717
G3 X11.92648 Y57.5 I2.75 J1.7283
G0 Z3.0
G0 X11.25 Y96.7283
G1 F300.0 Z-2.0
G1 F800.0 Y96.75
G1 X11.26376
G3 X11.25 Y96.7283 I2.73624 J-1.75
G0 Z3.0
G0 X69.7283 Y96.75
G1 F300.0 Z-2.0
G1 F800.0 X69.75
G1 Y96.73624
G3 X69.7283 Y96.75 I-1.75 J-2.73624
G0 Z3.0
G0 X69.75 Y13.26376
G1 F300.0 Z-2.0
G1 F800.0 Y13.25
G1 X69.7283
G3 X69.75 Y13.26376 I-1.7283 J2.75
G0 Z3.0
G0 X50.2717 Y13.25
G1 F300.0 Z-2.0
G1 F800.0 X48.7283
G3 X49.5 Y13.92648 I-1.7283 J2.75
G3 X50.2717 Y13.25 I2.5 J2.07352
G0 Z3.0
G0 X12.2717
G1 F300.0 Z-2.0
G1 F800.0 X11.25
G1 Y14.2717
G3 X12.2717 Y13.25 I2.75 J1.7283
G1 F300.0 X12.80382 Y14.09667
G3 F800.0 X14.0 Y13.752 I1.19618 J1.90333
G1 X47.0
G3 X49.248 Y16.0 I0.0 J2.248
G1 Y55.0
G3 X47.0 Y57.248 I-2.248 J0.0
G1 X14.0
G3 X11.752 Y55.0 I0.0 J-2.248
G1 Y16.0
G3 X12.80382 Y14.09667 I2.248 J0.0
G1 F300.0 X13.33486 Y14.94166
G3 F800.0 X14.0 Y14.75 I0.66514 J1.05834
G1 X47.0
G3 X48.25 Y16.0 I0.0 J1.25
G1 Y55.0
G3 X47.0 Y56.25 I-1.25 J0.0
G1 X14.0
G3 X12.75 Y55.0 I0.0 J-1.25
G1 Y16.0
G3 X13.33486 Y14.94166 I1.25 J0.0
G0 Z3.0
G0 X49.75284 Y15.93849
G1 F300.0 Z-2.0
G3 F800.0 X52.0 Y13.752 I2.24716 J0.06151
G1 X68.0
G3 X70.248 Y16.0 I0.0 J2.248
G1 Y94.0
G3 X68.0 Y96.248 I-2.248 J0.0
G1 X52.0
G3 X49.752 Y94.0 I0.0 J-2.248
G1 Y16.0
G3 X49.75284 Y15.93849 I2.248 J0.0
G1 F300.0 X50.75047 Y15.9658
G3 F800.0 X52.0 Y14.75 I1.24953 J0.0342
G1 X68.0
G3 X69.25 Y16.0 I0.0 J1.25
G1 Y94.0
G3 X68.0 Y95.25 I-1.25 J0.0
G1 X52.0
G3 X50.75 Y94.0 I0.0 J-1.25
G1 Y16.0
G3 X50.75047 Y15.9658 I1.25 J0.0
G0 Z3.0
G0 X43.38968 Y57.78603
G1 F300.0 Z-2.0
G3 F800.0 X45.248 Y60.0 I-0.38968 J2.21397
G1 Y95.0
G3 X43.0 Y97.248 I-2.248 J0.0
G1 X14.0
G3 X11.752 Y95.0 I0.0 J-2.248
G1 Y60.0
G3 X14.0 Y57.752 I2.248 J0.0
G1 X43.0
G3 X43.38968 Y57.78603 I0.0 J2.248
G1 F300.0 X43.21668 Y58.76892
G3 F800.0 X44.25 Y60.0 I-0.21668 J1.23108
G1 Y95.0
G3 X43.0 Y96.25 I-1.25 J0.0
G1 X14.0
G3 X12.75 Y95.0 I0.0 J-1.25
G1 Y60.0
G3 X14.0 Y58.75 I1.25 J0.0
G1 X43.0
G3 X43.21668 Y58.76892 I0.0 J1.25
G0 Z3.0
G0 X70.75
G1 F300.0 Z-2.0
G1 F800.0 Y12.25
G1 X10.25
G1 Y97.75
G1 X70.75
G1 Y58.76892
G1 F300.0 X71.75
G1 F800.0 Y11.25
G1 X9.25
G1 Y98.75
G1 X71.75
G1 Y58.76892
G0 Z3.0
G0 X47.752 Y59.18091
G1 F300.0 Z-2.5
G3 F800.0 X47.18022 Y59.24418 I-0.752 J-4.18091
G3 X47.248 Y60.0 I-4.18022 J0.75582
G1 Y95.0
G3 X47.18127 Y95.75 I-4.248 J0.0
G1 X48.12921
G3 X47.752 Y94.0 I3.87079 J-1.75
G1 Y59.18091
G1 F300.0 X47.57498 Y58.1967
G3 F800.0 X47.0 Y58.248 I-0.57498 J-3.1967
G1 X45.73496
G3 X46.248 Y60.0 I-2.73496 J1.752
G1 Y95.0
G3 X45.73624 Y96.75 I-3.248 J0.0
G1 X50.2717
G3 X48.752 Y94.0 I1.7283 J-2.75
G1 Y57.73496
G3 X47.57498 Y58.1967 I-1.752 J-2.73496
G0 Z3.0
G0 X11.92648 Y57.5
G1 F300.0 Z-2.5
G3 F800.0 X11.25 Y56.7283 I2.07352 J-2.5
G1 Y58.2717
G3 X11.92648 Y57.5 I2.75 J1.7283
G0 Z3.0
G0 X11.25 Y96.7283
G1 F300.0 Z-2.5
G1 F800.0 Y96.75
G1 X11.26376
G3 X11.25 Y96.7283 I2.73624 J-1.75
G0 Z3.0
G0 X69.7283 Y96.75
G1 F300.0 Z-2.5
G1 F800.0 X69.75
G1 Y96.73624
G3 X69.7283 Y96.75 I-1.75 J-2.73624
G0 Z3.0
G0 X69.75 Y13.26376
G1 F300.0 Z-2.5
G1 F800.0 Y13.25
G1 X69.7283
G3 X69.75 Y13.26376 I-1.7283 J2.75
G0 Z3.0
G0 X50.2717 Y13.25
G1 F300.0 Z-2.5
G1 F800.0 X48.7283
G3 X49.5 Y13.92648 I-1.7283 J2.75
G3 X50.2717 Y13.25 I2.5 J2.07352
G0 Z3.0
G0 X12.2717
G1 F300.0 Z-2.5
G1 F800.0 X11.25
G1 Y14.2717
G3 X12.2717 Y13.25 I2.75 J1.7283
G1 F300.0 X12.80382 Y14.09667
G3 F800.0 X14.0 Y13.752 I1.19618 J1.90333
G1 X47.0
G3 X49.248 Y16.0 I0.0 J2.248
G1 Y55.0
G3 X47.0 Y57.248 I-2.248 J0.0
G1 X14.0
G3 X11.752 Y55.0 I0.0 J-2.248
G1 Y16.0
G3 X12.80382 Y14.09667 I2.248 J0.0
G1 F300.0 X13.33486 Y14.94166
G3 F800.0 X14.0 Y14.75 I0.66514 J1.05834
G1 X47.0
G3 X48.25 Y16.0 I0.0 J1.25
G1 Y55.0
G3 X47.0 Y56.25 I-1.25 J0.0
G1 X14.0
G3 X12.75 Y55.0 I0.0 J-1.25
G1 Y16.0
G3 X13.33486 Y14.94166 I1.25 J0.0
G0 Z3.0
G0 X49.75284 Y15.93849
G1 F300.0 Z-2.5
G3 F800.0 X52.0 Y13.752 I2.24716 J0.06151
G1 X68.0
G3 X70.248 Y16.0 I0.0 J2.248
G1 Y94.0
G3 X68.0 Y96.248 I-2.248 J0.0
G1 X52.0
G3 X49.752 Y94.0 I0.0 J-2.248
G1 Y16.0
G3 X49.75284 Y15.93849 I2.248 J0.0
G1 F300.0 X50.75047 Y15.9658
G3 F800.0 X52.0 Y14.75 I1.24953 J0.0342
G1 X68.0
G3 X69.25 Y16.0 I0.0 J1.25
G1 Y94.0
G3 X68.0 Y95.25 I-1.25 J0.0
G1 X52.0
G3 X50.75 Y94.0 I0.0 J-1.25
G1 Y16.0
G3 X50.75047 Y15.9658 I1.25 J0.0
G0 Z3.0
G0 X43.38968 Y57.78603
G1 F300.0 Z-2.5
G3 F800.0 X45.248 Y60.0 I-0.38968 J2.21397
G1 Y95.0
G3 X43.0 Y97.248 I-2.248 J0.0
G1 X14.0
G3 X11.752 Y95.0 I0.0 J-2.248
G1 Y60.0
G3 X14.0 Y57.752 I2.248 J0.0
G1 X43.0
G3 X43.38968 Y57.78603 I0.0 J2.248
G1 F300.0 X43.21668 Y58.76892
G3 F800.0 X44.25 Y60.0 I-0.21668 J1.23108
G1 Y95.0
G3 X43.0 Y96.25 I-1.25 J0.0
G1 X14.0
G3 X12.75 Y95.0 I0.0 J-1.25
G1 Y60.0
G3 X14.0 Y58.75 I1.25 J0.0
G1 X43.0
G3 X43.21668 Y58.76892 I0.0 J1.25
G0 Z3.0
G0 X70.75
G1 F300.0 Z-2.5
G1 F800.0 Y12.25
G1 X10.25
G1 Y97.75
G1 X70.75
G1 Y58.76892
G1 F300.0 X71.75
G1 F800.0 Y11.25
G1 X9.25
G1 Y98.75
G1 X71.75
G1 Y58.76892
G0 Z3.0
G0 X47.752 Y59.18091
G1 F300.0 Z-3.0
G3 F800.0 X47.18022 Y59.24418 I-0.752 J-4.18091
G3 X47.248 Y60.0 I-4.18022 J0.75582
G1 Y95.0
G3 X47.18127 Y95.75 I-4.248 J0.0
G1 X48.12921
G3 X47.752 Y94.0 I3.87079 J-1.75
G1 Y59.18091
G1 F300.0 X47.57498 Y58.1967
G3 F800.0 X47.0 Y58.248 I-0.57498 J-3.1967
G1 X45.73496
G3 X46.248 Y60.0 I-2.73496 J1.752
G1 Y95.0
G3 X45.73624 Y96.75 I-3.248 J0.0
G1 X50.2717
G3 X48.752 Y94.0 I1.7283 J-2.75
G1 Y57.73496
G3 X47.57498 Y58.1967 I-1.752 J-2.73496
G0 Z3.0
G0 X11.92648 Y57.5
G1 F300.0 Z-3.0
G3 F800.0 X11.25 Y56.7283 I2.07352 J-2.5
G1 Y58.2717
G3 X11.92648 Y57.5 I2.75 J1.7283
G0 Z3.0
G0 X11.25 Y96.7283
G1 F300.0 Z-3.0
G1 F800.0 Y96.75
G1 X11.26376
G3 X11.25 Y96.7283 I2.73624 J-1.75
G0 Z3.0
G0 X69.7283 Y96.75
G1 F300.0 Z-3.0
G1 F800.0 X69.75
G1 Y96.73624
G3 X69.7283 Y96.75 I-1.75 J-2.73624
G0 Z3.0
G0 X69.75 Y13.26376
G1 F300.0 Z-3.0
G1 F800.0 Y13.25
G1 X69.7283
G3 X69.75 Y13.26376 I-1.7283 J2.75
G0 Z3.0
G0 X50.2717 Y13.25
G1 F300.0 Z-3.0
G1 F800.0 X48.7283
G3 X49.5 Y13.92648 I-1.7283 J2.75
G3 X50.2717 Y13.25 I2.5 J2.07352
G0 Z3.0
G0 X12.2717
G1 F300.0 Z-3.0
G1 F800.0 X11.25
G1 Y14.2717
G3 X12.2717 Y13.25 I2.75 J1.7283
G1 F300.0 X12.80382 Y14.09667
G3 F800.0 X14.0 Y13.752 I1.19618 J1.90333
G1 X47.0
G3 X49.248 Y16.0 I0.0 J2.248
G1 Y55.0
G3 X47.0 Y57.248 I-2.248 J0.0
G1 X14.0
G3 X11.752 Y55.0 I0.0 J-2.248
G1 Y16.0
G3 X12.80382 Y14.09667 I2.248 J0.0
G1 F300.0 X13.33486 Y14.94166
G3 F800.0 X14.0 Y14.75 I0.66514 J1.05834
G1 X47.0
G3 X48.25 Y16.0 I0.0 J1.25
G1 Y55.0
G3 X47.0 Y56.25 I-1.25 J0.0
G1 X14.0
G3 X12.75 Y55.0 I0.0 J-1.25
G1 Y16.0
G3 X13.33486 Y14.94166 I1.25 J0.0
G0 Z3.0
G0 X49.75284 Y15.93849
G1 F300.0 Z-3.0
G3 F800.0 X52.0 Y13.752 I2.24716 J0.06151
G1 X68.0
G3 X70.248 Y16.0 I0.0 J2.248
G1 Y94.0
G3 X68.0 Y96.248 I-2.248 J0.0
G1 X52.0
G3 X49.752 Y94.0 I0.0 J-2.248
G1 Y16.0
G3 X49.75284 Y15.93849 I2.248 J0.0
G1 F300.0 X50.75047 Y15.9658
G3 F800.0 X52.0 Y14.75 I1.24953 J0.0342
G1 X68.0
G3 X69.25 Y16.0 I0.0 J1.25
G1 Y94.0
G3 X68.0 Y95.25 I-1.25 J0.0
G1 X52.0
G3 X50.75 Y94.0 I0.0 J-1.25
G1 Y16.0
G3 X50.75047 Y15.9658 I1.25 J0.0
G0 Z3.0
G0 X43.38968 Y57.78603
G1 F300.0 Z-3.0
G3 F800.0 X45.248 Y60.0 I-0.38968 J2.21397
G1 Y95.0
G3 X43.0 Y97.248 I-2.248 J0.0
G1 X14.0
G3 X11.752 Y95.0 I0.0 J-2.248
G1 Y60.0
G3 X14.0 Y57.752 I2.248 J0.0
G1 X43.0
G3 X43.38968 Y57.78603 I0.0 J2.248
G1 F300.0 X43.21668 Y58.76892
G3 F800.0 X44.25 Y60.0 I-0.21668 J1.23108
G1 Y95.0
G3 X43.0 Y96.25 I-1.25 J0.0
G1 X14.0
G3 X12.75 Y95.0 I0.0 J-1.25
G1 Y60.0
G3 X14.0 Y58.75 I1.25 J0.0
G1 X43.0
G3 X43.21668 Y58.76892 I0.0 J1.25
G0 Z3.0
G0 X70.75
G1 F300.0 Z-3.0
G1 F800.0 Y12.25
G1 X10.25
G1 Y97.75
G1 X70.75
G1 Y58.76892
G1 F300.0 X71.75
G1 F800.0 Y11.25
G1 X9.25
G1 Y98.75
G1 X71.75
G1 Y58.76892
G0 Z3.0
G0 X47.752 Y59.18091
G1 F300.0 Z-3.5
G3 F800.0 X47.18022 Y59.24418 I-0.752 J-4.18091
G3 X47.248 Y60.0 I-4.18022 J0.75582
G1 Y95.0
G3 X47.18127 Y95.75 I-4.248 J0.0
G1 X48.12921
G3 X47.752 Y94.0 I3.87079 J-1.75
G1 Y59.18091
G1 F300.0 X47.57498 Y58.1967
G3 F800.0 X47.0 Y58.248 I-0.57498 J-3.1967
G1 X45.73496
G3 X46.248 Y60.0 I-2.73496 J1.752
G1 Y95.0
G3 X45.73624 Y96.75 I-3.248 J0.0
G1 X50.2717
G3 X48.752 Y94.0 I1.7283 J-2.75
G1 Y57.73496
G3 X47.57498 Y58.1967 I-1.752 J-2.73496
G0 Z3.0
G0 X11.92648 Y57.5
G1 F300.0 Z-3.5
G3 F800.0 X11.25 Y56.7283 I2.07352 J-2.5
G1 Y58.2717
G3 X11.92648 Y57.5 I2.75 J1.7283
G0 Z3.0
G0 X11.25 Y96.7283
G1 F300.0 Z-3.5
G1 F800.0 Y96.75
G1 X11.26376
G3 X11.25 Y96.7283 I2.73624 J-1.75
G0 Z3.0
G0 X69.7283 Y96.75
G1 F300.0 Z-3.5
G1 F800.0 X69.75
G1 Y96.73624
G3 X69.7283 Y96.75 I-1.75 J-2.73624
G0 Z3.0
G0 X69.75 Y13.26376
G1 F300.0 Z-3.5
G1 F800.0 Y13.25
G1 X69.7283
G3 X69.75 Y13.26376 I-1.7283 J2.75
G0 Z3.0
G0 X50.2717 Y13.25
G1 F300.0 Z-3.5
G1 F800.0 X48.7283
G3 X49.5 Y13.92648 I-1.7283 J2.75
G3 X50.2717 Y13.25 I2.5 J2.07352
G0 Z3.0
G0 X12.2717
G1 F300.0 Z-3.5
G1 F800.0 X11.25
G1 Y14.2717
G3 X12.2717 Y13.25 I2.75 J1.7283
G1 F300.0 X12.80382 Y14.09667
G3 F800.0 X14.0 Y13.752 I1.19618 J1.90333
G1 X47.0
G3 X49.248 Y16.0 I0.0 J2.248
G1 Y55.0
G3 X47.0 Y57.248 I-2.248 J0.0
G1 X14.0
G3 X11.752 Y55.0 I0.0 J-2.248
G1 Y16.0
G3 X12.80382 Y14.09667 I2.248 J0.0
G1 F300.0 X13.33486 Y14.94166
G3 F800.0 X14.0 Y14.75 I0.66514 J1.05834
G1 X47.0
G3 X48.25 Y16.0 I0.0 J1.25
G1 Y55.0
G3 X47.0 Y56.25 I-1.25 J0.0
G1 X14.0
G3 X12.75 Y55.0 I0.0 J-1.25
G1 Y16.0
G3 X13.33486 Y14.94166 I1.25 J0.0
G0 Z3.0
G0 X49.75284 Y15.93849
G1 F300.0 Z-3.5
G3 F800.0 X52.0 Y13.752 I2.24716 J0.06151
G1 X68.0
G3 X70.248 Y16.0 I0.0 J2.248
G1 Y94.0
G3 X68.0 Y96.248 I-2.248 J0.0
G1 X52.0
G3 X49.752 Y94.0 I0.0 J-2.248
G1 Y16.0
G3 X49.75284 Y15.93849 I2.248 J0.0
G1 F300.0 X50.75047 Y15.9658
G3 F800.0 X52.0 Y14.75 I1.24953 J0.0342
G1 X68.0
G3 X69.25 Y16.0 I0.0 J1.25
G1 Y94.0
G3 X68.0 Y95.25 I-1.25 J0.0
G1 X52.0
G3 X50.75 Y94.0 I0.0 J-1.25
G1 Y16.0
G3 X50.75047 Y15.9658 I1.25 J0.0
G0 Z3.0
G0 X43.38968 Y57.78603
G1 F300.0 Z-3.5
G3 F800.0 X45.248 Y60.0 I-0.38968 J2.21397
G1 Y95.0
G3 X43.0 Y97.248 I-2.248 J0.0
G1 X14.0
G3 X11.752 Y95.0 I0.0 J-2.248
G1 Y60.0
G3 X14.0 Y57.752 I2.248 J0.0
G1 X43.0
G3 X43.38968 Y57.78603 I0.0 J2.248
G1 F300.0 X43.21668 Y58.76892
G3 F800.0 X44.25 Y60.0 I-0.21668 J1.23108
G1 Y95.0
G3 X43.0 Y96.25 I-1.25 J0.0
G1 X14.0
G3 X12.75 Y95.0 I0.0 J-1.25
G1 Y60.0
G3 X14.0 Y58.75 I1.25 J0.0
G1 X43.0
G3 X43.21668 Y58.76892 I0.0 J1.25
G0 Z3.0
G0 X70.75
G1 F300.0 Z-3.5
G1 F800.0 Y12.25
G1 X10.25
G1 Y97.75
G1 X70.75
G1 Y58.76892
G1 F300.0 X71.75
G1 F800.0 Y11.25
G1 X9.25
G1 Y98.75
G1 X71.75
G1 Y58.76892
G0 Z3.0
G0 X47.752 Y59.18091
G1 F300.0 Z-4.0
G3 F800.0 X47.18022 Y59.24418 I-0.752 J-4.18091
G3 X47.248 Y60.0 I-4.18022 J0.75582
G1 Y95.0
G3 X47.18127 Y95.75 I-4.248 J0.0
G1 X48.12921
G3 X47.752 Y94.0 I3.87079 J-1.75
G1 Y59.18091
G1 F300.0 X47.57498 Y58.1967
G3 F800.0 X47.0 Y58.248 I-0.57498 J-3.1967
G1 X45.73496
G3 X46.248 Y60.0 I-2.73496 J1.752
G1 Y95.0
G3 X45.73624 Y96.75 I-3.248 J0.0
G1 X50.2717
G3 X48.752 Y94.0 I1.7283 J-2.75
G1 Y57.73496
G3 X47.57498 Y58.1967 I-1.752 J-2.73496
G0 Z3.0
G0 X11.92648 Y57.5
G1 F300.0 Z-4.0
G3 F800.0 X11.25 Y56.7283 I2.07352 J-2.5
G1 Y58.2717
G3 X11.92648 Y57.5 I2.75 J1.7283
G0 Z3.0
G0 X11.25 Y96.7283
G1 F300.0 Z-4.0
G1 F800.0 Y96.75
G1 X11.26376
G3 X11.25 Y96.7283 I2.73624 J-1.75
G0 Z3.0
G0 X69.7283 Y96.75
G1 F300.0 Z-4.0
G1 F800.0 X69.75
G1 Y96.73624
G3 X69.7283 Y96.75 I-1.75 J-2.73624
G0 Z3.0
G0 X69.75 Y13.26376
G1 F300.0 Z-4.0
G1 F800.0 Y13.25
G1 X69.7283
G3 X69.75 Y13.26376 I-1.7283 J2.75
G0 Z3.0
G0 X50.2717 Y13.25
G1 F300.0 Z-4.0
G1 F800.0 X48.7283
G3 X49.5 Y13.92648 I-1.7283 J2.75
G3 X50.2717 Y13.25 I2.5 J2.07352
G0 Z3.0
G0 X12.2717
G1 F300.0 Z-4.0
G1 F800.0 X11.25
G1 Y14.2717
G3 X12.2717 Y13.25 I2.75 J1.7283
G1 F300.0 X12.80382 Y14.09667
G3 F800.0 X14.0 Y13.752 I1.19618 J1.90333
G1 X47.0
G3 X49.248 Y16.0 I0.0 J2.248
G1 Y55.0
G3 X47.0 Y57.248 I-2.248 J0.0
G1 X14.0
G3 X11.752 Y55.0 I0.0 J-2.248
G1 Y16.0
G3 X12.80382 Y14.09667 I2.248 J0.0
G1 F300.0 X13.33486 Y14.94166
G3 F800.0 X14.0 Y14.75 I0.66514 J1.05834
G1 X47.0
G3 X48.25 Y16.0 I0.0 J1.25
G1 Y55.0
G3 X47.0 Y56.25 I-1.25 J0.0
G1 X14.0
G3 X12.75 Y55.0 I0.0 J-1.25
G1 Y16.0
G3 X13.33486 Y14.94166 I1.25 J0.0
G0 Z3.0
G0 X49.75284 Y15.93849
G1 F300.0 Z-4.0
G3 F800.0 X52.0 Y13.752 I2.24716 J0.06151
G1 X68.0
G3 X70.248 Y16.0 I0.0 J2.248
G1 Y94.0
G3 X68.0 Y96.248 I-2.248 J0.0
G1 X52.0
G3 X49.752 Y94.0 I0.0 J-2.248
G1 Y16.0
G3 X49.75284 Y15.93849 I2.248 J0.0
G1 F300.0 X50.75047 Y15.9658
G3 F800.0 X52.0 Y14.75 I1.24953 J0.0342
G1 X68.0
G3 X69.25 Y16.0 I0.0 J1.25
G1 Y94.0
G3 X68.0 Y95.25 I-1.25 J0.0
G1 X52.0
G3 X50.75 Y94.0 I0.0 J-1.25
G1 Y16.0
G3 X50.75047 Y15.9658 I1.25 J0.0
G0 Z3.0
G0 X43.38968 Y57.78603
G1 F300.0 Z-4.0
G3 F800.0 X45.248 Y60.0 I-0.38968 J2.21397
G1 Y95.0
G3 X43.0 Y97.248 I-2.248 J0.0
G1 X14.0
G3 X11.752 Y95.0 I0.0 J-2.248
G1 Y60.0
G3 X14.0 Y57.752 I2.248 J0.0
G1 X43.0
G3 X43.38968 Y57.78603 I0.0 J2.248
G1 F300.0 X43.21668 Y58.76892
G3 F800.0 X44.25 Y60.0 I-0.21668 J1.23108
G1 Y95.0
G3 X43.0 Y96.25 I-1.25 J0.0
G1 X14.0
G3 X12.75 Y95.0 I0.0 J-1.25
G1 Y60.0
G3 X14.0 Y58.75 I1.25 J0.0
G1 X43.0
G3 X43.21668 Y58.76892 I0.0 J1.25
G0 Z3.0
G0 X70.75
G1 F300.0 Z-4.0
G1 F800.0 Y12.25
G1 X10.25
G1 Y97.75
G1 X70.75
G1 Y58.76892
G1 F300.0 X71.75
G1 F800.0 Y11.25
G1 X9.25
G1 Y98.75
G1 X71.75
G1 Y58.76892
G0 Z3.0
G0 X47.752 Y59.18091
G1 F300.0 Z-4.5
G3 F800.0 X47.18022 Y59.24418 I-0.752 J-4.18091
G3 X47.248 Y60.0 I-4.18022 J0.75582
G1 Y95.0
G3 X47.18127 Y95.75 I-4.248 J0.0
G1 X48.12921
G3 X47.752 Y94.0 I3.87079 J-1.75
G1 Y59.18091
G1 F300.0 X47.57498 Y58.1967
G3 F800.0 X47.0 Y58.248 I-0.57498 J-3.1967
G1 X45.73496
G3 X46.248 Y60.0 I-2.73496 J1.752
G1 Y95.0
G3 X45.73624 Y96.75 I-3.248 J0.0
G1 X50.2717
G3 X48.752 Y94.0 I1.7283 J-2.75
G1 Y57.73496
G3 X47.57498 Y58.1967 I-1.752 J-2.73496
G0 Z3.0
G0 X11.92648 Y57.5
G1 F300.0 Z-4.5
G3 F800.0 X11.25 Y56.7283 I2.07352 J-2.5
G1 Y58.2717
G3 X11.92648 Y57.5 I2.75 J1.7283
G0 Z3.0
G0 X11.25 Y96.7283
G1 F300.0 Z-4.5
G1 F800.0 Y96.75
G1 X11.26376
G3 X11.25 Y96.7283 I2.73624 J-1.75
G0 Z3.0
G0 X69.7283 Y96.75
G1 F300.0 Z-4.5
G1 F800.0 X69.75
G1 Y96.73624
G3 X69.7283 Y96.75 I-1.75 J-2.73624
G0 Z3.0
G0 X69.75 Y13.26376
G1 F300.0 Z-4.5
G1 F800.0 Y13.25
G1 X69.7283
G3 X69.75 Y13.26376 I-1.7283 J2.75
G0 Z3.0
G0 X50.2717 Y13.25
G1 F300.0 Z-4.5
G1 F800.0 X48.7283
G3 X49.5 Y13.92648 I-1.7283 J2.75
G3 X50.2717 Y13.25 I2.5 J2.07352
G0 Z3.0
G0 X12.2717
G1 F300.0 Z-4.5
G1 F800.0 X11.25
G1 Y14.2717
G3 X12.2717 Y13.25 I2.75 J1.7283
G1 F300.0 X12.80382 Y14.09667
G3 F800.0 X14.0 Y13.752 I1.19618 J1.90333
G1 X47.0
G3 X49.248 Y16.0 I0.0 J2.248
G1 Y55.0
G3 X47.0 Y57.248 I-2.248 J0.0
G1 X14.0
G3 X11.752 Y55.0 I0.0 J-2.248
G1 Y16.0
G3 X12.80382 Y14.09667 I2.248 J0.0
G1 F300.0 X13.33486 Y14.94166
G3 F800.0 X14.0 Y14.75 I0.66514 J1.05834
G1 X47.0
G3 X48.25 Y16.0 I0.0 J1.25
G1 Y55.0
G3 X47.0 Y56.25 I-1.25 J0.0
G1 X14.0
G3 X12.75 Y55.0 I0.0 J-1.25
G1 Y16.0
G3 X13.33486 Y14.94166 I1.25 J0.0
G0 Z3.0
G0 X49.75284 Y15.93849
G1 F300.0 Z-4.5
G3 F800.0 X52.0 Y13.752 I2.24716 J0.06151
G1 X68.0
G3 X70.248 Y16.0 I0.0 J2.248
G1 Y94.0
G3 X68.0 Y96.248 I-2.248 J0.0
G1 X52.0
G3 X49.752 Y94.0 I0.0 J-2.248
G1 Y16.0
G3 X49.75284 Y15.93849 I2.248 J0.0
G1 F300.0 X50.75047 Y15.9658
G3 F800.0 X52.0 Y14.75 I1.24953 J0.0342
G1 X68.0
G3 X69.25 Y16.0 I0.0 J1.25
G1 Y94.0
G3 X68.0 Y95.25 I-1.25 J0.0
G1 X52.0
G3 X50.75 Y94.0 I0.0 J-1.25
G1 Y16.0
G3 X50.75047 Y15.9658 I1.25 J0.0
G0 Z3.0
G0 X43.38968 Y57.78603
G1 F300.0 Z-4.5
G3 F800.0 X45.248 Y60.0 I-0.38968 J2.21397
G1 Y95.0
G3 X43.0 Y97.248 I-2.248 J0.0
G1 X14.0
G3 X11.752 Y95.0 I0.0 J-2.248
G1 Y60.0
G3 X14.0 Y57.752 I2.248 J0.0
G1 X43.0
G3 X43.38968 Y57.78603 I0.0 J2.248
G1 F300.0 X43.21668 Y58.76892
G3 F800.0 X44.25 Y60.0 I-0.21668 J1.23108
G1 Y95.0
G3 X43.0 Y96.25 I-1.25 J0.0
G1 X14.0
G3 X12.75 Y95.0 I0.0 J-1.25
G1 Y60.0
G3 X14.0 Y58.75 I1.25 J0.0
G1 X43.0
G3 X43.21668 Y58.76892 I0.0 J1.25
G0 Z3.0
G0 X70.75
G1 F300.0 Z-4.5
G1 F800.0 Y12.25
G1 X10.25
G1 Y97.75
G1 X70.75
G1 Y58.76892
G1 F300.0 X71.75
G1 F800.0 Y11.25
G1 X9.25
G1 Y98.75
G1 X71.75
G1 Y58.76892
G0 Z3.0
G0 X47.752 Y59.18091
G1 F300.0 Z-5.0
G3 F800.0 X47.18022 Y59.24418 I-0.752 J-4.18091
G3 X47.248 Y60.0 I-4.18022 J0.75582
G1 Y95.0
G3 X47.18127 Y95.75 I-4.248 J0.0
G1 X48.12921
G3 X47.752 Y94.0 I3.87079 J-1.75
G1 Y59.18091
G1 F300.0 X47.57498 Y58.1967
G3 F800.0 X47.0 Y58.248 I-0.57498 J-3.1967
G1 X45.73496
G3 X46.248 Y60.0 I-2.73496 J1.752
G1 Y95.0
G3 X45.73624 Y96.75 I-3.248 J0.0
G1 X50.2717
G3 X48.752 Y94.0 I1.7283 J-2.75
G1 Y57.73496
G3 X47.57498 Y58.1967 I-1.752 J-2.73496
G0 Z3.0
G0 X11.92648 Y57.5
G1 F300.0 Z-5.0
G3 F800.0 X11.25 Y56.7283 I2.07352 J-2.5
G1 Y58.2717
G3 X11.92648 Y57.5 I2.75 J1.7283
G0 Z3.0
G0 X11.25 Y96.7283
G1 F300.0 Z-5.0
G1 F800.0 Y96.75
G1 X11.26376
G3 X11.25 Y96.7283 I2.73624 J-1.75
G0 Z3.0
G0 X69.7283 Y96.75
G1 F300.0 Z-5.0
G1 F800.0 X69.75
G1 Y96.73624
G3 X69.7283 Y96.75 I-1.75 J-2.73624
G0 Z3.0
G0 X69.75 Y13.26376
G1 F300.0 Z-5.0
G1 F800.0 Y13.25
G1 X69.7283
G3 X69.75 Y13.26376 I-1.7283 J2.75
G0 Z3.0
G0 X50.2717 Y13.25
G1 F300.0 Z-5.0
G1 F800.0 X48.7283
G3 X49.5 Y13.92648 I-1.7283 J2.75
G3 X50.2717 Y13.25 I2.5 J2.07352
G0 Z3.0
G0 X12.2717
G1 F300.0 Z-5.0
G1 F800.0 X11.25
G1 Y14.2717
G3 X12.2717 Y13.25 I2.75 J1.7283
G1 F300.0 X12.80382 Y14.09667
G3 F800.0 X14.0 Y13.752 I1.19618 J1.90333
G1 X47.0
G3 X49.248 Y16.0 I0.0 J2.248
G1 Y55.0
G3 X47.0 Y57.248 I-2.248 J0.0
G1 X14.0
G3 X11.752 Y55.0 I0.0 J-2.248
G1 Y16.0
G3 X12.80382 Y14.09667 I2.248 J0.0
G1 F300.0 X13.33486 Y14.94166
G3 F800.0 X14.0 Y14.75 I0.66514 J1.05834
G1 X47.0
G3 X48.25 Y16.0 I0.0 J1.25
G1 Y55.0
G3 X47.0 Y56.25 I-1.25 J0.0
G1 X14.0
G3 X12.75 Y55.0 I0.0 J-1.25
G1 Y16.0
G3 X13.33486 Y14.94166 I1.25 J0.0
G0 Z3.0
G0 X49.75284 Y15.93849
G1 F300.0 Z-5.0
G3 F800.0 X52.0 Y13.752 I2.24716 J0.06151
G1 X68.0
G3 X70.248 Y16.0 I0.0 J2.248
G1 Y94.0
G3 X68.0 Y96.248 I-2.248 J0.0
G1 X52.0
G3 X49.752 Y94.0 I0.0 J-2.248
G1 Y16.0
G3 X49.75284 Y15.93849 I2.248 J0.0
G1 F300.0 X50.75047 Y15.9658
G3 F800.0 X52.0 Y14.75 I1.24953 J0.0342
G1 X68.0
G3 X69.25 Y16.0 I0.0 J1.25
G1 Y94.0
G3 X68.0 Y95.25 I-1.25 J0.0
G1 X52.0
G3 X50.75 Y94.0 I0.0 J-1.25
G1 Y16.0
G3 X50.75047 Y15.9658 I1.25 J0.0
G0 Z3.0
G0 X43.38968 Y57.78603
G1 F300.0 Z-5.0
G3 F800.0 X45.248 Y60.0 I-0.38968 J2.21397
G1 Y95.0
G3 X43.0 Y97.248 I-2.248 J0.0
G1 X14.0
G3 X11.752 Y95.0 I0.0 J-2.248
G1 Y60.0
G3 X14.0 Y57.752 I2.248 J0.0
G1 X43.0
G3 X43.38968 Y57.78603 I0.0 J2.248
G1 F300.0 X43.21668 Y58.76892
G3 F800.0 X44.25 Y60.0 I-0.21668 J1.23108
G1 Y95.0
G3 X43.0 Y96.25 I-1.25 J0.0
G1 X14.0
G3 X12.75 Y95.0 I0.0 J-1.25
G1 Y60.0
G3 X14.0 Y58.75 I1.25 J0.0
G1 X43.0
G3 X43.21668 Y58.76892 I0.0 J1.25
G0 Z3.0
G0 X70.75
G1 F300.0 Z-5.0
G1 F800.0 Y12.25
G1 X10.25
G1 Y97.75
G1 X70.75
G1 Y58.76892
G1 F300.0 X71.75
G1 F800.0 Y11.25
G1 X9.25
G1 Y98.75
G1 X71.75
G1 Y58.76892
G0 Z3.0
G0 X47.752 Y59.18091
G1 F300.0 Z-5.5
G3 F800.0 X47.18022 Y59.24418 I-0.752 J-4.18091
G3 X47.248 Y60.0 I-4.18022 J0.75582
G1 Y95.0
G3 X47.18127 Y95.75 I-4.248 J0.0
G1 X48.12921
G3 X47.752 Y94.0 I3.87079 J-1.75
G1 Y59.18091
G1 F300.0 X47.57498 Y58.1967
G3 F800.0 X47.0 Y58.248 I-0.57498 J-3.1967
G1 X45.73496
G3 X46.248 Y60.0 I-2.73496 J1.752
G1 Y95.0
G3 X45.73624 Y96.75 I-3.248 J0.0
G1 X50.2717
G3 X48.752 Y94.0 I1.7283 J-2.75
G1 Y57.73496
G3 X47.57498 Y58.1967 I-1.752 J-2.73496
G0 Z3.0
G0 X11.92648 Y57.5
G1 F300.0 Z-5.5
G3 F800.0 X11.25 Y56.7283 I2.07352 J-2.5
G1 Y58.2717
G3 X11.92648 Y57.5 I2.75 J1.7283
G0 Z3.0
G0 X11.25 Y96.7283
G1 F300.0 Z-5.5
G1 F800.0 Y96.75
G1 X11.26376
G3 X11.25 Y96.7283 I2.73624 J-1.75
G0 Z3.0
G0 X69.7283 Y96.75
G1 F300.0 Z-5.5
G1 F800.0 X69.75
G1 Y96.73624
G3 X69.7283 Y96.75 I-1.75 J-2.73624
G0 Z3.0
G0 X69.75 Y13.26376
G1 F300.0 Z-5.5
G1 F800.0 Y13.25
G1 X69.7283
G3 X69.75 Y13.26376 I-1.7283 J2.75
G0 Z3.0
G0 X50.2717 Y13.25
G1 F300.0 Z-5.5
G1 F800.0 X48.7283
G3 X49.5 Y13.92648 I-1.7283 J2.75
G3 X50.2717 Y13.25 I2.5 J2.07352
G0 Z3.0
G0 X12.2717
G1 F300.0 Z-5.5
G1 F800.0 X11.25
G1 Y14.2717
G3 X12.2717 Y13.25 I2.75 J1.7283
G1 F300.0 X12.80382 Y14.09667
G3 F800.0 X14.0 Y13.752 I1.19618 J1.90333
G1 X47.0
G3 X49.248 Y16.0 I0.0 J2.248
G1 Y55.0
G3 X47.0 Y57.248 I-2.248 J0.0
G1 X14.0
G3 X11.752 Y55.0 I0.0 J-2.248
G1 Y16.0
G3 X12.80382 Y14.09667 I2.248 J0.0
G1 F300.0 X13.33486 Y14.94166
G3 F800.0 X14.0 Y14.75 I0.66514 J1.05834
G1 X47.0
G3 X48.25 Y16.0 I0.0 J1.25
G1 Y55.0
G3 X47.0 Y56.25 I-1.25 J0.0
G1 X14.0
G3 X12.75 Y55.0 I0.0 J-1.25
G1 Y16.0
G3 X13.33486 Y14.94166 I1.25 J0.0
G0 Z3.0
G0 X49.75284 Y15.93849
G1 F300.0 Z-5.5
G3 F800.0 X52.0 Y13.752 I2.24716 J0.06151
G1 X68.0
G3 X70.248 Y16.0 I0.0 J2.248
G1 Y94.0
G3 X68.0 Y96.248 I-2.248 J0.0
G1 X52.0
G3 X49.752 Y94.0 I0.0 J-2.248
G1 Y16.0
G3 X49.75284 Y15.93849 I2.248 J0.0
G1 F300.0 X50.75047 Y15.9658
G3 F800.0 X52.0 Y14.75 I1.24953 J0.0342
G1 X68.0
G3 X69.25 Y16.0 I0.0 J1.25
G1 Y94.0
G3 X68.0 Y95.25 I-1.25 J0.0
G1 X52.0
G3 X50.75 Y94.0 I0.0 J-1.25
G1 Y16.0
G3 X50.75047 Y15.9658 I1.25 J0.0
G0 Z3.0
G0 X43.38968 Y57.78603
G1 F300.0 Z-5.5
G3 F800.0 X45.248 Y60.0 I-0.38968 J2.21397
G1 Y95.0
G3 X43.0 Y97.248 I-2.248 J0.0
G1 X14.0
G3 X11.752 Y95.0 I0.0 J-2.248
G1 Y60.0
G3 X14.0 Y57.752 I2.248 J0.0
G1 X43.0
G3 X43.38968 Y57.78603 I0.0 J2.248
G1 F300.0 X43.21668 Y58.76892
G3 F800.0 X44.25 Y60.0 I-0.21668 J1.23108
G1 Y95.0
G3 X43.0 Y96.25 I-1.25 J0.0
G1 X14.0
G3 X12.75 Y95.0 I0.0 J-1.25
G1 Y60.0
G3 X14.0 Y58.75 I1.25 J0.0
G1 X43.0
G3 X43.21668 Y58.76892 I0.0 J1.25
G0 Z3.0
G0 X70.75
G1 F300.0 Z-5.5
G1 F800.0 Y12.25
G1 X10.25
G1 Y97.75
G1 X70.75
G1 Y58.76892
G1 F300.0 X71.75
G1 F800.0 Y11.25
G1 X9.25
G1 Y98.75
G1 X71.75
G1 Y58.76892
G0 Z3.0
G0 X47.752 Y59.18091
G1 F300.0 Z-6.0
G3 F800.0 X47.18022 Y59.24418 I-0.752 J-4.18091
G3 X47.248 Y60.0 I-4.18022 J0.75582
G1 Y95.0
G3 X47.18127 Y95.75 I-4.248 J0.0
G1 X48.12921
G3 X47.752 Y94.0 I3.87079 J-1.75
G1 Y59.18091
G1 F300.0 X47.57498 Y58.1967
G3 F800.0 X47.0 Y58.248 I-0.57498 J-3.1967
G1 X45.73496
G3 X46.248 Y60.0 I-2.73496 J1.752
G1 Y95.0
G3 X45.73624 Y96.75 I-3.248 J0.0
G1 X50.2717
G3 X48.752 Y94.0 I1.7283 J-2.75
G1 Y57.73496
G3 X47.57498 Y58.1967 I-1.752 J-2.73496
G0 Z3.0
G0 X11.92648 Y57.5
G1 F300.0 Z-6.0
G3 F800.0 X11.25 Y56.7283 I2.07352 J-2.5
G1 Y58.2717
G3 X11.92648 Y57.5 I2.75 J1.7283
G0 Z3.0
G0 X11.25 Y96.7283
G1 F300.0 Z-6.0
G1 F800.0 Y96.75
G1 X11.26376
G3 X11.25 Y96.7283 I2.73624 J-1.75
G0 Z3.0
G0 X69.7283 Y96.75
G1 F300.0 Z-6.0
G1 F800.0 X69.75
G1 Y96.73624
G3 X69.7283 Y96.75 I-1.75 J-2.73624
G0 Z3.0
G0 X69.75 Y13.26376
G1 F300.0 Z-6.0
G1 F800.0 Y13.25
G1 X69.7283
G3 X69.75 Y13.26376 I-1.7283 J2.75
G0 Z3.0
G0 X50.2717 Y13.25
G1 F300.0 Z-6.0
G1 F800.0 X48.7283
G3 X49.5 Y13.92648 I-1.7283 J2.75
G3 X50.2717 Y13.25 I2.5 J2.07352
G0 Z3.0
G0 X12.2717
G1 F300.0 Z-6.0
G1 F800.0 X11.25
G1 Y14.2717
G3 X12.2717 Y13.25 I2.75 J1.7283
G1 F300.0 X12.80382 Y14.09667
G3 F800.0 X14.0 Y13.752 I1.19618 J1.90333
G1 X47.0
G3 X49.248 Y16.0 I0.0 J2.248
G1 Y55.0
G3 X47.0 Y57.248 I-2.248 J0.0
G1 X14.0
G3 X11.752 Y55.0 I0.0 J-2.248
G1 Y16.0
G3 X12.80382 Y14.09667 I2.248 J0.0
G1 F300.0 X13.33486 Y14.94166
G3 F800.0 X14.0 Y14.75 I0.66514 J1.05834
G1 X47.0
G3 X48.25 Y16.0 I0.0 J1.25
G1 Y55.0
G3 X47.0 Y56.25 I-1.25 J0.0
G1 X14.0
G3 X12.75 Y55.0 I0.0 J-1.25
G1 Y16.0
G3 X13.33486 Y14.94166 I1.25 J0.0
G0 Z3.0
G0 X49.75284 Y15.93849
G1 F300.0 Z-6.0
G3 F800.0 X52.0 Y13.752 I2.24716 J0.06151
G1 X68.0
G3 X70.248 Y16.0 I0.0 J2.248
G1 Y94.0
G3 X68.0 Y96.248 I-2.248 J0.0
G1 X52.0
G3 X49.752 Y94.0 I0.0 J-2.248
G1 Y16.0
G3 X49.75284 Y15.93849 I2.248 J0.0
G1 F300.0 X50.75047 Y15.9658
G3 F800.0 X52.0 Y14.75 I1.24953 J0.0342
G1 X68.0
G3 X69.25 Y16.0 I0.0 J1.25
G1 Y94.0
G3 X68.0 Y95.25 I-1.25 J0.0
G1 X52.0
G3 X50.75 Y94.0 I0.0 J-1.25
G1 Y16.0
G3 X50.75047 Y15.9658 I1.25 J0.0
G0 Z3.0
G0 X43.38968 Y57.78603
G1 F300.0 Z-6.0
G3 F800.0 X45.248 Y60.0 I-0.38968 J2.21397
G1 Y95.0
G3 X43.0 Y97.248 I-2.248 J0.0
G1 X14.0
G3 X11.752 Y95.0 I0.0 J-2.248
G1 Y60.0
G3 X14.0 Y57.752 I2.248 J0.0
G1 X43.0
G3 X43.38968 Y57.78603 I0.0 J2.248
G1 F300.0 X43.21668 Y58.76892
G3 F800.0 X44.25 Y60.0 I-0.21668 J1.23108
G1 Y95.0
G3 X43.0 Y96.25 I-1.25 J0.0
G1 X14.0
G3 X12.75 Y95.0 I0.0 J-1.25
G1 Y60.0
G3 X14.0 Y58.75 I1.25 J0.0
G1 X43.0
G3 X43.21668 Y58.76892 I0.0 J1.25
G0 Z3.0
G0 X70.75
G1 F300.0 Z-6.0
G1 F800.0 Y12.25
G1 X10.25
G1 Y97.75
G1 X70.75
G1 Y58.76892
G1 F300.0 X71.75
G1 F800.0 Y11.25
G1 X9.25
G1 Y98.75
G1 X71.75
G1 Y58.76892
G0 Z3.0
G0 X47.752 Y59.18091
G1 F300.0 Z-6.5
G3 F800.0 X47.18022 Y59.24418 I-0.752 J-4.18091
G3 X47.248 Y60.0 I-4.18022 J0.75582
G1 Y95.0
G3 X47.18127 Y95.75 I-4.248 J0.0
G1 X48.12921
G3 X47.752 Y94.0 I3.87079 J-1.75
G1 Y59.18091
G1 F300.0 X47.57498 Y58.1967
G3 F800.0 X47.0 Y58.248 I-0.57498 J-3.1967
G1 X45.73496
G3 X46.248 Y60.0 I-2.73496 J1.752
G1 Y95.0
G3 X45.73624 Y96.75 I-3.248 J0.0
G1 X50.2717
G3 X48.752 Y94.0 I1.7283 J-2.75
G1 Y57.73496
G3 X47.57498 Y58.1967 I-1.752 J-2.73496
G0 Z3.0
G0 X11.92648 Y57.5
G1 F300.0 Z-6.5
G3 F800.0 X11.25 Y56.7283 I2.07352 J-2.5
G1 Y58.2717
G3 X11.92648 Y57.5 I2.75 J1.7283
G0 Z3.0
G0 X11.25 Y96.7283
G1 F300.0 Z-6.5
G1 F800.0 Y96.75
G1 X11.26376
G3 X11.25 Y96.7283 I2.73624 J-1.75
G0 Z3.0
G0 X69.7283 Y96.75
G1 F300.0 Z-6.5
G1 F800.0 X69.75
G1 Y96.73624
G3 X69.7283 Y96.75 I-1.75 J-2.73624
G0 Z3.0
G0 X69.75 Y13.26376
G1 F300.0 Z-6.5
G1 F800.0 Y13.25
G1 X69.7283
G3 X69.75 Y13.26376 I-1.7283 J2.75
G0 Z3.0
G0 X50.2717 Y13.25
G1 F300.0 Z-6.5
G1 F800.0 X48.7283
G3 X49.5 Y13.92648 I-1.7283 J2.75
G3 X50.2717 Y13.25 I2.5 J2.07352
G0 Z3.0
G0 X12.2717
G1 F300.0 Z-6.5
G1 F800.0 X11.25
G1 Y14.2717
G3 X12.2717 Y13.25 I2.75 J1.7283
G1 F300.0 X12.80382 Y14.09667
G3 F800.0 X14.0 Y13.752 I1.19618 J1.90333
G1 X47.0
G3 X49.248 Y16.0 I0.0 J2.248
G1 Y55.0
G3 X47.0 Y57.248 I-2.248 J0.0
G1 X14.0
G3 X11.752 Y55.0 I0.0 J-2.248
G1 Y16.0
G3 X12.80382 Y14.09667 I2.248 J0.0
G1 F300.0 X13.33486 Y14.94166
G3 F800.0 X14.0 Y14.75 I0.66514 J1.05834
G1 X47.0
G3 X48.25 Y16.0 I0.0 J1.25
G1 Y55.0
G3 X47.0 Y56.25 I-1.25 J0.0
G1 X14.0
G3 X12.75 Y55.0 I0.0 J-1.25
G1 Y16.0
G3 X13.33486 Y14.94166 I1.25 J0.0
G0 Z3.0
G0 X49.75284 Y15.93849
G1 F300.0 Z-6.5
G3 F800.0 X52.0 Y13.752 I2.24716 J0.06151
G1 X68.0
G3 X70.248 Y16.0 I0.0 J2.248
G1 Y94.0
G3 X68.0 Y96.248 I-2.248 J0.0
G1 X52.0
G3 X49.752 Y94.0 I0.0 J-2.248
G1 Y16.0
G3 X49.75284 Y15.93849 I2.248 J0.0
G1 F300.0 X50.75047 Y15.9658
G3 F800.0 X52.0 Y14.75 I1.24953 J0.0342
G1 X68.0
G3 X69.25 Y16.0 I0.0 J1.25
G1 Y94.0
G3 X68.0 Y95.25 I-1.25 J0.0
G1 X52.0
G3 X50.75 Y94.0 I0.0 J-1.25
G1 Y16.0
G3 X50.75047 Y15.9658 I1.25 J0.0
G0 Z3.0
G0 X43.38968 Y57.78603
G1 F300.0 Z-6.5
G3 F800.0 X45.248 Y60.0 I-0.38968 J2.21397
G1 Y95.0
G3 X43.0 Y97.248 I-2.248 J0.0
G1 X14.0
G3 X11.752 Y95.0 I0.0 J-2.248
G1 Y60.0
G3 X14.0 Y57.752 I2.248 J0.0
G1 X43.0
G3 X43.38968 Y57.78603 I0.0 J2.248
G1 F300.0 X43.21668 Y58.76892
G3 F800.0 X44.25 Y60.0 I-0.21668 J1.23108
G1 Y95.0
G3 X43.0 Y96.25 I-1.25 J0.0
G1 X14.0
G3 X12.75 Y95.0 I0.0 J-1.25
G1 Y60.0
G3 X14.0 Y58.75 I1.25 J0.0
G1 X43.0
G3 X43.21668 Y58.76892 I0.0 J1.25
G0 Z3.0
G0 X70.75
G1 F300.0 Z-6.5
G1 F800.0 Y12.25
G1 X10.25
G1 Y97.75
G1 X70.75
G1 Y58.76892
G1 F300.0 X71.75
G1 F800.0 Y11.25
G1 X9.25
G1 Y98.75
G1 X71.75
G1 Y58.76892
G0 Z3.0
G0 X47.752 Y59.18091
G1 F300.0 Z-7.0
G3 F800.0 X47.18022 Y59.24418 I-0.752 J-4.18091
G3 X47.248 Y60.0 I-4.18022 J0.75582
G1 Y95.0
G3 X47.18127 Y95.75 I-4.248 J0.0
G1 X48.12921
G3 X47.752 Y94.0 I3.87079 J-1.75
G1 Y59.18091
G1 F300.0 X47.57498 Y58.1967
G3 F800.0 X47.0 Y58.248 I-0.57498 J-3.1967
G1 X45.73496
G3 X46.248 Y60.0 I-2.73496 J1.752
G1 Y95.0
G3 X45.73624 Y96.75 I-3.248 J0.0
G1 X50.2717
G3 X48.752 Y94.0 I1.7283 J-2.75
G1 Y57.73496
G3 X47.57498 Y58.1967 I-1.752 J-2.73496
G0 Z3.0
G0 X11.92648 Y57.5
G1 F300.0 Z-7.0
G3 F800.0 X11.25 Y56.7283 I2.07352 J-2.5
G1 Y58.2717
G3 X11.92648 Y57.5 I2.75 J1.7283
G0 Z3.0
G0 X11.25 Y96.7283
G1 F300.0 Z-7.0
G1 F800.0 Y96.75
G1 X11.26376
G3 X11.25 Y96.7283 I2.73624 J-1.75
G0 Z3.0
G0 X69.7283 Y96.75
G1 F300.0 Z-7.0
G1 F800.0 X69.75
G1 Y96.73624
G3 X69.7283 Y96.75 I-1.75 J-2.73624
G0 Z3.0
G0 X69.75 Y13.26376
G1 F300.0 Z-7.0
G1 F800.0 Y13.25
G1 X69.7283
G3 X69.75 Y13.26376 I-1.7283 J2.75
G0 Z3.0
G0 X50.2717 Y13.25
G1 F300.0 Z-7.0
G1 F800.0 X48.7283
G3 X49.5 Y13.92648 I-1.7283 J2.75
G3 X50.2717 Y13.25 I2.5 J2.07352
G0 Z3.0
G0 X12.2717
G1 F300.0 Z-7.0
G1 F800.0 X11.25
G1 Y14.2717
G3 X12.2717 Y13.25 I2.75 J1.7283
G1 F300.0 X12.80382 Y14.09667
G3 F800.0 X14.0 Y13.752 I1.19618 J1.90333
G1 X47.0
G3 X49.248 Y16.0 I0.0 J2.248
G1 Y55.0
G3 X47.0 Y57.248 I-2.248 J0.0
G1 X14.0
G3 X11.752 Y55.0 I0.0 J-2.248
G1 Y16.0
G3 X12.80382 Y14.09667 I2.248 J0.0
G1 F300.0 X13.33486 Y14.94166
G3 F800.0 X14.0 Y14.75 I0.66514 J1.05834
G1 X47.0
G3 X48.25 Y16.0 I0.0 J1.25
G1 Y55.0
G3 X47.0 Y56.25 I-1.25 J0.0
G1 X14.0
G3 X12.75 Y55.0 I0.0 J-1.25
G1 Y16.0
G3 X13.33486 Y14.94166 I1.25 J0.0
G0 Z3.0
G0 X49.75284 Y15.93849
G1 F300.0 Z-7.0
G3 F800.0 X52.0 Y13.752 I2.24716 J0.06151
G1 X68.0
G3 X70.248 Y16.0 I0.0 J2.248
G1 Y94.0
G3 X68.0 Y96.248 I-2.248 J0.0
G1 X52.0
G3 X49.752 Y94.0 I0.0 J-2.248
G1 Y16.0
G3 X49.75284 Y15.93849 I2.248 J0.0
G1 F300.0 X50.75047 Y15.9658
G3 F800.0 X52.0 Y14.75 I1.24953 J0.0342
G1 X68.0
G3 X69.25 Y16.0 I0.0 J1.25
G1 Y94.0
G3 X68.0 Y95.25 I-1.25 J0.0
G1 X52.0
G3 X50.75 Y94.0 I0.0 J-1.25
G1 Y16.0
G3 X50.75047 Y15.9658 I1.25 J0.0
G0 Z3.0
G0 X43.38968 Y57.78603
G1 F300.0 Z-7.0
G3 F800.0 X45.248 Y60.0 I-0.38968 J2.21397
G1 Y95.0
G3 X43.0 Y97.248 I-2.248 J0.0
G1 X14.0
G3 X11.752 Y95.0 I0.0 J-2.248
G1 Y60.0
G3 X14.0 Y57.752 I2.248 J0.0
G1 X43.0
G3 X43.38968 Y57.78603 I0.0 J2.248
G1 F300.0 X43.21668 Y58.76892
G3 F800.0 X44.25 Y60.0 I-0.21668 J1.23108
G1 Y95.0
G3 X43.0 Y96.25 I-1.25 J0.0
G1 X14.0
G3 X12.75 Y95.0 I0.0 J-1.25
G1 Y60.0
G3 X14.0 Y58.75 I1.25 J0.0
G1 X43.0
G3 X43.21668 Y58.76892 I0.0 J1.25
G0 Z3.0
G0 X70.75
G1 F300.0 Z-7.0
G1 F800.0 Y12.25
G1 X10.25
G1 Y97.75
G1 X70.75
G1 Y58.76892
G1 F300.0 X71.75
G1 F800.0 Y11.25
G1 X9.25
G1 Y98.75
G1 X71.75
G1 Y58.76892
G0 Z3.0
G0 X47.752 Y59.18091
G1 F300.0 Z-7.5
G3 F800.0 X47.18022 Y59.24418 I-0.752 J-4.18091
G3 X47.248 Y60.0 I-4.18022 J0.75582
G1 Y95.0
G3 X47.18127 Y95.75 I-4.248 J0.0
G1 X48.12921
G3 X47.752 Y94.0 I3.87079 J-1.75
G1 Y59.18091
G1 F300.0 X47.57498 Y58.1967
G3 F800.0 X47.0 Y58.248 I-0.57498 J-3.1967
G1 X45.73496
G3 X46.248 Y60.0 I-2.73496 J1.752
G1 Y95.0
G3 X45.73624 Y96.75 I-3.248 J0.0
G1 X50.2717
G3 X48.752 Y94.0 I1.7283 J-2.75
G1 Y57.73496
G3 X47.57498 Y58.1967 I-1.752 J-2.73496
G0 Z3.0
G0 X11.92648 Y57.5
G1 F300.0 Z-7.5
G3 F800.0 X11.25 Y56.7283 I2.07352 J-2.5
G1 Y58.2717
G3 X11.92648 Y57.5 I2.75 J1.7283
G0 Z3.0
G0 X11.25 Y96.7283
G1 F300.0 Z-7.5
G1 F800.0 Y96.75
G1 X11.26376
G3 X11.25 Y96.7283 I2.73624 J-1.75
G0 Z3.0
G0 X69.7283 Y96.75
G1 F300.0 Z-7.5
G1 F800.0 X69.75
G1 Y96.73624
G3 X69.7283 Y96.75 I-1.75 J-2.73624
G0 Z3.0
G0 X69.75 Y13.26376
G1 F300.0 Z-7.5
G1 F800.0 Y13.25
G1 X69.7283
G3 X69.75 Y13.26376 I-1.7283 J2.75
G0 Z3.0
G0 X50.2717 Y13.25
G1 F300.0 Z-7.5
G1 F800.0 X48.7283
G3 X49.5 Y13.92648 I-1.7283 J2.75
G3 X50.2717 Y13.25 I2.5 J2.07352
G0 Z3.0
G0 X12.2717
G1 F300.0 Z-7.5
G1 F800.0 X11.25
G1 Y14.2717
G3 X12.2717 Y13.25 I2.75 J1.7283
G1 F300.0 X12.80382 Y14.09667
G3 F800.0 X14.0 Y13.752 I1.19618 J1.90333
G1 X47.0
G3 X49.248 Y16.0 I0.0 J2.248
G1 Y55.0
G3 X47.0 Y57.248 I-2.248 J0.0
G1 X14.0
G3 X11.752 Y55.0 I0.0 J-2.248
G1 Y16.0
G3 X12.80382 Y14.09667 I2.248 J0.0
G1 F300.0 X13.33486 Y14.94166
G3 F800.0 X14.0 Y14.75 I0.66514 J1.05834
G1 X47.0
G3 X48.25 Y16.0 I0.0 J1.25
G1 Y55.0
G3 X47.0 Y56.25 I-1.25 J0.0
G1 X14.0
G3 X12.75 Y55.0 I0.0 J-1.25
G1 Y16.0
G3 X13.33486 Y14.94166 I1.25 J0.0
G0 Z3.0
G0 X49.75284 Y15.93849
G1 F300.0 Z-7.5
G3 F800.0 X52.0 Y13.752 I2.24716 J0.06151
G1 X68.0
G3 X70.248 Y16.0 I0.0 J2.248
G1 Y94.0
G3 X68.0 Y96.248 I-2.248 J0.0
G1 X52.0
G3 X49.752 Y94.0 I0.0 J-2.248
G1 Y16.0
G3 X49.75284 Y15.93849 I2.248 J0.0
G1 F300.0 X50.75047 Y15.9658
G3 F800.0 X52.0 Y14.75 I1.24953 J0.0342
G1 X68.0
G3 X69.25 Y16.0 I0.0 J1.25
G1 Y94.0
G3 X68.0 Y95.25 I-1.25 J0.0
G1 X52.0
G3 X50.75 Y94.0 I0.0 J-1.25
G1 Y16.0
G3 X50.75047 Y15.9658 I1.25 J0.0
G0 Z3.0
G0 X43.38968 Y57.78603
G1 F300.0 Z-7.5
G3 F800.0 X45.248 Y60.0 I-0.38968 J2.21397
G1 Y95.0
G3 X43.0 Y97.248 I-2.248 J0.0
G1 X14.0
G3 X11.752 Y95.0 I0.0 J-2.248
G1 Y60.0
G3 X14.0 Y57.752 I2.248 J0.0
G1 X43.0
G3 X43.38968 Y57.78603 I0.0 J2.248
G1 F300.0 X43.21668 Y58.76892
G3 F800.0 X44.25 Y60.0 I-0.21668 J1.23108
G1 Y95.0
G3 X43.0 Y96.25 I-1.25 J0.0
G1 X14.0
G3 X12.75 Y95.0 I0.0 J-1.25
G1 Y60.0
G3 X14.0 Y58.75 I1.25 J0.0
G1 X43.0
G3 X43.21668 Y58.76892 I0.0 J1.25
G0 Z3.0
G0 X70.75
G1 F300.0 Z-7.5
G1 F800.0 Y12.25
G1 X10.25
G1 Y97.75
G1 X70.75
G1 Y58.76892
G1 F300.0 X71.75
G1 F800.0 Y11.25
G1 X9.25
G1 Y98.75
G1 X71.75
G1 Y58.76892
G0 Z3.0
G0 X47.752 Y59.18091
G1 F300.0 Z-8.0
G3 F800.0 X47.18022 Y59.24418 I-0.752 J-4.18091
G3 X47.248 Y60.0 I-4.18022 J0.75582
G1 Y95.0
G3 X47.18127 Y95.75 I-4.248 J0.0
G1 X48.12921
G3 X47.752 Y94.0 I3.87079 J-1.75
G1 Y59.18091
G1 F300.0 X47.57498 Y58.1967
G3 F800.0 X47.0 Y58.248 I-0.57498 J-3.1967
G1 X45.73496
G3 X46.248 Y60.0 I-2.73496 J1.752
G1 Y95.0
G3 X45.73624 Y96.75 I-3.248 J0.0
G1 X50.2717
G3 X48.752 Y94.0 I1.7283 J-2.75
G1 Y57.73496
G3 X47.57498 Y58.1967 I-1.752 J-2.73496
G0 Z3.0
G0 X11.92648 Y57.5
G1 F300.0 Z-8.0
G3 F800.0 X11.25 Y56.7283 I2.07352 J-2.5
G1 Y58.2717
G3 X11.92648 Y57.5 I2.75 J1.7283
G0 Z3.0
G0 X11.25 Y96.7283
G1 F300.0 Z-8.0
G1 F800.0 Y96.75
G1 X11.26376
G3 X11.25 Y96.7283 I2.73624 J-1.75
G0 Z3.0
G0 X69.7283 Y96.75
G1 F300.0 Z-8.0
G1 F800.0 X69.75
G1 Y96.73624
G3 X69.7283 Y96.75 I-1.75 J-2.73624
G0 Z3.0
G0 X69.75 Y13.26376
G1 F300.0 Z-8.0
G1 F800.0 Y13.25
G1 X69.7283
G3 X69.75 Y13.26376 I-1.7283 J2.75
G0 Z3.0
G0 X50.2717 Y13.25
G1 F300.0 Z-8.0
G1 F800.0 X48.7283
G3 X49.5 Y13.92648 I-1.7283 J2.75
G3 X50.2717 Y13.25 I2.5 J2.07352
G0 Z3.0
G0 X12.2717
G1 F300.0 Z-8.0
G1 F800.0 X11.25
G1 Y14.2717
G3 X12.2717 Y13.25 I2.75 J1.7283
G1 F300.0 X12.80382 Y14.09667
G3 F800.0 X14.0 Y13.752 I1.19618 J1.90333
G1 X47.0
G3 X49.248 Y16.0 I0.0 J2.248
G1 Y55.0
G3 X47.0 Y57.248 I-2.248 J0.0
G1 X14.0
G3 X11.752 Y55.0 I0.0 J-2.248
G1 Y16.0
G3 X12.80382 Y14.09667 I2.248 J0.0
G1 F300.0 X13.33486 Y14.94166
G3 F800.0 X14.0 Y14.75 I0.66514 J1.05834
G1 X47.0
G3 X48.25 Y16.0 I0.0 J1.25
G1 Y55.0
G3 X47.0 Y56.25 I-1.25 J0.0
G1 X14.0
G3 X12.75 Y55.0 I0.0 J-1.25
G1 Y16.0
G3 X13.33486 Y14.94166 I1.25 J0.0
G0 Z3.0
G0 X49.75284 Y15.93849
G1 F300.0 Z-8.0
G3 F800.0 X52.0 Y13.752 I2.24716 J0.06151
G1 X68.0
G3 X70.248 Y16.0 I0.0 J2.248
G1 Y94.0
G3 X68.0 Y96.248 I-2.248 J0.0
G1 X52.0
G3 X49.752 Y94.0 I0.0 J-2.248
G1 Y16.0
G3 X49.75284 Y15.93849 I2.248 J0.0
G1 F300.0 X50.75047 Y15.9658
G3 F800.0 X52.0 Y14.75 I1.24953 J0.0342
G1 X68.0
G3 X69.25 Y16.0 I0.0 J1.25
G1 Y94.0
G3 X68.0 Y95.25 I-1.25 J0.0
G1 X52.0
G3 X50.75 Y94.0 I0.0 J-1.25
G1 Y16.0
G3 X50.75047 Y15.9658 I1.25 J0.0
G0 Z3.0
G0 X43.38968 Y57.78603
G1 F300.0 Z-8.0
G3 F800.0 X45.248 Y60.0 I-0.38968 J2.21397
G1 Y95.0
G3 X43.0 Y97.248 I-2.248 J0.0
G1 X14.0
G3 X11.752 Y95.0 I0.0 J-2.248
G1 Y60.0
G3 X14.0 Y57.752 I2.248 J0.0
G1 X43.0
G3 X43.38968 Y57.78603 I0.0 J2.248
G1 F300.0 X43.21668 Y58.76892
G3 F800.0 X44.25 Y60.0 I-0.21668 J1.23108
G1 Y95.0
G3 X43.0 Y96.25 I-1.25 J0.0
G1 X14.0
G3 X12.75 Y95.0 I0.0 J-1.25
G1 Y60.0
G3 X14.0 Y58.75 I1.25 J0.0
G1 X43.0
G3 X43.21668 Y58.76892 I0.0 J1.25
G0 Z3.0
G0 X70.75
G1 F300.0 Z-8.0
G1 F800.0 Y12.25
G1 X10.25
G1 Y97.75
G1 X70.75
G1 Y58.76892
G1 F300.0 X71.75
G1 F800.0 Y11.25
G1 X9.25
G1 Y98.75
G1 X71.75
G1 Y58.76892
G0 Z3.0
G0 X47.752 Y59.18091
G1 F300.0 Z-8.5
G3 F800.0 X47.18022 Y59.24418 I-0.752 J-4.18091
G3 X47.248 Y60.0 I-4.18022 J0.75582
G1 Y95.0
G3 X47.18127 Y95.75 I-4.248 J0.0
G1 X48.12921
G3 X47.752 Y94.0 I3.87079 J-1.75
G1 Y59.18091
G1 F300.0 X47.57498 Y58.1967
G3 F800.0 X47.0 Y58.248 I-0.57498 J-3.1967
G1 X45.73496
G3 X46.248 Y60.0 I-2.73496 J1.752
G1 Y95.0
G3 X45.73624 Y96.75 I-3.248 J0.0
G1 X50.2717
G3 X48.752 Y94.0 I1.7283 J-2.75
G1 Y57.73496
G3 X47.57498 Y58.1967 I-1.752 J-2.73496
G0 Z3.0
G0 X11.92648 Y57.5
G1 F300.0 Z-8.5
G3 F800.0 X11.25 Y56.7283 I2.07352 J-2.5
G1 Y58.2717
G3 X11.92648 Y57.5 I2.75 J1.7283
G0 Z3.0
G0 X11.25 Y96.7283
G1 F300.0 Z-8.5
G1 F800.0 Y96.75
G1 X11.26376
G3 X11.25 Y96.7283 I2.73624 J-1.75
G0 Z3.0
G0 X69.7283 Y96.75
G1 F300.0 Z-8.5
G1 F800.0 X69.75
G1 Y96.73624
G3 X69.7283 Y96.75 I-1.75 J-2.73624
G0 Z3.0
G0 X69.75 Y13.26376
G1 F300.0 Z-8.5
G1 F800.0 Y13.25
G1 X69.7283
G3 X69.75 Y13.26376 I-1.7283 J2.75
G0 Z3.0
G0 X50.2717 Y13.25
G1 F300.0 Z-8.5
G1 F800.0 X48.7283
G3 X49.5 Y13.92648 I-1.7283 J2.75
G3 X50.2717 Y13.25 I2.5 J2.07352
G0 Z3.0
G0 X12.2717
G1 F300.0 Z-8.5
G1 F800.0 X11.25
G1 Y14.2717
G3 X12.2717 Y13.25 I2.75 J1.7283
G1 F300.0 X12.80382 Y14.09667
G3 F800.0 X14.0 Y13.752 I1.19618 J1.90333
G1 X47.0
G3 X49.248 Y16.0 I0.0 J2.248
G1 Y55.0
G3 X47.0 Y57.248 I-2.248 J0.0
G1 X14.0
G3 X11.752 Y55.0 I0.0 J-2.248
G1 Y16.0
G3 X12.80382 Y14.09667 I2.248 J0.0
G1 F300.0 X13.33486 Y14.94166
G3 F800.0 X14.0 Y14.75 I0.66514 J1.05834
G1 X47.0
G3 X48.25 Y16.0 I0.0 J1.25
G1 Y55.0
G3 X47.0 Y56.25 I-1.25 J0.0
G1 X14.0
G3 X12.75 Y55.0 I0.0 J-1.25
G1 Y16.0
G3 X13.33486 Y14.94166 I1.25 J0.0
G0 Z3.0
G0 X49.75284 Y15.93849
G1 F300.0 Z-8.5
G3 F800.0 X52.0 Y13.752 I2.24716 J0.06151
G1 X68.0
G3 X70.248 Y16.0 I0.0 J2.248
G1 Y94.0
G3 X68.0 Y96.248 I-2.248 J0.0
G1 X52.0
G3 X49.752 Y94.0 I0.0 J-2.248
G1 Y16.0
G3 X49.75284 Y15.93849 I2.248 J0.0
G1 F300.0 X50.75047 Y15.9658
G3 F800.0 X52.0 Y14.75 I1.24953 J0.0342
G1 X68.0
G3 X69.25 Y16.0 I0.0 J1.25
G1 Y94.0
G3 X68.0 Y95.25 I-1.25 J0.0
G1 X52.0
G3 X50.75 Y94.0 I0.0 J-1.25
G1 Y16.0
G3 X50.75047 Y15.9658 I1.25 J0.0
G0 Z3.0
G0 X43.38968 Y57.78603
G1 F300.0 Z-8.5
G3 F800.0 X45.248 Y60.0 I-0.38968 J2.21397
G1 Y95.0
G3 X43.0 Y97.248 I-2.248 J0.0
G1 X14.0
G3 X11.752 Y95.0 I0.0 J-2.248
G1 Y60.0
G3 X14.0 Y57.752 I2.248 J0.0
G1 X43.0
G3 X43.38968 Y57.78603 I0.0 J2.248
G1 F300.0 X43.21668 Y58.76892
G3 F800.0 X44.25 Y60.0 I-0.21668 J1.23108
G1 Y95.0
G3 X43.0 Y96.25 I-1.25 J0.0
G1 X14.0
G3 X12.75 Y95.0 I0.0 J-1.25
G1 Y60.0
G3 X14.0 Y58.75 I1.25 J0.0
G1 X43.0
G3 X43.21668 Y58.76892 I0.0 J1.25
G0 Z3.0
G0 X70.75
G1 F300.0 Z-8.5
G1 F800.0 Y12.25
G1 X10.25
G1 Y97.75
G1 X70.75
G1 Y58.76892
G1 F300.0 X71.75
G1 F800.0 Y11.25
G1 X9.25
G1 Y98.75
G1 X71.75
G1 Y58.76892
G0 Z3.0
G0 X47.752 Y59.18091
G1 F300.0 Z-9.0
G3 F800.0 X47.18022 Y59.24418 I-0.752 J-4.18091
G3 X47.248 Y60.0 I-4.18022 J0.75582
G1 Y95.0
G3 X47.18127 Y95.75 I-4.248 J0.0
G1 X48.12921
G3 X47.752 Y94.0 I3.87079 J-1.75
G1 Y59.18091
G1 F300.0 X47.57498 Y58.1967
G3 F800.0 X47.0 Y58.248 I-0.57498 J-3.1967
G1 X45.73496
G3 X46.248 Y60.0 I-2.73496 J1.752
G1 Y95.0
G3 X45.73624 Y96.75 I-3.248 J0.0
G1 X50.2717
G3 X48.752 Y94.0 I1.7283 J-2.75
G1 Y57.73496
G3 X47.57498 Y58.1967 I-1.752 J-2.73496
G0 Z3.0
G0 X11.92648 Y57.5
G1 F300.0 Z-9.0
G3 F800.0 X11.25 Y56.7283 I2.07352 J-2.5
G1 Y58.2717
G3 X11.92648 Y57.5 I2.75 J1.7283
G0 Z3.0
G0 X11.25 Y96.7283
G1 F300.0 Z-9.0
G1 F800.0 Y96.75
G1 X11.26376
G3 X11.25 Y96.7283 I2.73624 J-1.75
G0 Z3.0
G0 X69.7283 Y96.75
G1 F300.0 Z-9.0
G1 F800.0 X69.75
G1 Y96.73624
G3 X69.7283 Y96.75 I-1.75 J-2.73624
G0 Z3.0
G0 X69.75 Y13.26376
G1 F300.0 Z-9.0
G1 F800.0 Y13.25
G1 X69.7283
G3 X69.75 Y13.26376 I-1.7283 J2.75
G0 Z3.0
G0 X50.2717 Y13.25
G1 F300.0 Z-9.0
G1 F800.0 X48.7283
G3 X49.5 Y13.92648 I-1.7283 J2.75
G3 X50.2717 Y13.25 I2.5 J2.07352
G0 Z3.0
G0 X12.2717
G1 F300.0 Z-9.0
G1 F800.0 X11.25
G1 Y14.2717
G3 X12.2717 Y13.25 I2.75 J1.7283
G1 F300.0 X12.80382 Y14.09667
G3 F800.0 X14.0 Y13.752 I1.19618 J1.90333
G1 X47.0
G3 X49.248 Y16.0 I0.0 J2.248
G1 Y55.0
G3 X47.0 Y57.248 I-2.248 J0.0
G1 X14.0
G3 X11.752 Y55.0 I0.0 J-2.248
G1 Y16.0
G3 X12.80382 Y14.09667 I2.248 J0.0
G1 F300.0 X13.33486 Y14.94166
G3 F800.0 X14.0 Y14.75 I0.66514 J1.05834
G1 X47.0
G3 X48.25 Y16.0 I0.0 J1.25
G1 Y55.0
G3 X47.0 Y56.25 I-1.25 J0.0
G1 X14.0
G3 X12.75 Y55.0 I0.0 J-1.25
G1 Y16.0
G3 X13.33486 Y14.94166 I1.25 J0.0
G0 Z3.0
G0 X49.75284 Y15.93849
G1 F300.0 Z-9.0
G3 F800.0 X52.0 Y13.752 I2.24716 J0.06151
G1 X68.0
G3 X70.248 Y16.0 I0.0 J2.248
G1 Y94.0
G3 X68.0 Y96.248 I-2.248 J0.0
G1 X52.0
G3 X49.752 Y94.0 I0.0 J-2.248
G1 Y16.0
G3 X49.75284 Y15.93849 I2.248 J0.0
G1 F300.0 X50.75047 Y15.9658
G3 F800.0 X52.0 Y14.75 I1.24953 J0.0342
G1 X68.0
G3 X69.25 Y16.0 I0.0 J1.25
G1 Y94.0
G3 X68.0 Y95.25 I-1.25 J0.0
G1 X52.0
G3 X50.75 Y94.0 I0.0 J-1.25
G1 Y16.0
G3 X50.75047 Y15.9658 I1.25 J0.0
G0 Z3.0
G0 X43.38968 Y57.78603
G1 F300.0 Z-9.0
G3 F800.0 X45.248 Y60.0 I-0.38968 J2.21397
G1 Y95.0
G3 X43.0 Y97.248 I-2.248 J0.0
G1 X14.0
G3 X11.752 Y95.0 I0.0 J-2.248
G1 Y60.0
G3 X14.0 Y57.752 I2.248 J0.0
G1 X43.0
G3 X43.38968 Y57.78603 I0.0 J2.248
G1 F300.0 X43.21668 Y58.76892
G3 F800.0 X44.25 Y60.0 I-0.21668 J1.23108
G1 Y95.0
G3 X43.0 Y96.25 I-1.25 J0.0
G1 X14.0
G3 X12.75 Y95.0 I0.0 J-1.25
G1 Y60.0
G3 X14.0 Y58.75 I1.25 J0.0
G1 X43.0
G3 X43.21668 Y58.76892 I0.0 J1.25
G0 Z3.0
G0 X70.75
G1 F300.0 Z-9.0
G1 F800.0 Y12.25
G1 X10.25
G1 Y97.75
G1 X70.75
G1 Y58.76892
G1 F300.0 X71.75
G1 F800.0 Y11.25
G1 X9.25
G1 Y98.75
G1 X71.75
G1 Y58.76892
G0 Z3.0
G0 X47.752 Y59.18091
G1 F300.0 Z-9.5
G3 F800.0 X47.18022 Y59.24418 I-0.752 J-4.18091
G3 X47.248 Y60.0 I-4.18022 J0.75582
G1 Y95.0
G3 X47.18127 Y95.75 I-4.248 J0.0
G1 X48.12921
G3 X47.752 Y94.0 I3.87079 J-1.75
G1 Y59.18091
G1 F300.0 X47.57498 Y58.1967
G3 F800.0 X47.0 Y58.248 I-0.57498 J-3.1967
G1 X45.73496
G3 X46.248 Y60.0 I-2.73496 J1.752
G1 Y95.0
G3 X45.73624 Y96.75 I-3.248 J0.0
G1 X50.2717
G3 X48.752 Y94.0 I1.7283 J-2.75
G1 Y57.73496
G3 X47.57498 Y58.1967 I-1.752 J-2.73496
G0 Z3.0
G0 X11.92648 Y57.5
G1 F300.0 Z-9.5
G3 F800.0 X11.25 Y56.7283 I2.07352 J-2.5
G1 Y58.2717
G3 X11.92648 Y57.5 I2.75 J1.7283
G0 Z3.0
G0 X11.25 Y96.7283
G1 F300.0 Z-9.5
G1 F800.0 Y96.75
G1 X11.26376
G3 X11.25 Y96.7283 I2.73624 J-1.75
G0 Z3.0
G0 X69.7283 Y96.75
G1 F300.0 Z-9.5
G1 F800.0 X69.75
G1 Y96.73624
G3 X69.7283 Y96.75 I-1.75 J-2.73624
G0 Z3.0
G0 X69.75 Y13.26376
G1 F300.0 Z-9.5
G1 F800.0 Y13.25
G1 X69.7283
G3 X69.75 Y13.26376 I-1.7283 J2.75
G0 Z3.0
G0 X50.2717 Y13.25
G1 F300.0 Z-9.5
G1 F800.0 X48.7283
G3 X49.5 Y13.92648 I-1.7283 J2.75
G3 X50.2717 Y13.25 I2.5 J2.07352
G0 Z3.0
G0 X12.2717
G1 F300.0 Z-9.5
G1 F800.0 X11.25
G1 Y14.2717
G3 X12.2717 Y13.25 I2.75 J1.7283
G1 F300.0 X12.80382 Y14.09667
G3 F800.0 X14.0 Y13.752 I1.19618 J1.90333
G1 X47.0
G3 X49.248 Y16.0 I0.0 J2.248
G1 Y55.0
G3 X47.0 Y57.248 I-2.248 J0.0
G1 X14.0
G3 X11.752 Y55.0 I0.0 J-2.248
G1 Y16.0
G3 X12.80382 Y14.09667 I2.248 J0.0
G1 F300.0 X13.33486 Y14.94166
G3 F800.0 X14.0 Y14.75 I0.66514 J1.05834
G1 X47.0
G3 X48.25 Y16.0 I0.0 J1.25
G1 Y55.0
G3 X47.0 Y56.25 I-1.25 J0.0
G1 X14.0
G3 X12.75 Y55.0 I0.0 J-1.25
G1 Y16.0
G3 X13.33486 Y14.94166 I1.25 J0.0
G0 Z3.0
G0 X49.75284 Y15.93849
G1 F300.0 Z-9.5
G3 F800.0 X52.0 Y13.752 I2.24716 J0.06151
G1 X68.0
G3 X70.248 Y16.0 I0.0 J2.248
G1 Y94.0
G3 X68.0 Y96.248 I-2.248 J0.0
G1 X52.0
G3 X49.752 Y94.0 I0.0 J-2.248
G1 Y16.0
G3 X49.75284 Y15.93849 I2.248 J0.0
G1 F300.0 X50.75047 Y15.9658
G3 F800.0 X52.0 Y14.75 I1.24953 J0.0342
G1 X68.0
G3 X69.25 Y16.0 I0.0 J1.25
G1 Y94.0
G3 X68.0 Y95.25 I-1.25 J0.0
G1 X52.0
G3 X50.75 Y94.0 I0.0 J-1.25
G1 Y16.0
G3 X50.75047 Y15.9658 I1.25 J0.0
G0 Z3.0
G0 X43.38968 Y57.78603
G1 F300.0 Z-9.5
G3 F800.0 X45.248 Y60.0 I-0.38968 J2.21397
G1 Y95.0
G3 X43.0 Y97.248 I-2.248 J0.0
G1 X14.0
G3 X11.752 Y95.0 I0.0 J-2.248
G1 Y60.0
G3 X14.0 Y57.752 I2.248 J0.0
G1 X43.0
G3 X43.38968 Y57.78603 I0.0 J2.248
G1 F300.0 X43.21668 Y58.76892
G3 F800.0 X44.25 Y60.0 I-0.21668 J1.23108
G1 Y95.0
G3 X43.0 Y96.25 I-1.25 J0.0
G1 X14.0
G3 X12.75 Y95.0 I0.0 J-1.25
G1 Y60.0
G3 X14.0 Y58.75 I1.25 J0.0
G1 X43.0
G3 X43.21668 Y58.76892 I0.0 J1.25
G0 Z3.0
G0 X70.75
G1 F300.0 Z-9.5
G1 F800.0 Y12.25
G1 X10.25
G1 Y97.75
G1 X70.75
G1 Y58.76892
G1 F300.0 X71.75
G1 F800.0 Y11.25
G1 X9.25
G1 Y98.75
G1 X71.75
G1 Y58.76892
G0 Z3.0
G0 X47.752 Y59.18091
G1 F300.0 Z-10.0
G3 F800.0 X47.18022 Y59.24418 I-0.752 J-4.18091
G3 X47.248 Y60.0 I-4.18022 J0.75582
G1 Y95.0
G3 X47.18127 Y95.75 I-4.248 J0.0
G1 X48.12921
G3 X47.752 Y94.0 I3.87079 J-1.75
G1 Y59.18091
G1 F300.0 X47.57498 Y58.1967
G3 F800.0 X47.0 Y58.248 I-0.57498 J-3.1967
G1 X45.73496
G3 X46.248 Y60.0 I-2.73496 J1.752
G1 Y95.0
G3 X45.73624 Y96.75 I-3.248 J0.0
G1 X50.2717
G3 X48.752 Y94.0 I1.7283 J-2.75
G1 Y57.73496
G3 X47.57498 Y58.1967 I-1.752 J-2.73496
G0 Z3.0
G0 X11.92648 Y57.5
G1 F300.0 Z-10.0
G3 F800.0 X11.25 Y56.7283 I2.07352 J-2.5
G1 Y58.2717
G3 X11.92648 Y57.5 I2.75 J1.7283
G0 Z3.0
G0 X11.25 Y96.7283
G1 F300.0 Z-10.0
G1 F800.0 Y96.75
G1 X11.26376
G3 X11.25 Y96.7283 I2.73624 J-1.75
G0 Z3.0
G0 X69.7283 Y96.75
G1 F300.0 Z-10.0
G1 F800.0 X69.75
G1 Y96.73624
G3 X69.7283 Y96.75 I-1.75 J-2.73624
G0 Z3.0
G0 X69.75 Y13.26376
G1 F300.0 Z-10.0
G1 F800.0 Y13.25
G1 X69.7283
G3 X69.75 Y13.26376 I-1.7283 J2.75
G0 Z3.0
G0 X50.2717 Y13.25
G1 F300.0 Z-10.0
G1 F800.0 X48.7283
G3 X49.5 Y13.92648 I-1.7283 J2.75
G3 X50.2717 Y13.25 I2.5 J2.07352
G0 Z3.0
G0 X12.2717
G1 F300.0 Z-10.0
G1 F800.0 X11.25
G1 Y14.2717
G3 X12.2717 Y13.25 I2.75 J1.7283
G1 F300.0 X12.80382 Y14.09667
G3 F800.0 X14.0 Y13.752 I1.19618 J1.90333
G1 X47.0
G3 X49.248 Y16.0 I0.0 J2.248
G1 Y55.0
G3 X47.0 Y57.248 I-2.248 J0.0
G1 X14.0
G3 X11.752 Y55.0 I0.0 J-2.248
G1 Y16.0
G3 X12.80382 Y14.09667 I2.248 J0.0
G1 F300.0 X13.33486 Y14.94166
G3 F800.0 X14.0 Y14.75 I0.66514 J1.05834
G1 X47.0
G3 X48.25 Y16.0 I0.0 J1.25
G1 Y55.0
G3 X47.0 Y56.25 I-1.25 J0.0
G1 X14.0
G3 X12.75 Y55.0 I0.0 J-1.25
G1 Y16.0
G3 X13.33486 Y14.94166 I1.25 J0.0
G0 Z3.0
G0 X49.75284 Y15.93849
G1 F300.0 Z-10.0
G3 F800.0 X52.0 Y13.752 I2.24716 J0.06151
G1 X68.0
G3 X70.248 Y16.0 I0.0 J2.248
G1 Y94.0
G3 X68.0 Y96.248 I-2.248 J0.0
G1 X52.0
G3 X49.752 Y94.0 I0.0 J-2.248
G1 Y16.0
G3 X49.75284 Y15.93849 I2.248 J0.0
G1 F300.0 X50.75047 Y15.9658
G3 F800.0 X52.0 Y14.75 I1.24953 J0.0342
G1 X68.0
G3 X69.25 Y16.0 I0.0 J1.25
G1 Y94.0
G3 X68.0 Y95.25 I-1.25 J0.0
G1 X52.0
G3 X50.75 Y94.0 I0.0 J-1.25
G1 Y16.0
G3 X50.75047 Y15.9658 I1.25 J0.0
G0 Z3.0
G0 X43.38968 Y57.78603
G1 F300.0 Z-10.0
G3 F800.0 X45.248 Y60.0 I-0.38968 J2.21397
G1 Y95.0
G3 X43.0 Y97.248 I-2.248 J0.0
G1 X14.0
G3 X11.752 Y95.0 I0.0 J-2.248
G1 Y60.0
G3 X14.0 Y57.752 I2.248 J0.0
G1 X43.0
G3 X43.38968 Y57.78603 I0.0 J2.248
G1 F300.0 X43.21668 Y58.76892
G3 F800.0 X44.25 Y60.0 I-0.21668 J1.23108
G1 Y95.0
G3 X43.0 Y96.25 I-1.25 J0.0
G1 X14.0
G3 X12.75 Y95.0 I0.0 J-1.25
G1 Y60.0
G3 X14.0 Y58.75 I1.25 J0.0
G1 X43.0
G3 X43.21668 Y58.76892 I0.0 J1.25
G0 Z3.0
G0 X70.75
G1 F300.0 Z-10.0
G1 F800.0 Y12.25
G1 X10.25
G1 Y97.75
G1 X70.75
G1 Y58.76892
G1 F300.0 X71.75
G1 F800.0 Y11.25
G1 X9.25
G1 Y98.75
G1 X71.75
G1 Y58.76892
G0 Z3.0
M5
M30
