( Made using CamBam - http://www.cambam.co.uk )
( HomeSensor_Positive_Mold 5/11/2015 6:41:47 PM )
( T0 : 2.5 )
G21 G90 G61 G40
G0 Z3.0
( T0 : 2.5 )
T0 M6
( Case - inside level all  -4.5 )
(DAQ-------------------------)
G17
M3 S1000
G0 X14.25 Y15.25
G1 F300.0 Z-1.0
G1 F800.0 Y17.76863
G3 X16.76863 Y15.25 I4.75 J2.23137
G1 X14.25
G0 Z3.0
G0 X54.23137
G1 F300.0 Z-1.0
G3 F800.0 X54.5 Y15.38573 I-2.23137 J4.75
G3 X54.76863 Y15.25 I2.5 J4.61427
G1 X54.23137
G0 Z3.0
G0 X75.23137
G1 F300.0 Z-1.0
G3 F800.0 X77.75 Y17.76863 I-2.23137 J4.75
G1 Y15.25
G1 X75.23137
G0 Z3.0
G0 X14.25 Y61.23137
G1 F300.0 Z-1.0
G1 F800.0 Y61.76863
G3 X14.38573 Y61.5 I4.75 J2.23137
G3 X14.25 Y61.23137 I4.61427 J-2.5
G0 Z3.0
G0 X20.25 Y72.25
G1 F300.0 Z-1.0
G1 F800.0 Y77.75
G1 X22.75
G1 Y72.25
G1 X20.25
G0 Z3.0
G0 X17.75
G1 F300.0 Z-1.0
G1 F800.0 Y64.0
G3 X19.0 Y62.75 I1.25 J0.0
G1 X48.0
G3 X49.25 Y64.0 I0.0 J1.25
G1 Y99.0
G3 X48.0 Y100.25 I-1.25 J0.0
G1 X19.0
G3 X17.75 Y99.0 I0.0 J-1.25
G1 Y72.25
G1 F300.0 X16.752
G1 F800.0 Y99.0
G2 X19.0 Y101.248 I2.248 J0.0
G1 X48.0
G2 X50.248 Y99.0 I0.0 J-2.248
G1 Y64.0
G2 X48.0 Y61.752 I-2.248 J0.0
G1 X19.0
G2 X16.752 Y64.0 I0.0 J2.248
G1 Y72.25
G0 Z3.0
G0 X14.25 Y101.23137
G1 F300.0 Z-1.0
G1 F800.0 Y103.75
G1 X16.76863
G3 X14.25 Y101.23137 I2.23137 J-4.75
G0 Z3.0
G0 X50.23137 Y103.75
G1 F300.0 Z-1.0
G1 F800.0 X77.75
G1 Y100.23137
G3 X73.0 Y103.248 I-4.75 J-2.23137
G1 X57.0
G3 X52.79304 Y101.13735 I0.0 J-5.248
G3 X50.23137 Y103.75 I-4.79304 J-2.13735
G0 Z3.0
G0 X55.28674 Y99.45542
G1 F300.0 Z-1.0
G3 F800.0 X54.752 Y98.0 I1.71326 J-1.45542
G1 Y20.0
G3 X57.0 Y17.752 I2.248 J0.0
G1 X73.0
G3 X75.248 Y20.0 I0.0 J2.248
G1 Y98.0
G3 X73.0 Y100.248 I-2.248 J0.0
G1 X57.0
G3 X55.28674 Y99.45542 I0.0 J-2.248
G1 F300.0 X56.04734 Y98.80929
G3 F800.0 X55.75 Y98.0 I0.95266 J-0.80929
G1 Y20.0
G3 X57.0 Y18.75 I1.25 J0.0
G1 X73.0
G3 X74.25 Y20.0 I0.0 J1.25
G1 Y98.0
G3 X73.0 Y99.25 I-1.25 J0.0
G1 X57.0
G3 X56.04734 Y98.80929 I0.0 J-1.25
G0 Z3.0
G0 X52.22738 Y61.23647
G1 F300.0 Z-1.0
G3 F800.0 X52.0 Y61.248 I-0.22738 J-2.23647
G1 X19.0
G3 X16.752 Y59.0 I0.0 J-2.248
G1 Y20.0
G3 X19.0 Y17.752 I2.248 J0.0
G1 X52.0
G3 X54.248 Y20.0 I0.0 J2.248
G1 Y59.0
G3 X52.22738 Y61.23647 I-2.248 J0.0
G1 F300.0 X52.12643 Y60.24359
G3 F800.0 X52.0 Y60.25 I-0.12643 J-1.24359
G1 X19.0
G3 X17.75 Y59.0 I0.0 J-1.25
G1 Y20.0
G3 X19.0 Y18.75 I1.25 J0.0
G1 X52.0
G3 X53.25 Y20.0 I0.0 J1.25
G1 Y59.0
G3 X52.12643 Y60.24359 I-1.25 J0.0
G0 Z3.0
G0 X52.32853 Y62.23134
G1 F300.0 Z-1.0
G2 F800.0 X53.752 Y61.73496 I-0.32853 J-3.23134
G1 Y98.0
G2 X57.0 Y101.248 I3.248 J0.0
G1 X73.0
G2 X76.248 Y98.0 I0.0 J-3.248
G1 Y20.0
G2 X73.0 Y16.752 I-3.248 J0.0
G1 X57.0
G2 X54.5 Y17.92648 I0.0 J3.248
G2 X52.0 Y16.752 I-2.5 J2.07352
G1 X19.0
G2 X15.752 Y20.0 I0.0 J3.248
G1 Y59.0
G2 X16.92648 Y61.5 I3.248 J0.0
G2 X15.752 Y64.0 I2.07352 J2.5
G1 Y99.0
G2 X19.0 Y102.248 I3.248 J0.0
G1 X48.0
G2 X51.248 Y99.0 I0.0 J-3.248
G1 Y64.0
G2 X50.73496 Y62.248 I-3.248 J0.0
G1 X52.0
G2 X52.32853 Y62.23134 I0.0 J-3.248
G1 F300.0 X52.42967 Y63.22621
G2 F800.0 X52.752 Y63.18091 I-0.42967 J-4.22621
G1 Y98.0
G2 X57.0 Y102.248 I4.248 J0.0
G1 X73.0
G2 X77.248 Y98.0 I0.0 J-4.248
G1 Y20.0
G2 X73.0 Y15.752 I-4.248 J0.0
G1 X57.0
G2 X54.5 Y16.56554 I0.0 J4.248
G2 X52.0 Y15.752 I-2.5 J3.43446
G1 X19.0
G2 X14.752 Y20.0 I0.0 J4.248
G1 Y59.0
G2 X15.56554 Y61.5 I4.248 J0.0
G2 X14.752 Y64.0 I3.43446 J2.5
G1 Y99.0
G2 X19.0 Y103.248 I4.248 J0.0
G1 X48.0
G2 X52.248 Y99.0 I0.0 J-4.248
G1 Y64.0
G2 X52.18022 Y63.24418 I-4.248 J0.0
G2 X52.42967 Y63.22621 I-0.18022 J-4.24418
G0 Z3.0
G0 X78.75
G1 F300.0 Z-1.0
G1 F800.0 Y14.25
G1 X13.25
G1 Y104.75
G1 X78.75
G1 Y63.22621
G1 F300.0 X79.75
G1 F800.0 Y13.25
G1 X12.25
G1 Y105.75
G1 X79.75
G1 Y63.22621
G1 F300.0 X80.75
G1 F800.0 Y12.25
G1 X11.25
G1 Y106.75
G1 X80.75
G1 Y63.22621
G1 F300.0 X81.75
G1 F800.0 Y11.25
G1 X10.25
G1 Y107.75
G1 X81.75
G1 Y63.22621
G0 Z3.0
G0 X65.75
G1 F300.0 Z-1.0
G1 F800.0 Y27.25
G1 X64.25
G1 Y81.53516
G3 X65.75 I0.75 J8.46484
G1 Y63.22621
G1 F300.0 X66.75
G1 F800.0 Y26.25
G1 X63.25
G1 Y82.70908
G3 X66.75 I1.75 J7.29092
G1 Y63.22621
G1 F300.0 X67.75
G1 F800.0 Y25.25
G1 X62.25
G1 Y84.1126
G3 X67.75 I2.75 J5.8874
G1 Y63.22621
G1 F300.0 X68.75
G1 F800.0 Y24.25
G1 X61.25
G1 Y85.97937
G3 X62.251 Y85.23859 I3.75 J4.02063
G3 X68.75 Y85.97937 I2.749 J4.76141
G1 Y63.22621
G1 F300.0 X69.75
G1 F800.0 Y23.25
G1 X60.25
G1 Y94.75
G1 X69.75
G1 Y63.22621
G0 Z3.0
G0 X65.78608 Y85.56919
G1 F300.0 Z-1.0
G3 F800.0 X69.5 Y90.0 I-0.78608 J4.43081
G3 X62.75 Y93.89711 I-4.5 J0.0
G3 Y86.10289 I2.25 J-3.89711
G3 X65.78608 Y85.56919 I2.25 J3.89711
G1 F300.0 Z-2.0
G3 F800.0 X69.5 Y90.0 I-0.78608 J4.43081
G3 X62.75 Y93.89711 I-4.5 J0.0
G3 Y86.10289 I2.25 J-3.89711
G3 X65.78608 Y85.56919 I2.25 J3.89711
G0 Z3.0
G0 X65.75 Y81.53516
G1 F300.0 Z-2.0
G1 F800.0 Y27.25
G1 X64.25
G1 Y81.53516
G3 X65.75 I0.75 J8.46484
G1 F300.0 X65.66174 Y82.53126
G3 F800.0 X66.75 Y82.70908 I-0.66174 J7.46874
G1 Y26.25
G1 X63.25
G1 Y82.70908
G3 X65.66174 Y82.53126 I1.75 J7.29092
G1 F300.0 X65.57349 Y83.52736
G3 F800.0 X67.75 Y84.1126 I-0.57349 J6.47264
G1 Y25.25
G1 X62.25
G1 Y84.1126
G3 X65.57349 Y83.52736 I2.75 J5.8874
G1 F300.0 X65.48523 Y84.52345
G3 F800.0 X68.75 Y85.97937 I-0.48523 J5.47655
G1 Y24.25
G1 X61.25
G1 Y85.97937
G3 X62.251 Y85.23859 I3.75 J4.02063
G3 X65.48523 Y84.52345 I2.749 J4.76141
G0 Z3.0
G0 X69.75
G1 F300.0 Z-2.0
G1 F800.0 Y23.25
G1 X60.25
G1 Y94.75
G1 X69.75
G1 Y84.52345
G0 Z3.0
G0 X67.94848 Y86.60052
G1 F300.0 Z-3.0
G3 F800.0 X69.5 Y90.0 I-2.94848 J3.39948
G3 X62.75 Y93.89711 I-4.5 J0.0
G3 Y86.10289 I2.25 J-3.89711
G3 X67.94848 Y86.60052 I2.25 J3.89711
G0 Z3.0
G0 X65.75 Y81.53516
G1 F300.0 Z-3.0
G1 F800.0 Y27.25
G1 X64.25
G1 Y81.53516
G3 X65.75 I0.75 J8.46484
G1 F300.0 X65.66174 Y82.53126
G3 F800.0 X66.75 Y82.70908 I-0.66174 J7.46874
G1 Y26.25
G1 X63.25
G1 Y82.70908
G3 X65.66174 Y82.53126 I1.75 J7.29092
G1 F300.0 X65.57349 Y83.52736
G3 F800.0 X67.75 Y84.1126 I-0.57349 J6.47264
G1 Y25.25
G1 X62.25
G1 Y84.1126
G3 X65.57349 Y83.52736 I2.75 J5.8874
G1 F300.0 X65.48523 Y84.52345
G3 F800.0 X68.75 Y85.97937 I-0.48523 J5.47655
G1 Y24.25
G1 X61.25
G1 Y85.97937
G3 X62.251 Y85.23859 I3.75 J4.02063
G3 X65.48523 Y84.52345 I2.749 J4.76141
G0 Z3.0
G0 X69.75
G1 F300.0 Z-3.0
G1 F800.0 Y23.25
G1 X60.25
G1 Y94.75
G1 X69.75
G1 Y84.52345
G0 Z3.0
G0 X67.94848 Y86.60052
G1 F300.0 Z-4.0
G3 F800.0 X69.5 Y90.0 I-2.94848 J3.39948
G3 X62.75 Y93.89711 I-4.5 J0.0
G3 Y86.10289 I2.25 J-3.89711
G3 X67.94848 Y86.60052 I2.25 J3.89711
G0 Z3.0
G0 X65.75 Y81.53516
G1 F300.0 Z-4.0
G1 F800.0 Y27.25
G1 X64.25
G1 Y81.53516
G3 X65.75 I0.75 J8.46484
G1 F300.0 X65.66174 Y82.53126
G3 F800.0 X66.75 Y82.70908 I-0.66174 J7.46874
G1 Y26.25
G1 X63.25
G1 Y82.70908
G3 X65.66174 Y82.53126 I1.75 J7.29092
G1 F300.0 X65.57349 Y83.52736
G3 F800.0 X67.75 Y84.1126 I-0.57349 J6.47264
G1 Y25.25
G1 X62.25
G1 Y84.1126
G3 X65.57349 Y83.52736 I2.75 J5.8874
G1 F300.0 X65.48523 Y84.52345
G3 F800.0 X68.75 Y85.97937 I-0.48523 J5.47655
G1 Y24.25
G1 X61.25
G1 Y85.97937
G3 X62.251 Y85.23859 I3.75 J4.02063
G3 X65.48523 Y84.52345 I2.749 J4.76141
G0 Z3.0
G0 X69.75
G1 F300.0 Z-4.0
G1 F800.0 Y23.25
G1 X60.25
G1 Y94.75
G1 X69.75
G1 Y84.52345
G0 Z3.0
G0 X67.94848 Y86.60052
G1 F300.0 Z-4.5
G3 F800.0 X69.5 Y90.0 I-2.94848 J3.39948
G3 X62.75 Y93.89711 I-4.5 J0.0
G3 Y86.10289 I2.25 J-3.89711
G3 X67.94848 Y86.60052 I2.25 J3.89711
G0 Z3.0
G0 X65.75 Y81.53516
G1 F300.0 Z-4.5
G1 F800.0 Y27.25
G1 X64.25
G1 Y81.53516
G3 X65.75 I0.75 J8.46484
G1 F300.0 X65.66174 Y82.53126
G3 F800.0 X66.75 Y82.70908 I-0.66174 J7.46874
G1 Y26.25
G1 X63.25
G1 Y82.70908
G3 X65.66174 Y82.53126 I1.75 J7.29092
G1 F300.0 X65.57349 Y83.52736
G3 F800.0 X67.75 Y84.1126 I-0.57349 J6.47264
G1 Y25.25
G1 X62.25
G1 Y84.1126
G3 X65.57349 Y83.52736 I2.75 J5.8874
G1 F300.0 X65.48523 Y84.52345
G3 F800.0 X68.75 Y85.97937 I-0.48523 J5.47655
G1 Y24.25
G1 X61.25
G1 Y85.97937
G3 X62.251 Y85.23859 I3.75 J4.02063
G3 X65.48523 Y84.52345 I2.749 J4.76141
G0 Z3.0
G0 X69.75
G1 F300.0 Z-4.5
G1 F800.0 Y23.25
G1 X60.25
G1 Y94.75
G1 X69.75
G1 Y84.52345
G0 Z3.0
G0 X77.75 Y100.23137
G1 F300.0 Z-2.0
G3 F800.0 X73.0 Y103.248 I-4.75 J-2.23137
G1 X57.0
G3 X52.79304 Y101.13735 I0.0 J-5.248
G3 X50.23137 Y103.75 I-4.79304 J-2.13735
G1 X77.75
G1 Y100.23137
G0 Z3.0
G0 X16.76863 Y103.75
G1 F300.0 Z-2.0
G3 F800.0 X14.25 Y101.23137 I2.23137 J-4.75
G1 Y103.75
G1 X16.76863
G0 Z3.0
G0 X14.25 Y61.76863
G1 F300.0 Z-2.0
G3 F800.0 X14.38573 Y61.5 I4.75 J2.23137
G3 X14.25 Y61.23137 I4.61427 J-2.5
G1 Y61.76863
G0 Z3.0
G0 Y17.76863
G1 F300.0 Z-2.0
G3 F800.0 X16.76863 Y15.25 I4.75 J2.23137
G1 X14.25
G1 Y17.76863
G0 Z3.0
G0 X54.23137 Y15.25
G1 F300.0 Z-2.0
G3 F800.0 X54.5 Y15.38573 I-2.23137 J4.75
G3 X54.76863 Y15.25 I2.5 J4.61427
G1 X54.23137
G0 Z3.0
G0 X75.23137
G1 F300.0 Z-2.0
G3 F800.0 X77.75 Y17.76863 I-2.23137 J4.75
G1 Y15.25
G1 X75.23137
G0 Z3.0
G0 X73.95581 Y17.96532
G1 F300.0 Z-2.0
G3 F800.0 X75.248 Y20.0 I-0.95581 J2.03468
G1 Y98.0
G3 X73.0 Y100.248 I-2.248 J0.0
G1 X57.0
G3 X54.752 Y98.0 I0.0 J-2.248
G1 Y20.0
G3 X57.0 Y17.752 I2.248 J0.0
G1 X73.0
G3 X73.95581 Y17.96532 I0.0 J2.248
G1 F300.0 X73.53148 Y18.86862
G3 F800.0 X74.25 Y20.0 I-0.53148 J1.13138
G1 Y98.0
G3 X73.0 Y99.25 I-1.25 J0.0
G1 X57.0
G3 X55.75 Y98.0 I0.0 J-1.25
G1 Y20.0
G3 X57.0 Y18.75 I1.25 J0.0
G1 X73.0
G3 X73.53148 Y18.86862 I0.0 J1.25
G0 Z3.0
G0 Y11.25
G1 F300.0 Z-2.0
G1 F800.0 X10.25
G1 Y107.75
G1 X81.75
G1 Y11.25
G1 X73.53148
G0 Z3.0
G0 X43.26662 Y28.68521
G1 F300.0 Z-1.0
G2 F800.0 X42.925 Y28.59349 I-0.21662 J0.12479
G2 Y29.02651 I0.125 J0.21651
G2 X43.3 Y28.81 I0.125 J-0.21651
G2 X43.26662 Y28.68521 I-0.25 J0.0
G1 F300.0 Z-2.0
G2 F800.0 X42.925 Y28.59349 I-0.21662 J0.12479
G2 Y29.02651 I0.125 J0.21651
G2 X43.3 Y28.81 I0.125 J-0.21651
G2 X43.26662 Y28.68521 I-0.25 J0.0
G1 F300.0 Z-3.0
G2 F800.0 X42.925 Y28.59349 I-0.21662 J0.12479
G2 Y29.02651 I0.125 J0.21651
G2 X43.3 Y28.81 I0.125 J-0.21651
G2 X43.26662 Y28.68521 I-0.25 J0.0
G1 F300.0 Z-4.0
G2 F800.0 X42.925 Y28.59349 I-0.21662 J0.12479
G2 Y29.02651 I0.125 J0.21651
G2 X43.3 Y28.81 I0.125 J-0.21651
G2 X43.26662 Y28.68521 I-0.25 J0.0
G1 F300.0 Z-4.5
G2 F800.0 X42.925 Y28.59349 I-0.21662 J0.12479
G2 Y29.02651 I0.125 J0.21651
G2 X43.3 Y28.81 I0.125 J-0.21651
G2 X43.26662 Y28.68521 I-0.25 J0.0
G0 Z3.0
G0 X37.5
G1 F300.0 Z-1.0
G1 F800.0 Y28.25
G1 X35.5
G1 Y29.25
G1 X37.5
G1 Y28.68521
G1 F300.0 X38.5
G1 F800.0 Y27.25
G1 X34.5
G1 Y30.25
G1 X38.5
G1 Y28.68521
G1 F300.0 X37.5
G1 Z-2.0
G1 F800.0 Y28.25
G1 X35.5
G1 Y29.25
G1 X37.5
G1 Y28.68521
G1 F300.0 X38.5
G1 F800.0 Y27.25
G1 X34.5
G1 Y30.25
G1 X38.5
G1 Y28.68521
G1 F300.0 X37.5
G1 Z-3.0
G1 F800.0 Y28.25
G1 X35.5
G1 Y29.25
G1 X37.5
G1 Y28.68521
G1 F300.0 X38.5
G1 F800.0 Y27.25
G1 X34.5
G1 Y30.25
G1 X38.5
G1 Y28.68521
G1 F300.0 X37.5
G1 Z-4.0
G1 F800.0 Y28.25
G1 X35.5
G1 Y29.25
G1 X37.5
G1 Y28.68521
G1 F300.0 X38.5
G1 F800.0 Y27.25
G1 X34.5
G1 Y30.25
G1 X38.5
G1 Y28.68521
G1 F300.0 X37.5
G1 Z-4.5
G1 F800.0 Y28.25
G1 X35.5
G1 Y29.25
G1 X37.5
G1 Y28.68521
G1 F300.0 X38.5
G1 F800.0 Y27.25
G1 X34.5
G1 Y30.25
G1 X38.5
G1 Y28.68521
G0 Z3.0
G0 X35.50703 Y39.95006
G1 F300.0 Z-1.0
G2 F800.0 X35.28 Y39.98019 I-0.07703 J0.28994
G2 Y40.49981 I0.15 J0.25981
G2 X35.73 Y40.24 I0.15 J-0.25981
G2 X35.50703 Y39.95006 I-0.3 J0.0
G1 F300.0 X35.76382 Y38.98359
G2 F800.0 X34.78 Y39.11417 I-0.33382 J1.25641
G2 Y41.36583 I0.65 J1.12583
G2 X36.73 Y40.24 I0.65 J-1.12583
G2 X35.76382 Y38.98359 I-1.3 J0.0
G1 F300.0 X35.50703 Y39.95006
G1 Z-2.0
G2 F800.0 X35.28 Y39.98019 I-0.07703 J0.28994
G2 Y40.49981 I0.15 J0.25981
G2 X35.73 Y40.24 I0.15 J-0.25981
G2 X35.50703 Y39.95006 I-0.3 J0.0
G1 F300.0 X35.76382 Y38.98359
G2 F800.0 X34.78 Y39.11417 I-0.33382 J1.25641
G2 Y41.36583 I0.65 J1.12583
G2 X36.73 Y40.24 I0.65 J-1.12583
G2 X35.76382 Y38.98359 I-1.3 J0.0
G1 F300.0 X35.50703 Y39.95006
G1 Z-3.0
G2 F800.0 X35.28 Y39.98019 I-0.07703 J0.28994
G2 Y40.49981 I0.15 J0.25981
G2 X35.73 Y40.24 I0.15 J-0.25981
G2 X35.50703 Y39.95006 I-0.3 J0.0
G1 F300.0 X35.76382 Y38.98359
G2 F800.0 X34.78 Y39.11417 I-0.33382 J1.25641
G2 Y41.36583 I0.65 J1.12583
G2 X36.73 Y40.24 I0.65 J-1.12583
G2 X35.76382 Y38.98359 I-1.3 J0.0
G1 F300.0 X35.50703 Y39.95006
G1 Z-4.0
G2 F800.0 X35.28 Y39.98019 I-0.07703 J0.28994
G2 Y40.49981 I0.15 J0.25981
G2 X35.73 Y40.24 I0.15 J-0.25981
G2 X35.50703 Y39.95006 I-0.3 J0.0
G1 F300.0 X35.76382 Y38.98359
G2 F800.0 X34.78 Y39.11417 I-0.33382 J1.25641
G2 Y41.36583 I0.65 J1.12583
G2 X36.73 Y40.24 I0.65 J-1.12583
G2 X35.76382 Y38.98359 I-1.3 J0.0
G1 F300.0 X35.50703 Y39.95006
G1 Z-4.5
G2 F800.0 X35.28 Y39.98019 I-0.07703 J0.28994
G2 Y40.49981 I0.15 J0.25981
G2 X35.73 Y40.24 I0.15 J-0.25981
G2 X35.50703 Y39.95006 I-0.3 J0.0
G1 F300.0 X35.76382 Y38.98359
G2 F800.0 X34.78 Y39.11417 I-0.33382 J1.25641
G2 Y41.36583 I0.65 J1.12583
G2 X36.73 Y40.24 I0.65 J-1.12583
G2 X35.76382 Y38.98359 I-1.3 J0.0
G0 Z3.0
G0 X35.44127 Y47.56021
G1 F300.0 Z-1.0
G2 F800.0 X35.28 Y47.60019 I-0.01127 J0.29979
G2 Y48.11981 I0.15 J0.25981
G2 X35.73 Y47.86 I0.15 J-0.25981
G2 X35.44127 Y47.56021 I-0.3 J0.0
G1 F300.0 X35.47885 Y46.56092
G2 F800.0 X34.78 Y46.73417 I-0.04885 J1.29908
G2 Y48.98583 I0.65 J1.12583
G2 X36.73 Y47.86 I0.65 J-1.12583
G2 X35.47885 Y46.56092 I-1.3 J0.0
G1 F300.0 X35.44127 Y47.56021
G1 Z-2.0
G2 F800.0 X35.28 Y47.60019 I-0.01127 J0.29979
G2 Y48.11981 I0.15 J0.25981
G2 X35.73 Y47.86 I0.15 J-0.25981
G2 X35.44127 Y47.56021 I-0.3 J0.0
G1 F300.0 X35.47885 Y46.56092
G2 F800.0 X34.78 Y46.73417 I-0.04885 J1.29908
G2 Y48.98583 I0.65 J1.12583
G2 X36.73 Y47.86 I0.65 J-1.12583
G2 X35.47885 Y46.56092 I-1.3 J0.0
G1 F300.0 X35.44127 Y47.56021
G1 Z-3.0
G2 F800.0 X35.28 Y47.60019 I-0.01127 J0.29979
G2 Y48.11981 I0.15 J0.25981
G2 X35.73 Y47.86 I0.15 J-0.25981
G2 X35.44127 Y47.56021 I-0.3 J0.0
G1 F300.0 X35.47885 Y46.56092
G2 F800.0 X34.78 Y46.73417 I-0.04885 J1.29908
G2 Y48.98583 I0.65 J1.12583
G2 X36.73 Y47.86 I0.65 J-1.12583
G2 X35.47885 Y46.56092 I-1.3 J0.0
G1 F300.0 X35.44127 Y47.56021
G1 Z-4.0
G2 F800.0 X35.28 Y47.60019 I-0.01127 J0.29979
G2 Y48.11981 I0.15 J0.25981
G2 X35.73 Y47.86 I0.15 J-0.25981
G2 X35.44127 Y47.56021 I-0.3 J0.0
G1 F300.0 X35.47885 Y46.56092
G2 F800.0 X34.78 Y46.73417 I-0.04885 J1.29908
G2 Y48.98583 I0.65 J1.12583
G2 X36.73 Y47.86 I0.65 J-1.12583
G2 X35.47885 Y46.56092 I-1.3 J0.0
G1 F300.0 X35.44127 Y47.56021
G1 Z-4.5
G2 F800.0 X35.28 Y47.60019 I-0.01127 J0.29979
G2 Y48.11981 I0.15 J0.25981
G2 X35.73 Y47.86 I0.15 J-0.25981
G2 X35.44127 Y47.56021 I-0.3 J0.0
G1 F300.0 X35.47885 Y46.56092
G2 F800.0 X34.78 Y46.73417 I-0.04885 J1.29908
G2 Y48.98583 I0.65 J1.12583
G2 X36.73 Y47.86 I0.65 J-1.12583
G2 X35.47885 Y46.56092 I-1.3 J0.0
G0 Z3.0
G0 X28.03355 Y50.28809
G1 F300.0 Z-1.0
G2 F800.0 X27.685 Y50.18349 I-0.22355 J0.11191
G2 Y50.61651 I0.125 J0.21651
G2 X28.06 Y50.4 I0.125 J-0.21651
G2 X28.03355 Y50.28809 I-0.25 J0.0
G1 F300.0 Z-2.0
G2 F800.0 X27.685 Y50.18349 I-0.22355 J0.11191
G2 Y50.61651 I0.125 J0.21651
G2 X28.06 Y50.4 I0.125 J-0.21651
G2 X28.03355 Y50.28809 I-0.25 J0.0
G1 F300.0 Z-3.0
G2 F800.0 X27.685 Y50.18349 I-0.22355 J0.11191
G2 Y50.61651 I0.125 J0.21651
G2 X28.06 Y50.4 I0.125 J-0.21651
G2 X28.03355 Y50.28809 I-0.25 J0.0
G1 F300.0 Z-4.0
G2 F800.0 X27.685 Y50.18349 I-0.22355 J0.11191
G2 Y50.61651 I0.125 J0.21651
G2 X28.06 Y50.4 I0.125 J-0.21651
G2 X28.03355 Y50.28809 I-0.25 J0.0
G1 F300.0 Z-4.5
G2 F800.0 X27.685 Y50.18349 I-0.22355 J0.11191
G2 Y50.61651 I0.125 J0.21651
G2 X28.06 Y50.4 I0.125 J-0.21651
G2 X28.03355 Y50.28809 I-0.25 J0.0
G0 Z3.0
G0 X21.75 Y35.75
G1 F300.0 Z-1.0
G1 F800.0 Y30.25
G1 X20.25
G1 Y35.75
G1 X21.75
G1 F300.0 Y36.75
G1 F800.0 X22.75
G1 Y29.25
G1 X19.25
G1 Y36.75
G1 X21.75
G1 F300.0 Y35.75
G1 Z-2.0
G1 F800.0 Y30.25
G1 X20.25
G1 Y35.75
G1 X21.75
G1 F300.0 Y36.75
G1 F800.0 X22.75
G1 Y29.25
G1 X19.25
G1 Y36.75
G1 X21.75
G0 Z3.0
G0 Y73.25
G1 F300.0 Z-1.0
G1 F800.0 X21.25
G1 Y76.75
G1 X21.75
G1 Y73.25
G0 Z3.0
G0 X23.75
G1 F300.0 Z-1.0
G1 F800.0 Y71.25
G1 X19.25
G1 Y78.75
G1 X23.75
G1 Y73.25
G0 Z3.0
G0 X33.25 Y78.25
G1 F300.0 Z-1.0
G1 F800.0 Y84.75
G1 X33.75
G1 Y78.25
G1 X33.25
G1 F300.0 X32.25
G1 F800.0 Y85.75
G1 X34.75
G1 Y77.25
G1 X32.25
G1 Y78.25
G1 F300.0 X31.25
G1 F800.0 Y86.75
G1 X35.75
G1 Y76.25
G1 X31.25
G1 Y78.25
G1 F300.0 X30.25
G1 F800.0 Y87.75
G1 X36.75
G1 Y75.25
G1 X30.25
G1 Y78.25
G1 F300.0 X29.25
G1 F800.0 Y88.75
G1 X37.75
G1 Y74.25
G1 X29.25
G1 Y78.25
G1 F300.0 X28.25
G1 F800.0 Y89.75
G1 X38.75
G1 Y73.25
G1 X28.25
G1 Y78.25
G1 F300.0 X27.25
G1 F800.0 Y90.75
G1 X39.75
G1 Y72.25
G1 X27.25
G1 Y78.25
G1 F300.0 X26.25
G1 F800.0 Y91.75
G1 X40.75
G1 Y71.25
G1 X26.25
G1 Y78.25
G1 F300.0 X25.25
G1 F800.0 Y92.75
G1 X41.75
G1 Y70.25
G1 X25.25
G1 Y78.25
G1 F300.0 X24.25
G1 F800.0 Y93.75
G1 X42.75
G1 Y69.25
G1 X24.25
G1 Y78.25
G1 F300.0 X23.25
G1 F800.0 Y94.75
G1 X43.75
G1 Y68.25
G1 X23.25
G1 Y78.25
G1 F300.0 X22.25
G1 F800.0 Y95.75
G1 X44.75
G1 Y67.25
G1 X22.25
G1 Y78.25
G1 F300.0 X21.75 Y76.75
G1 Z-2.0
G1 F800.0 Y73.25
G1 X21.25
G1 Y76.75
G1 X21.75
G0 Z3.0
G0 Y78.75
G1 F300.0 Z-2.0
G1 F800.0 X23.75
G1 Y71.25
G1 X19.25
G1 Y78.75
G1 X21.75
G0 Z3.0
G0 X33.25
G1 F300.0 Z-2.0
G1 F800.0 Y84.75
G1 X33.75
G1 Y78.25
G1 X33.25
G1 Y78.75
G1 F300.0 X32.25
G1 F800.0 Y85.75
G1 X34.75
G1 Y77.25
G1 X32.25
G1 Y78.75
G1 F300.0 X31.25
G1 F800.0 Y86.75
G1 X35.75
G1 Y76.25
G1 X31.25
G1 Y78.75
G1 F300.0 X30.25
G1 F800.0 Y87.75
G1 X36.75
G1 Y75.25
G1 X30.25
G1 Y78.75
G1 F300.0 X29.25
G1 F800.0 Y88.75
G1 X37.75
G1 Y74.25
G1 X29.25
G1 Y78.75
G1 F300.0 X28.25
G1 F800.0 Y89.75
G1 X38.75
G1 Y73.25
G1 X28.25
G1 Y78.75
G1 F300.0 X27.25
G1 F800.0 Y90.75
G1 X39.75
G1 Y72.25
G1 X27.25
G1 Y78.75
G1 F300.0 X26.25
G1 F800.0 Y91.75
G1 X40.75
G1 Y71.25
G1 X26.25
G1 Y78.75
G1 F300.0 X25.25
G1 F800.0 Y92.75
G1 X41.75
G1 Y70.25
G1 X25.25
G1 Y78.75
G1 F300.0 X24.25
G1 F800.0 Y93.75
G1 X42.75
G1 Y69.25
G1 X24.25
G1 Y78.75
G1 F300.0 X23.25
G1 F800.0 Y94.75
G1 X43.75
G1 Y68.25
G1 X23.25
G1 Y78.75
G1 F300.0 X22.25
G1 F800.0 Y95.75
G1 X44.75
G1 Y67.25
G1 X22.25
G1 Y78.75
G1 F300.0 Y77.75
G1 F800.0 X22.75
G1 Y72.25
G1 X20.25
G1 Y77.75
G1 X22.25
G0 Z3.0
G0 X17.75
G1 F300.0 Z-2.0
G1 F800.0 Y64.0
G3 X19.0 Y62.75 I1.25 J0.0
G1 X48.0
G3 X49.25 Y64.0 I0.0 J1.25
G1 Y99.0
G3 X48.0 Y100.25 I-1.25 J0.0
G1 X19.0
G3 X17.75 Y99.0 I0.0 J-1.25
G1 Y77.75
G1 F300.0 X16.752
G1 F800.0 Y99.0
G2 X19.0 Y101.248 I2.248 J0.0
G1 X48.0
G2 X50.248 Y99.0 I0.0 J-2.248
G1 Y64.0
G2 X48.0 Y61.752 I-2.248 J0.0
G1 X19.0
G2 X16.752 Y64.0 I0.0 J2.248
G1 Y77.75
G0 Z3.0
G0 X18.7324 Y61.23202
G1 F300.0 Z-2.0
G3 F800.0 X16.752 Y59.0 I0.2676 J-2.23202
G1 Y20.0
G3 X19.0 Y17.752 I2.248 J0.0
G1 X52.0
G3 X54.248 Y20.0 I0.0 J2.248
G1 Y59.0
G3 X52.0 Y61.248 I-2.248 J0.0
G1 X19.0
G3 X18.7324 Y61.23202 I0.0 J-2.248
G1 F300.0 X18.8512 Y60.24111
G3 F800.0 X17.75 Y59.0 I0.1488 J-1.24111
G1 Y20.0
G3 X19.0 Y18.75 I1.25 J0.0
G1 X52.0
G3 X53.25 Y20.0 I0.0 J1.25
G1 Y59.0
G3 X52.0 Y60.25 I-1.25 J0.0
G1 X19.0
G3 X18.8512 Y60.24111 I0.0 J-1.25
G0 Z3.0
G0 X16.92648 Y61.5
G1 F300.0 Z-2.0
G2 F800.0 X15.752 Y64.0 I2.07352 J2.5
G1 Y99.0
G2 X19.0 Y102.248 I3.248 J0.0
G1 X48.0
G2 X51.248 Y99.0 I0.0 J-3.248
G1 Y64.0
G2 X50.73496 Y62.248 I-3.248 J0.0
G1 X52.0
G2 X53.752 Y61.73496 I0.0 J-3.248
G1 Y98.0
G2 X57.0 Y101.248 I3.248 J0.0
G1 X73.0
G2 X76.248 Y98.0 I0.0 J-3.248
G1 Y20.0
G2 X73.0 Y16.752 I-3.248 J0.0
G1 X57.0
G2 X54.5 Y17.92648 I0.0 J3.248
G2 X52.0 Y16.752 I-2.5 J2.07352
G1 X19.0
G2 X15.752 Y20.0 I0.0 J3.248
G1 Y59.0
G2 X16.92648 Y61.5 I3.248 J0.0
G1 F300.0 X15.56554
G2 F800.0 X14.752 Y64.0 I3.43446 J2.5
G1 Y99.0
G2 X19.0 Y103.248 I4.248 J0.0
G1 X48.0
G2 X52.248 Y99.0 I0.0 J-4.248
G1 Y64.0
G2 X52.18022 Y63.24418 I-4.248 J0.0
G2 X52.752 Y63.18091 I-0.18022 J-4.24418
G1 Y98.0
G2 X57.0 Y102.248 I4.248 J0.0
G1 X73.0
G2 X77.248 Y98.0 I0.0 J-4.248
G1 Y20.0
G2 X73.0 Y15.752 I-4.248 J0.0
G1 X57.0
G2 X54.5 Y16.56554 I0.0 J4.248
G2 X52.0 Y15.752 I-2.5 J3.43446
G1 X19.0
G2 X14.752 Y20.0 I0.0 J4.248
G1 Y59.0
G2 X15.56554 Y61.5 I4.248 J0.0
G0 Z3.0
G0 X13.25
G1 F300.0 Z-2.0
G1 F800.0 Y104.75
G1 X78.75
G1 Y14.25
G1 X13.25
G1 Y61.5
G1 F300.0 X12.25
G1 F800.0 Y105.75
G1 X79.75
G1 Y13.25
G1 X12.25
G1 Y61.5
G1 F300.0 X11.25
G1 F800.0 Y12.25
G1 X80.75
G1 Y106.75
G1 X11.25
G1 Y61.5
G0 Z3.0
G0 X14.25
G1 F300.0 Z-3.0
G1 F800.0 Y61.76863
G3 X14.38573 Y61.5 I4.75 J2.23137
G3 X14.25 Y61.23137 I4.61427 J-2.5
G1 Y61.5
G0 Z3.0
G0 X20.25 Y72.25
G1 F300.0 Z-3.0
G1 F800.0 Y77.75
G1 X22.75
G1 Y72.25
G1 X20.25
G0 Z3.0
G0 X17.75
G1 F300.0 Z-3.0
G1 F800.0 Y64.0
G3 X19.0 Y62.75 I1.25 J0.0
G1 X48.0
G3 X49.25 Y64.0 I0.0 J1.25
G1 Y99.0
G3 X48.0 Y100.25 I-1.25 J0.0
G1 X19.0
G3 X17.75 Y99.0 I0.0 J-1.25
G1 Y72.25
G1 F300.0 X16.752
G1 F800.0 Y99.0
G2 X19.0 Y101.248 I2.248 J0.0
G1 X48.0
G2 X50.248 Y99.0 I0.0 J-2.248
G1 Y64.0
G2 X48.0 Y61.752 I-2.248 J0.0
G1 X19.0
G2 X16.752 Y64.0 I0.0 J2.248
G1 Y72.25
G0 Z3.0
G0 X14.25 Y101.23137
G1 F300.0 Z-3.0
G1 F800.0 Y103.75
G1 X16.76863
G3 X14.25 Y101.23137 I2.23137 J-4.75
G0 Z3.0
G0 X50.23137 Y103.75
G1 F300.0 Z-3.0
G1 F800.0 X77.75
G1 Y100.23137
G3 X73.0 Y103.248 I-4.75 J-2.23137
G1 X57.0
G3 X52.79304 Y101.13735 I0.0 J-5.248
G3 X50.23137 Y103.75 I-4.79304 J-2.13735
G0 Z3.0
G0 X54.5 Y15.38573
G1 F300.0 Z-3.0
G3 F800.0 X54.76863 Y15.25 I2.5 J4.61427
G1 X54.23137
G3 X54.5 Y15.38573 I-2.23137 J4.75
G0 Z3.0
G0 X75.23137 Y15.25
G1 F300.0 Z-3.0
G3 F800.0 X77.75 Y17.76863 I-2.23137 J4.75
G1 Y15.25
G1 X75.23137
G0 Z3.0
G0 X16.76863
G1 F300.0 Z-3.0
G1 F800.0 X14.25
G1 Y17.76863
G3 X16.76863 Y15.25 I4.75 J2.23137
G0 Z3.0
G0 X18.04419 Y17.96532
G1 F300.0 Z-3.0
G3 F800.0 X19.0 Y17.752 I0.95581 J2.03468
G1 X52.0
G3 X54.248 Y20.0 I0.0 J2.248
G1 Y59.0
G3 X52.0 Y61.248 I-2.248 J0.0
G1 X19.0
G3 X16.752 Y59.0 I0.0 J-2.248
G1 Y20.0
G3 X18.04419 Y17.96532 I2.248 J0.0
G1 F300.0 X18.46852 Y18.86862
G3 F800.0 X19.0 Y18.75 I0.53148 J1.13138
G1 X52.0
G3 X53.25 Y20.0 I0.0 J1.25
G1 Y59.0
G3 X52.0 Y60.25 I-1.25 J0.0
G1 X19.0
G3 X17.75 Y59.0 I0.0 J-1.25
G1 Y20.0
G3 X18.46852 Y18.86862 I1.25 J0.0
G0 Z3.0
G0 X54.75297 Y19.93402
G1 F300.0 Z-3.0
G3 F800.0 X57.0 Y17.752 I2.24703 J0.06598
G1 X73.0
G3 X75.248 Y20.0 I0.0 J2.248
G1 Y98.0
G3 X73.0 Y100.248 I-2.248 J0.0
G1 X57.0
G3 X54.752 Y98.0 I0.0 J-2.248
G1 Y20.0
G3 X54.75297 Y19.93402 I2.248 J0.0
G1 F300.0 X55.75054 Y19.96331
G3 F800.0 X57.0 Y18.75 I1.24946 J0.03669
G1 X73.0
G3 X74.25 Y20.0 I0.0 J1.25
G1 Y98.0
G3 X73.0 Y99.25 I-1.25 J0.0
G1 X57.0
G3 X55.75 Y98.0 I0.0 J-1.25
G1 Y20.0
G3 X55.75054 Y19.96331 I1.25 J0.0
G0 Z3.0
G0 X54.5 Y17.92648
G1 F300.0 Z-3.0
G2 F800.0 X52.0 Y16.752 I-2.5 J2.07352
G1 X19.0
G2 X15.752 Y20.0 I0.0 J3.248
G1 Y59.0
G2 X16.92648 Y61.5 I3.248 J0.0
G2 X15.752 Y64.0 I2.07352 J2.5
G1 Y99.0
G2 X19.0 Y102.248 I3.248 J0.0
G1 X48.0
G2 X51.248 Y99.0 I0.0 J-3.248
G1 Y64.0
G2 X50.73496 Y62.248 I-3.248 J0.0
G1 X52.0
G2 X53.752 Y61.73496 I0.0 J-3.248
G1 Y98.0
G2 X57.0 Y101.248 I3.248 J0.0
G1 X73.0
G2 X76.248 Y98.0 I0.0 J-3.248
G1 Y20.0
G2 X73.0 Y16.752 I-3.248 J0.0
G1 X57.0
G2 X54.5 Y17.92648 I0.0 J3.248
G1 F300.0 Y16.56554
G2 F800.0 X52.0 Y15.752 I-2.5 J3.43446
G1 X19.0
G2 X14.752 Y20.0 I0.0 J4.248
G1 Y59.0
G2 X15.56554 Y61.5 I4.248 J0.0
G2 X14.752 Y64.0 I3.43446 J2.5
G1 Y99.0
G2 X19.0 Y103.248 I4.248 J0.0
G1 X48.0
G2 X52.248 Y99.0 I0.0 J-4.248
G1 Y64.0
G2 X52.18022 Y63.24418 I-4.248 J0.0
G2 X52.752 Y63.18091 I-0.18022 J-4.24418
G1 Y98.0
G2 X57.0 Y102.248 I4.248 J0.0
G1 X73.0
G2 X77.248 Y98.0 I0.0 J-4.248
G1 Y20.0
G2 X73.0 Y15.752 I-4.248 J0.0
G1 X57.0
G2 X54.5 Y16.56554 I0.0 J4.248
G0 Z3.0
G0 Y14.25
G1 F300.0 Z-3.0
G1 F800.0 X13.25
G1 Y104.75
G1 X78.75
G1 Y14.25
G1 X54.5
G1 F300.0 Y13.25
G1 F800.0 X12.25
G1 Y105.75
G1 X79.75
G1 Y13.25
G1 X54.5
G1 F300.0 Y12.25
G1 F800.0 X11.25
G1 Y106.75
G1 X80.75
G1 Y12.25
G1 X54.5
G1 F300.0 Y11.25
G1 F800.0 X10.25
G1 Y107.75
G1 X81.75
G1 Y11.25
G1 X54.5
G0 Z3.0
G0 Y15.25
G1 F300.0 Z-4.0
G1 F800.0 X54.23137
G3 X54.5 Y15.38573 I-2.23137 J4.75
G3 X54.76863 Y15.25 I2.5 J4.61427
G1 X54.5
G0 Z3.0
G0 X75.23137
G1 F300.0 Z-4.0
G3 F800.0 X77.75 Y17.76863 I-2.23137 J4.75
G1 Y15.25
G1 X75.23137
G0 Z3.0
G0 X16.76863
G1 F300.0 Z-4.0
G1 F800.0 X14.25
G1 Y17.76863
G3 X16.76863 Y15.25 I4.75 J2.23137
G0 Z3.0
G0 X14.25 Y61.23137
G1 F300.0 Z-4.0
G1 F800.0 Y61.76863
G3 X14.38573 Y61.5 I4.75 J2.23137
G3 X14.25 Y61.23137 I4.61427 J-2.5
G0 Z3.0
G0 Y101.23137
G1 F300.0 Z-4.0
G1 F800.0 Y103.75
G1 X16.76863
G3 X14.25 Y101.23137 I2.23137 J-4.75
G0 Z3.0
G0 X50.23137 Y103.75
G1 F300.0 Z-4.0
G1 F800.0 X77.75
G1 Y100.23137
G3 X73.0 Y103.248 I-4.75 J-2.23137
G1 X57.0
G3 X52.79304 Y101.13735 I0.0 J-5.248
G3 X50.23137 Y103.75 I-4.79304 J-2.13735
G0 Z3.0
G0 X55.28674 Y99.45542
G1 F300.0 Z-4.0
G3 F800.0 X54.752 Y98.0 I1.71326 J-1.45542
G1 Y20.0
G3 X57.0 Y17.752 I2.248 J0.0
G1 X73.0
G3 X75.248 Y20.0 I0.0 J2.248
G1 Y98.0
G3 X73.0 Y100.248 I-2.248 J0.0
G1 X57.0
G3 X55.28674 Y99.45542 I0.0 J-2.248
G1 F300.0 X56.04734 Y98.80929
G3 F800.0 X55.75 Y98.0 I0.95266 J-0.80929
G1 Y20.0
G3 X57.0 Y18.75 I1.25 J0.0
G1 X73.0
G3 X74.25 Y20.0 I0.0 J1.25
G1 Y98.0
G3 X73.0 Y99.25 I-1.25 J0.0
G1 X57.0
G3 X56.04734 Y98.80929 I0.0 J-1.25
G0 Z3.0
G0 Y107.75
G1 F300.0 Z-4.0
G1 F800.0 X81.75
G1 Y11.25
G1 X10.25
G1 Y107.75
G1 X56.04734
G0 Z3.0
G0 X33.75 Y84.75
G1 F300.0 Z-3.0
G1 F800.0 Y78.25
G1 X33.25
G1 Y84.75
G1 X33.75
G1 F300.0 Y85.75
G1 F800.0 X34.75
G1 Y77.25
G1 X32.25
G1 Y85.75
G1 X33.75
G1 F300.0 Y86.75
G1 F800.0 X35.75
G1 Y76.25
G1 X31.25
G1 Y86.75
G1 X33.75
G1 F300.0 Y87.75
G1 F800.0 X36.75
G1 Y75.25
G1 X30.25
G1 Y87.75
G1 X33.75
G1 F300.0 Y88.75
G1 F800.0 X37.75
G1 Y74.25
G1 X29.25
G1 Y88.75
G1 X33.75
G1 F300.0 Y89.75
G1 F800.0 X38.75
G1 Y73.25
G1 X28.25
G1 Y89.75
G1 X33.75
G1 F300.0 Y90.75
G1 F800.0 X39.75
G1 Y72.25
G1 X27.25
G1 Y90.75
G1 X33.75
G1 F300.0 Y91.75
G1 F800.0 X40.75
G1 Y71.25
G1 X26.25
G1 Y91.75
G1 X33.75
G1 F300.0 Y92.75
G1 F800.0 X41.75
G1 Y70.25
G1 X25.25
G1 Y92.75
G1 X33.75
G1 F300.0 Y93.75
G1 F800.0 X42.75
G1 Y69.25
G1 X24.25
G1 Y93.75
G1 X33.75
G1 F300.0 Y94.75
G1 F800.0 X43.75
G1 Y68.25
G1 X23.25
G1 Y94.75
G1 X33.75
G1 F300.0 Y95.75
G1 F800.0 X44.75
G1 Y67.25
G1 X22.25
G1 Y95.75
G1 X33.75
G0 Z3.0
G0 X21.75 Y76.75
G1 F300.0 Z-3.0
G1 F800.0 Y73.25
G1 X21.25
G1 Y76.75
G1 X21.75
G0 Z3.0
G0 Y78.75
G1 F300.0 Z-3.0
G1 F800.0 X23.75
G1 Y71.25
G1 X19.25
G1 Y78.75
G1 X21.75
G0 Z3.0
G0 Y76.75
G1 F300.0 Z-4.0
G1 F800.0 Y73.25
G1 X21.25
G1 Y76.75
G1 X21.75
G0 Z3.0
G0 Y78.75
G1 F300.0 Z-4.0
G1 F800.0 X23.75
G1 Y71.25
G1 X19.25
G1 Y78.75
G1 X21.75
G0 Z3.0
G0 X33.25
G1 F300.0 Z-4.0
G1 F800.0 Y84.75
G1 X33.75
G1 Y78.25
G1 X33.25
G1 Y78.75
G1 F300.0 X32.25
G1 F800.0 Y85.75
G1 X34.75
G1 Y77.25
G1 X32.25
G1 Y78.75
G1 F300.0 X31.25
G1 F800.0 Y86.75
G1 X35.75
G1 Y76.25
G1 X31.25
G1 Y78.75
G1 F300.0 X30.25
G1 F800.0 Y87.75
G1 X36.75
G1 Y75.25
G1 X30.25
G1 Y78.75
G1 F300.0 X29.25
G1 F800.0 Y88.75
G1 X37.75
G1 Y74.25
G1 X29.25
G1 Y78.75
G1 F300.0 X28.25
G1 F800.0 Y89.75
G1 X38.75
G1 Y73.25
G1 X28.25
G1 Y78.75
G1 F300.0 X27.25
G1 F800.0 Y90.75
G1 X39.75
G1 Y72.25
G1 X27.25
G1 Y78.75
G1 F300.0 X26.25
G1 F800.0 Y91.75
G1 X40.75
G1 Y71.25
G1 X26.25
G1 Y78.75
G1 F300.0 X25.25
G1 F800.0 Y92.75
G1 X41.75
G1 Y70.25
G1 X25.25
G1 Y78.75
G1 F300.0 X24.25
G1 F800.0 Y93.75
G1 X42.75
G1 Y69.25
G1 X24.25
G1 Y78.75
G1 F300.0 X23.25
G1 F800.0 Y94.75
G1 X43.75
G1 Y68.25
G1 X23.25
G1 Y78.75
G1 F300.0 X22.25
G1 F800.0 Y95.75
G1 X44.75
G1 Y67.25
G1 X22.25
G1 Y78.75
G0 Z3.0
G0 X21.75 Y35.75
G1 F300.0 Z-3.0
G1 F800.0 Y30.25
G1 X20.25
G1 Y35.75
G1 X21.75
G1 F300.0 Y36.75
G1 F800.0 X22.75
G1 Y29.25
G1 X19.25
G1 Y36.75
G1 X21.75
G1 F300.0 Y35.75
G1 Z-4.0
G1 F800.0 Y30.25
G1 X20.25
G1 Y35.75
G1 X21.75
G1 F300.0 Y36.75
G1 F800.0 X22.75
G1 Y29.25
G1 X19.25
G1 Y36.75
G1 X21.75
G0 Z3.0
G0 X17.75
G1 F300.0 Z-4.0
G1 F800.0 Y20.0
G3 X19.0 Y18.75 I1.25 J0.0
G1 X52.0
G3 X53.25 Y20.0 I0.0 J1.25
G1 Y59.0
G3 X52.0 Y60.25 I-1.25 J0.0
G1 X19.0
G3 X17.75 Y59.0 I0.0 J-1.25
G1 Y36.75
G1 F300.0 X16.752
G1 F800.0 Y59.0
G2 X19.0 Y61.248 I2.248 J0.0
G1 X52.0
G2 X54.248 Y59.0 I0.0 J-2.248
G1 Y20.0
G2 X52.0 Y17.752 I-2.248 J0.0
G1 X19.0
G2 X16.752 Y20.0 I0.0 J2.248
G1 Y36.75
G0 Z3.0
G0 X20.25 Y72.25
G1 F300.0 Z-4.0
G1 F800.0 Y77.75
G1 X22.75
G1 Y72.25
G1 X20.25
G0 Z3.0
G0 X17.75
G1 F300.0 Z-4.0
G1 F800.0 Y64.0
G3 X19.0 Y62.75 I1.25 J0.0
G1 X48.0
G3 X49.25 Y64.0 I0.0 J1.25
G1 Y99.0
G3 X48.0 Y100.25 I-1.25 J0.0
G1 X19.0
G3 X17.75 Y99.0 I0.0 J-1.25
G1 Y72.25
G1 F300.0 X16.752
G1 F800.0 Y99.0
G2 X19.0 Y101.248 I2.248 J0.0
G1 X48.0
G2 X50.248 Y99.0 I0.0 J-2.248
G1 Y64.0
G2 X48.0 Y61.752 I-2.248 J0.0
G1 X19.0
G2 X16.752 Y64.0 I0.0 J2.248
G1 Y72.25
G1 F300.0 X15.752
G1 F800.0 Y99.0
G2 X19.0 Y102.248 I3.248 J0.0
G1 X48.0
G2 X51.248 Y99.0 I0.0 J-3.248
G1 Y64.0
G2 X50.73496 Y62.248 I-3.248 J0.0
G1 X52.0
G2 X53.752 Y61.73496 I0.0 J-3.248
G1 Y98.0
G2 X57.0 Y101.248 I3.248 J0.0
G1 X73.0
G2 X76.248 Y98.0 I0.0 J-3.248
G1 Y20.0
G2 X73.0 Y16.752 I-3.248 J0.0
G1 X57.0
G2 X54.5 Y17.92648 I0.0 J3.248
G2 X52.0 Y16.752 I-2.5 J2.07352
G1 X19.0
G2 X15.752 Y20.0 I0.0 J3.248
G1 Y59.0
G2 X16.92648 Y61.5 I3.248 J0.0
G2 X15.752 Y64.0 I2.07352 J2.5
G1 Y72.25
G1 F300.0 X14.752
G1 F800.0 Y99.0
G2 X19.0 Y103.248 I4.248 J0.0
G1 X48.0
G2 X52.248 Y99.0 I0.0 J-4.248
G1 Y64.0
G2 X52.18022 Y63.24418 I-4.248 J0.0
G2 X52.752 Y63.18091 I-0.18022 J-4.24418
G1 Y98.0
G2 X57.0 Y102.248 I4.248 J0.0
G1 X73.0
G2 X77.248 Y98.0 I0.0 J-4.248
G1 Y20.0
G2 X73.0 Y15.752 I-4.248 J0.0
G1 X57.0
G2 X54.5 Y16.56554 I0.0 J4.248
G2 X52.0 Y15.752 I-2.5 J3.43446
G1 X19.0
G2 X14.752 Y20.0 I0.0 J4.248
G1 Y59.0
G2 X15.56554 Y61.5 I4.248 J0.0
G2 X14.752 Y64.0 I3.43446 J2.5
G1 Y72.25
G1 F300.0 X13.25
G1 F800.0 Y104.75
G1 X78.75
G1 Y14.25
G1 X13.25
G1 Y72.25
G1 F300.0 X12.25
G1 F800.0 Y105.75
G1 X79.75
G1 Y13.25
G1 X12.25
G1 Y72.25
G1 F300.0 X11.25
G1 F800.0 Y12.25
G1 X80.75
G1 Y106.75
G1 X11.25
G1 Y72.25
G0 Z3.0
G0 X20.25
G1 F300.0 Z-4.5
G1 F800.0 Y77.75
G1 X22.75
G1 Y72.25
G1 X20.25
G0 Z3.0
G0 X17.75
G1 F300.0 Z-4.5
G1 F800.0 Y64.0
G3 X19.0 Y62.75 I1.25 J0.0
G1 X48.0
G3 X49.25 Y64.0 I0.0 J1.25
G1 Y99.0
G3 X48.0 Y100.25 I-1.25 J0.0
G1 X19.0
G3 X17.75 Y99.0 I0.0 J-1.25
G1 Y72.25
G1 F300.0 X16.752
G1 F800.0 Y99.0
G2 X19.0 Y101.248 I2.248 J0.0
G1 X48.0
G2 X50.248 Y99.0 I0.0 J-2.248
G1 Y64.0
G2 X48.0 Y61.752 I-2.248 J0.0
G1 X19.0
G2 X16.752 Y64.0 I0.0 J2.248
G1 Y72.25
G0 Z3.0
G0 X14.25 Y61.76863
G1 F300.0 Z-4.5
G3 F800.0 X14.38573 Y61.5 I4.75 J2.23137
G3 X14.25 Y61.23137 I4.61427 J-2.5
G1 Y61.76863
G0 Z3.0
G0 Y101.23137
G1 F300.0 Z-4.5
G1 F800.0 Y103.75
G1 X16.76863
G3 X14.25 Y101.23137 I2.23137 J-4.75
G0 Z3.0
G0 X50.23137 Y103.75
G1 F300.0 Z-4.5
G1 F800.0 X77.75
G1 Y100.23137
G3 X73.0 Y103.248 I-4.75 J-2.23137
G1 X57.0
G3 X52.79304 Y101.13735 I0.0 J-5.248
G3 X50.23137 Y103.75 I-4.79304 J-2.13735
G0 Z3.0
G0 X54.5 Y15.38573
G1 F300.0 Z-4.5
G3 F800.0 X54.76863 Y15.25 I2.5 J4.61427
G1 X54.23137
G3 X54.5 Y15.38573 I-2.23137 J4.75
G0 Z3.0
G0 X75.23137 Y15.25
G1 F300.0 Z-4.5
G3 F800.0 X77.75 Y17.76863 I-2.23137 J4.75
G1 Y15.25
G1 X75.23137
G0 Z3.0
G0 X16.76863
G1 F300.0 Z-4.5
G1 F800.0 X14.25
G1 Y17.76863
G3 X16.76863 Y15.25 I4.75 J2.23137
G0 Z3.0
G0 X18.04419 Y17.96532
G1 F300.0 Z-4.5
G3 F800.0 X19.0 Y17.752 I0.95581 J2.03468
G1 X52.0
G3 X54.248 Y20.0 I0.0 J2.248
G1 Y59.0
G3 X52.0 Y61.248 I-2.248 J0.0
G1 X19.0
G3 X16.752 Y59.0 I0.0 J-2.248
G1 Y20.0
G3 X18.04419 Y17.96532 I2.248 J0.0
G1 F300.0 X18.46852 Y18.86862
G3 F800.0 X19.0 Y18.75 I0.53148 J1.13138
G1 X52.0
G3 X53.25 Y20.0 I0.0 J1.25
G1 Y59.0
G3 X52.0 Y60.25 I-1.25 J0.0
G1 X19.0
G3 X17.75 Y59.0 I0.0 J-1.25
G1 Y20.0
G3 X18.46852 Y18.86862 I1.25 J0.0
G0 Z3.0
G0 X54.75297 Y19.93402
G1 F300.0 Z-4.5
G3 F800.0 X57.0 Y17.752 I2.24703 J0.06598
G1 X73.0
G3 X75.248 Y20.0 I0.0 J2.248
G1 Y98.0
G3 X73.0 Y100.248 I-2.248 J0.0
G1 X57.0
G3 X54.752 Y98.0 I0.0 J-2.248
G1 Y20.0
G3 X54.75297 Y19.93402 I2.248 J0.0
G1 F300.0 X55.75054 Y19.96331
G3 F800.0 X57.0 Y18.75 I1.24946 J0.03669
G1 X73.0
G3 X74.25 Y20.0 I0.0 J1.25
G1 Y98.0
G3 X73.0 Y99.25 I-1.25 J0.0
G1 X57.0
G3 X55.75 Y98.0 I0.0 J-1.25
G1 Y20.0
G3 X55.75054 Y19.96331 I1.25 J0.0
G0 Z3.0
G0 X54.5 Y17.92648
G1 F300.0 Z-4.5
G2 F800.0 X52.0 Y16.752 I-2.5 J2.07352
G1 X19.0
G2 X15.752 Y20.0 I0.0 J3.248
G1 Y59.0
G2 X16.92648 Y61.5 I3.248 J0.0
G2 X15.752 Y64.0 I2.07352 J2.5
G1 Y99.0
G2 X19.0 Y102.248 I3.248 J0.0
G1 X48.0
G2 X51.248 Y99.0 I0.0 J-3.248
G1 Y64.0
G2 X50.73496 Y62.248 I-3.248 J0.0
G1 X52.0
G2 X53.752 Y61.73496 I0.0 J-3.248
G1 Y98.0
G2 X57.0 Y101.248 I3.248 J0.0
G1 X73.0
G2 X76.248 Y98.0 I0.0 J-3.248
G1 Y20.0
G2 X73.0 Y16.752 I-3.248 J0.0
G1 X57.0
G2 X54.5 Y17.92648 I0.0 J3.248
G1 F300.0 Y16.56554
G2 F800.0 X52.0 Y15.752 I-2.5 J3.43446
G1 X19.0
G2 X14.752 Y20.0 I0.0 J4.248
G1 Y59.0
G2 X15.56554 Y61.5 I4.248 J0.0
G2 X14.752 Y64.0 I3.43446 J2.5
G1 Y99.0
G2 X19.0 Y103.248 I4.248 J0.0
G1 X48.0
G2 X52.248 Y99.0 I0.0 J-4.248
G1 Y64.0
G2 X52.18022 Y63.24418 I-4.248 J0.0
G2 X52.752 Y63.18091 I-0.18022 J-4.24418
G1 Y98.0
G2 X57.0 Y102.248 I4.248 J0.0
G1 X73.0
G2 X77.248 Y98.0 I0.0 J-4.248
G1 Y20.0
G2 X73.0 Y15.752 I-4.248 J0.0
G1 X57.0
G2 X54.5 Y16.56554 I0.0 J4.248
G0 Z3.0
G0 Y14.25
G1 F300.0 Z-4.5
G1 F800.0 X13.25
G1 Y104.75
G1 X78.75
G1 Y14.25
G1 X54.5
G1 F300.0 Y13.25
G1 F800.0 X12.25
G1 Y105.75
G1 X79.75
G1 Y13.25
G1 X54.5
G1 F300.0 Y12.25
G1 F800.0 X11.25
G1 Y106.75
G1 X80.75
G1 Y12.25
G1 X54.5
G1 F300.0 Y11.25
G1 F800.0 X10.25
G1 Y107.75
G1 X81.75
G1 Y11.25
G1 X54.5
G0 Z3.0
G0 X21.75 Y30.25
G1 F300.0 Z-4.5
G1 F800.0 X20.25
G1 Y35.75
G1 X21.75
G1 Y30.25
G1 F300.0 X22.75
G1 F800.0 Y29.25
G1 X19.25
G1 Y36.75
G1 X22.75
G1 Y30.25
G0 Z3.0
G0 X21.75 Y73.25
G1 F300.0 Z-4.5
G1 F800.0 X21.25
G1 Y76.75
G1 X21.75
G1 Y73.25
G0 Z3.0
G0 X23.75
G1 F300.0 Z-4.5
G1 F800.0 Y71.25
G1 X19.25
G1 Y78.75
G1 X23.75
G1 Y73.25
G0 Z3.0
G0 X33.25 Y78.25
G1 F300.0 Z-4.5
G1 F800.0 Y84.75
G1 X33.75
G1 Y78.25
G1 X33.25
G1 F300.0 X32.25
G1 F800.0 Y85.75
G1 X34.75
G1 Y77.25
G1 X32.25
G1 Y78.25
G1 F300.0 X31.25
G1 F800.0 Y86.75
G1 X35.75
G1 Y76.25
G1 X31.25
G1 Y78.25
G1 F300.0 X30.25
G1 F800.0 Y87.75
G1 X36.75
G1 Y75.25
G1 X30.25
G1 Y78.25
G1 F300.0 X29.25
G1 F800.0 Y88.75
G1 X37.75
G1 Y74.25
G1 X29.25
G1 Y78.25
G1 F300.0 X28.25
G1 F800.0 Y89.75
G1 X38.75
G1 Y73.25
G1 X28.25
G1 Y78.25
G1 F300.0 X27.25
G1 F800.0 Y90.75
G1 X39.75
G1 Y72.25
G1 X27.25
G1 Y78.25
G1 F300.0 X26.25
G1 F800.0 Y91.75
G1 X40.75
G1 Y71.25
G1 X26.25
G1 Y78.25
G1 F300.0 X25.25
G1 F800.0 Y92.75
G1 X41.75
G1 Y70.25
G1 X25.25
G1 Y78.25
G1 F300.0 X24.25
G1 F800.0 Y93.75
G1 X42.75
G1 Y69.25
G1 X24.25
G1 Y78.25
G1 F300.0 X23.25
G1 F800.0 Y94.75
G1 X43.75
G1 Y68.25
G1 X23.25
G1 Y78.25
G1 F300.0 X22.25
G1 F800.0 Y95.75
G1 X44.75
G1 Y67.25
G1 X22.25
G1 Y78.25
( Holding box )
S1000
G0 Z3.0
G0 X14.25 Y15.25
G1 F300.0 Z-5.5
G1 F800.0 Y17.76863
G3 X16.76863 Y15.25 I4.75 J2.23137
G1 X14.25
G0 Z3.0
G0 X54.23137
G1 F300.0 Z-5.5
G3 F800.0 X54.5 Y15.38573 I-2.23137 J4.75
G3 X54.76863 Y15.25 I2.5 J4.61427
G1 X54.23137
G0 Z3.0
G0 X75.23137
G1 F300.0 Z-5.5
G3 F800.0 X77.75 Y17.76863 I-2.23137 J4.75
G1 Y15.25
G1 X75.23137
G0 Z3.0
G0 X14.25 Y61.23137
G1 F300.0 Z-5.5
G1 F800.0 Y61.76863
G3 X14.38573 Y61.5 I4.75 J2.23137
G3 X14.25 Y61.23137 I4.61427 J-2.5
G0 Z3.0
G0 X20.25 Y72.25
G1 F300.0 Z-5.5
G1 F800.0 Y77.75
G1 X22.75
G1 Y72.25
G1 X20.25
G0 Z3.0
G0 X17.75
G1 F300.0 Z-5.5
G1 F800.0 Y64.0
G3 X19.0 Y62.75 I1.25 J0.0
G1 X48.0
G3 X49.25 Y64.0 I0.0 J1.25
G1 Y99.0
G3 X48.0 Y100.25 I-1.25 J0.0
G1 X19.0
G3 X17.75 Y99.0 I0.0 J-1.25
G1 Y72.25
G1 F300.0 X16.752
G1 F800.0 Y99.0
G2 X19.0 Y101.248 I2.248 J0.0
G1 X48.0
G2 X50.248 Y99.0 I0.0 J-2.248
G1 Y64.0
G2 X48.0 Y61.752 I-2.248 J0.0
G1 X19.0
G2 X16.752 Y64.0 I0.0 J2.248
G1 Y72.25
G0 Z3.0
G0 X14.25 Y101.23137
G1 F300.0 Z-5.5
G1 F800.0 Y103.75
G1 X16.76863
G3 X14.25 Y101.23137 I2.23137 J-4.75
G0 Z3.0
G0 X50.23137 Y103.75
G1 F300.0 Z-5.5
G1 F800.0 X77.75
G1 Y100.23137
G3 X73.0 Y103.248 I-4.75 J-2.23137
G1 X57.0
G3 X52.79304 Y101.13735 I0.0 J-5.248
G3 X50.23137 Y103.75 I-4.79304 J-2.13735
G0 Z3.0
G0 X55.28674 Y99.45542
G1 F300.0 Z-5.5
G3 F800.0 X54.752 Y98.0 I1.71326 J-1.45542
G1 Y20.0
G3 X57.0 Y17.752 I2.248 J0.0
G1 X73.0
G3 X75.248 Y20.0 I0.0 J2.248
G1 Y98.0
G3 X73.0 Y100.248 I-2.248 J0.0
G1 X57.0
G3 X55.28674 Y99.45542 I0.0 J-2.248
G1 F300.0 X56.04734 Y98.80929
G3 F800.0 X55.75 Y98.0 I0.95266 J-0.80929
G1 Y20.0
G3 X57.0 Y18.75 I1.25 J0.0
G1 X73.0
G3 X74.25 Y20.0 I0.0 J1.25
G1 Y98.0
G3 X73.0 Y99.25 I-1.25 J0.0
G1 X57.0
G3 X56.04734 Y98.80929 I0.0 J-1.25
G0 Z3.0
G0 X52.22738 Y61.23647
G1 F300.0 Z-5.5
G3 F800.0 X52.0 Y61.248 I-0.22738 J-2.23647
G1 X19.0
G3 X16.752 Y59.0 I0.0 J-2.248
G1 Y20.0
G3 X19.0 Y17.752 I2.248 J0.0
G1 X52.0
G3 X54.248 Y20.0 I0.0 J2.248
G1 Y59.0
G3 X52.22738 Y61.23647 I-2.248 J0.0
G1 F300.0 X52.12643 Y60.24359
G3 F800.0 X52.0 Y60.25 I-0.12643 J-1.24359
G1 X19.0
G3 X17.75 Y59.0 I0.0 J-1.25
G1 Y20.0
G3 X19.0 Y18.75 I1.25 J0.0
G1 X52.0
G3 X53.25 Y20.0 I0.0 J1.25
G1 Y59.0
G3 X52.12643 Y60.24359 I-1.25 J0.0
G0 Z3.0
G0 X52.32853 Y62.23134
G1 F300.0 Z-5.5
G2 F800.0 X53.752 Y61.73496 I-0.32853 J-3.23134
G1 Y98.0
G2 X57.0 Y101.248 I3.248 J0.0
G1 X73.0
G2 X76.248 Y98.0 I0.0 J-3.248
G1 Y20.0
G2 X73.0 Y16.752 I-3.248 J0.0
G1 X57.0
G2 X54.5 Y17.92648 I0.0 J3.248
G2 X52.0 Y16.752 I-2.5 J2.07352
G1 X19.0
G2 X15.752 Y20.0 I0.0 J3.248
G1 Y59.0
G2 X16.92648 Y61.5 I3.248 J0.0
G2 X15.752 Y64.0 I2.07352 J2.5
G1 Y99.0
G2 X19.0 Y102.248 I3.248 J0.0
G1 X48.0
G2 X51.248 Y99.0 I0.0 J-3.248
G1 Y64.0
G2 X50.73496 Y62.248 I-3.248 J0.0
G1 X52.0
G2 X52.32853 Y62.23134 I0.0 J-3.248
G1 F300.0 X52.42967 Y63.22621
G2 F800.0 X52.752 Y63.18091 I-0.42967 J-4.22621
G1 Y98.0
G2 X57.0 Y102.248 I4.248 J0.0
G1 X73.0
G2 X77.248 Y98.0 I0.0 J-4.248
G1 Y20.0
G2 X73.0 Y15.752 I-4.248 J0.0
G1 X57.0
G2 X54.5 Y16.56554 I0.0 J4.248
G2 X52.0 Y15.752 I-2.5 J3.43446
G1 X19.0
G2 X14.752 Y20.0 I0.0 J4.248
G1 Y59.0
G2 X15.56554 Y61.5 I4.248 J0.0
G2 X14.752 Y64.0 I3.43446 J2.5
G1 Y99.0
G2 X19.0 Y103.248 I4.248 J0.0
G1 X48.0
G2 X52.248 Y99.0 I0.0 J-4.248
G1 Y64.0
G2 X52.18022 Y63.24418 I-4.248 J0.0
G2 X52.42967 Y63.22621 I-0.18022 J-4.24418
G0 Z3.0
G0 X78.75
G1 F300.0 Z-5.5
G1 F800.0 Y14.25
G1 X13.25
G1 Y104.75
G1 X78.75
G1 Y63.22621
G1 F300.0 X79.75
G1 F800.0 Y13.25
G1 X12.25
G1 Y105.75
G1 X79.75
G1 Y63.22621
G1 F300.0 X80.75
G1 F800.0 Y12.25
G1 X11.25
G1 Y106.75
G1 X80.75
G1 Y63.22621
G1 F300.0 X81.75
G1 F800.0 Y11.25
G1 X10.25
G1 Y107.75
G1 X81.75
G1 Y63.22621
G0 Z3.0
G0 X65.75
G1 F300.0 Z-5.5
G1 F800.0 Y27.25
G1 X64.25
G1 Y81.53516
G3 X65.75 I0.75 J8.46484
G1 Y63.22621
G1 F300.0 X66.75
G1 F800.0 Y26.25
G1 X63.25
G1 Y82.70908
G3 X66.75 I1.75 J7.29092
G1 Y63.22621
G1 F300.0 X67.75
G1 F800.0 Y25.25
G1 X62.25
G1 Y84.1126
G3 X67.75 I2.75 J5.8874
G1 Y63.22621
G1 F300.0 X68.75
G1 F800.0 Y24.25
G1 X61.25
G1 Y85.97937
G3 X62.251 Y85.23859 I3.75 J4.02063
G3 X68.75 Y85.97937 I2.749 J4.76141
G1 Y63.22621
G1 F300.0 X69.75
G1 F800.0 Y23.25
G1 X60.25
G1 Y94.75
G1 X69.75
G1 Y63.22621
G0 Z3.0
G0 X65.78608 Y85.56919
G1 F300.0 Z-5.5
G3 F800.0 X69.5 Y90.0 I-0.78608 J4.43081
G3 X62.75 Y93.89711 I-4.5 J0.0
G3 Y86.10289 I2.25 J-3.89711
G3 X65.78608 Y85.56919 I2.25 J3.89711
G1 F300.0 Z-6.5
G3 F800.0 X69.5 Y90.0 I-0.78608 J4.43081
G3 X62.75 Y93.89711 I-4.5 J0.0
G3 Y86.10289 I2.25 J-3.89711
G3 X65.78608 Y85.56919 I2.25 J3.89711
G0 Z3.0
G0 X65.75 Y81.53516
G1 F300.0 Z-6.5
G1 F800.0 Y27.25
G1 X64.25
G1 Y81.53516
G3 X65.75 I0.75 J8.46484
G1 F300.0 X65.66174 Y82.53126
G3 F800.0 X66.75 Y82.70908 I-0.66174 J7.46874
G1 Y26.25
G1 X63.25
G1 Y82.70908
G3 X65.66174 Y82.53126 I1.75 J7.29092
G1 F300.0 X65.57349 Y83.52736
G3 F800.0 X67.75 Y84.1126 I-0.57349 J6.47264
G1 Y25.25
G1 X62.25
G1 Y84.1126
G3 X65.57349 Y83.52736 I2.75 J5.8874
G1 F300.0 X65.48523 Y84.52345
G3 F800.0 X68.75 Y85.97937 I-0.48523 J5.47655
G1 Y24.25
G1 X61.25
G1 Y85.97937
G3 X62.251 Y85.23859 I3.75 J4.02063
G3 X65.48523 Y84.52345 I2.749 J4.76141
G0 Z3.0
G0 X69.75
G1 F300.0 Z-6.5
G1 F800.0 Y23.25
G1 X60.25
G1 Y94.75
G1 X69.75
G1 Y84.52345
G0 Z3.0
G0 X67.94848 Y86.60052
G1 F300.0 Z-7.5
G3 F800.0 X69.5 Y90.0 I-2.94848 J3.39948
G3 X62.75 Y93.89711 I-4.5 J0.0
G3 Y86.10289 I2.25 J-3.89711
G3 X67.94848 Y86.60052 I2.25 J3.89711
G0 Z3.0
G0 X65.75 Y81.53516
G1 F300.0 Z-7.5
G1 F800.0 Y27.25
G1 X64.25
G1 Y81.53516
G3 X65.75 I0.75 J8.46484
G1 F300.0 X65.66174 Y82.53126
G3 F800.0 X66.75 Y82.70908 I-0.66174 J7.46874
G1 Y26.25
G1 X63.25
G1 Y82.70908
G3 X65.66174 Y82.53126 I1.75 J7.29092
G1 F300.0 X65.57349 Y83.52736
G3 F800.0 X67.75 Y84.1126 I-0.57349 J6.47264
G1 Y25.25
G1 X62.25
G1 Y84.1126
G3 X65.57349 Y83.52736 I2.75 J5.8874
G1 F300.0 X65.48523 Y84.52345
G3 F800.0 X68.75 Y85.97937 I-0.48523 J5.47655
G1 Y24.25
G1 X61.25
G1 Y85.97937
G3 X62.251 Y85.23859 I3.75 J4.02063
G3 X65.48523 Y84.52345 I2.749 J4.76141
G0 Z3.0
G0 X69.75
G1 F300.0 Z-7.5
G1 F800.0 Y23.25
G1 X60.25
G1 Y94.75
G1 X69.75
G1 Y84.52345
G0 Z3.0
G0 X67.94848 Y86.60052
G1 F300.0 Z-8.5
G3 F800.0 X69.5 Y90.0 I-2.94848 J3.39948
G3 X62.75 Y93.89711 I-4.5 J0.0
G3 Y86.10289 I2.25 J-3.89711
G3 X67.94848 Y86.60052 I2.25 J3.89711
G0 Z3.0
G0 X65.75 Y81.53516
G1 F300.0 Z-8.5
G1 F800.0 Y27.25
G1 X64.25
G1 Y81.53516
G3 X65.75 I0.75 J8.46484
G1 F300.0 X65.66174 Y82.53126
G3 F800.0 X66.75 Y82.70908 I-0.66174 J7.46874
G1 Y26.25
G1 X63.25
G1 Y82.70908
G3 X65.66174 Y82.53126 I1.75 J7.29092
G1 F300.0 X65.57349 Y83.52736
G3 F800.0 X67.75 Y84.1126 I-0.57349 J6.47264
G1 Y25.25
G1 X62.25
G1 Y84.1126
G3 X65.57349 Y83.52736 I2.75 J5.8874
G1 F300.0 X65.48523 Y84.52345
G3 F800.0 X68.75 Y85.97937 I-0.48523 J5.47655
G1 Y24.25
G1 X61.25
G1 Y85.97937
G3 X62.251 Y85.23859 I3.75 J4.02063
G3 X65.48523 Y84.52345 I2.749 J4.76141
G0 Z3.0
G0 X69.75
G1 F300.0 Z-8.5
G1 F800.0 Y23.25
G1 X60.25
G1 Y94.75
G1 X69.75
G1 Y84.52345
G0 Z3.0
G0 X67.94848 Y86.60052
G1 F300.0 Z-9.5
G3 F800.0 X69.5 Y90.0 I-2.94848 J3.39948
G3 X62.75 Y93.89711 I-4.5 J0.0
G3 Y86.10289 I2.25 J-3.89711
G3 X67.94848 Y86.60052 I2.25 J3.89711
G0 Z3.0
G0 X65.75 Y81.53516
G1 F300.0 Z-9.5
G1 F800.0 Y27.25
G1 X64.25
G1 Y81.53516
G3 X65.75 I0.75 J8.46484
G1 F300.0 X65.66174 Y82.53126
G3 F800.0 X66.75 Y82.70908 I-0.66174 J7.46874
G1 Y26.25
G1 X63.25
G1 Y82.70908
G3 X65.66174 Y82.53126 I1.75 J7.29092
G1 F300.0 X65.57349 Y83.52736
G3 F800.0 X67.75 Y84.1126 I-0.57349 J6.47264
G1 Y25.25
G1 X62.25
G1 Y84.1126
G3 X65.57349 Y83.52736 I2.75 J5.8874
G1 F300.0 X65.48523 Y84.52345
G3 F800.0 X68.75 Y85.97937 I-0.48523 J5.47655
G1 Y24.25
G1 X61.25
G1 Y85.97937
G3 X62.251 Y85.23859 I3.75 J4.02063
G3 X65.48523 Y84.52345 I2.749 J4.76141
G0 Z3.0
G0 X69.75
G1 F300.0 Z-9.5
G1 F800.0 Y23.25
G1 X60.25
G1 Y94.75
G1 X69.75
G1 Y84.52345
G0 Z3.0
G0 X67.94848 Y86.60052
G1 F300.0 Z-10.0
G3 F800.0 X69.5 Y90.0 I-2.94848 J3.39948
G3 X62.75 Y93.89711 I-4.5 J0.0
G3 Y86.10289 I2.25 J-3.89711
G3 X67.94848 Y86.60052 I2.25 J3.89711
G0 Z3.0
G0 X65.75 Y81.53516
G1 F300.0 Z-10.0
G1 F800.0 Y27.25
G1 X64.25
G1 Y81.53516
G3 X65.75 I0.75 J8.46484
G1 F300.0 X65.66174 Y82.53126
G3 F800.0 X66.75 Y82.70908 I-0.66174 J7.46874
G1 Y26.25
G1 X63.25
G1 Y82.70908
G3 X65.66174 Y82.53126 I1.75 J7.29092
G1 F300.0 X65.57349 Y83.52736
G3 F800.0 X67.75 Y84.1126 I-0.57349 J6.47264
G1 Y25.25
G1 X62.25
G1 Y84.1126
G3 X65.57349 Y83.52736 I2.75 J5.8874
G1 F300.0 X65.48523 Y84.52345
G3 F800.0 X68.75 Y85.97937 I-0.48523 J5.47655
G1 Y24.25
G1 X61.25
G1 Y85.97937
G3 X62.251 Y85.23859 I3.75 J4.02063
G3 X65.48523 Y84.52345 I2.749 J4.76141
G0 Z3.0
G0 X69.75
G1 F300.0 Z-10.0
G1 F800.0 Y23.25
G1 X60.25
G1 Y94.75
G1 X69.75
G1 Y84.52345
G0 Z3.0
G0 X77.75 Y100.23137
G1 F300.0 Z-6.5
G3 F800.0 X73.0 Y103.248 I-4.75 J-2.23137
G1 X57.0
G3 X52.79304 Y101.13735 I0.0 J-5.248
G3 X50.23137 Y103.75 I-4.79304 J-2.13735
G1 X77.75
G1 Y100.23137
G0 Z3.0
G0 X16.76863 Y103.75
G1 F300.0 Z-6.5
G3 F800.0 X14.25 Y101.23137 I2.23137 J-4.75
G1 Y103.75
G1 X16.76863
G0 Z3.0
G0 X14.25 Y61.76863
G1 F300.0 Z-6.5
G3 F800.0 X14.38573 Y61.5 I4.75 J2.23137
G3 X14.25 Y61.23137 I4.61427 J-2.5
G1 Y61.76863
G0 Z3.0
G0 Y17.76863
G1 F300.0 Z-6.5
G3 F800.0 X16.76863 Y15.25 I4.75 J2.23137
G1 X14.25
G1 Y17.76863
G0 Z3.0
G0 X54.23137 Y15.25
G1 F300.0 Z-6.5
G3 F800.0 X54.5 Y15.38573 I-2.23137 J4.75
G3 X54.76863 Y15.25 I2.5 J4.61427
G1 X54.23137
G0 Z3.0
G0 X75.23137
G1 F300.0 Z-6.5
G3 F800.0 X77.75 Y17.76863 I-2.23137 J4.75
G1 Y15.25
G1 X75.23137
G0 Z3.0
G0 X73.95581 Y17.96532
G1 F300.0 Z-6.5
G3 F800.0 X75.248 Y20.0 I-0.95581 J2.03468
G1 Y98.0
G3 X73.0 Y100.248 I-2.248 J0.0
G1 X57.0
G3 X54.752 Y98.0 I0.0 J-2.248
G1 Y20.0
G3 X57.0 Y17.752 I2.248 J0.0
G1 X73.0
G3 X73.95581 Y17.96532 I0.0 J2.248
G1 F300.0 X73.53148 Y18.86862
G3 F800.0 X74.25 Y20.0 I-0.53148 J1.13138
G1 Y98.0
G3 X73.0 Y99.25 I-1.25 J0.0
G1 X57.0
G3 X55.75 Y98.0 I0.0 J-1.25
G1 Y20.0
G3 X57.0 Y18.75 I1.25 J0.0
G1 X73.0
G3 X73.53148 Y18.86862 I0.0 J1.25
G0 Z3.0
G0 Y11.25
G1 F300.0 Z-6.5
G1 F800.0 X10.25
G1 Y107.75
G1 X81.75
G1 Y11.25
G1 X73.53148
G0 Z3.0
G0 X43.26662 Y28.68521
G1 F300.0 Z-5.5
G2 F800.0 X42.925 Y28.59349 I-0.21662 J0.12479
G2 Y29.02651 I0.125 J0.21651
G2 X43.3 Y28.81 I0.125 J-0.21651
G2 X43.26662 Y28.68521 I-0.25 J0.0
G1 F300.0 Z-6.5
G2 F800.0 X42.925 Y28.59349 I-0.21662 J0.12479
G2 Y29.02651 I0.125 J0.21651
G2 X43.3 Y28.81 I0.125 J-0.21651
G2 X43.26662 Y28.68521 I-0.25 J0.0
G1 F300.0 Z-7.5
G2 F800.0 X42.925 Y28.59349 I-0.21662 J0.12479
G2 Y29.02651 I0.125 J0.21651
G2 X43.3 Y28.81 I0.125 J-0.21651
G2 X43.26662 Y28.68521 I-0.25 J0.0
G1 F300.0 Z-8.5
G2 F800.0 X42.925 Y28.59349 I-0.21662 J0.12479
G2 Y29.02651 I0.125 J0.21651
G2 X43.3 Y28.81 I0.125 J-0.21651
G2 X43.26662 Y28.68521 I-0.25 J0.0
G1 F300.0 Z-9.5
G2 F800.0 X42.925 Y28.59349 I-0.21662 J0.12479
G2 Y29.02651 I0.125 J0.21651
G2 X43.3 Y28.81 I0.125 J-0.21651
G2 X43.26662 Y28.68521 I-0.25 J0.0
G1 F300.0 Z-10.0
G2 F800.0 X42.925 Y28.59349 I-0.21662 J0.12479
G2 Y29.02651 I0.125 J0.21651
G2 X43.3 Y28.81 I0.125 J-0.21651
G2 X43.26662 Y28.68521 I-0.25 J0.0
G0 Z3.0
G0 X37.5
G1 F300.0 Z-5.5
G1 F800.0 Y28.25
G1 X35.5
G1 Y29.25
G1 X37.5
G1 Y28.68521
G1 F300.0 X38.5
G1 F800.0 Y27.25
G1 X34.5
G1 Y30.25
G1 X38.5
G1 Y28.68521
G1 F300.0 X37.5
G1 Z-6.5
G1 F800.0 Y28.25
G1 X35.5
G1 Y29.25
G1 X37.5
G1 Y28.68521
G1 F300.0 X38.5
G1 F800.0 Y27.25
G1 X34.5
G1 Y30.25
G1 X38.5
G1 Y28.68521
G1 F300.0 X37.5
G1 Z-7.5
G1 F800.0 Y28.25
G1 X35.5
G1 Y29.25
G1 X37.5
G1 Y28.68521
G1 F300.0 X38.5
G1 F800.0 Y27.25
G1 X34.5
G1 Y30.25
G1 X38.5
G1 Y28.68521
G1 F300.0 X37.5
G1 Z-8.5
G1 F800.0 Y28.25
G1 X35.5
G1 Y29.25
G1 X37.5
G1 Y28.68521
G1 F300.0 X38.5
G1 F800.0 Y27.25
G1 X34.5
G1 Y30.25
G1 X38.5
G1 Y28.68521
G1 F300.0 X37.5
G1 Z-9.5
G1 F800.0 Y28.25
G1 X35.5
G1 Y29.25
G1 X37.5
G1 Y28.68521
G1 F300.0 X38.5
G1 F800.0 Y27.25
G1 X34.5
G1 Y30.25
G1 X38.5
G1 Y28.68521
G1 F300.0 X37.5
G1 Z-10.0
G1 F800.0 Y28.25
G1 X35.5
G1 Y29.25
G1 X37.5
G1 Y28.68521
G1 F300.0 X38.5
G1 F800.0 Y27.25
G1 X34.5
G1 Y30.25
G1 X38.5
G1 Y28.68521
G0 Z3.0
G0 X35.50703 Y39.95006
G1 F300.0 Z-5.5
G2 F800.0 X35.28 Y39.98019 I-0.07703 J0.28994
G2 Y40.49981 I0.15 J0.25981
G2 X35.73 Y40.24 I0.15 J-0.25981
G2 X35.50703 Y39.95006 I-0.3 J0.0
G1 F300.0 X35.76382 Y38.98359
G2 F800.0 X34.78 Y39.11417 I-0.33382 J1.25641
G2 Y41.36583 I0.65 J1.12583
G2 X36.73 Y40.24 I0.65 J-1.12583
G2 X35.76382 Y38.98359 I-1.3 J0.0
G1 F300.0 X35.50703 Y39.95006
G1 Z-6.5
G2 F800.0 X35.28 Y39.98019 I-0.07703 J0.28994
G2 Y40.49981 I0.15 J0.25981
G2 X35.73 Y40.24 I0.15 J-0.25981
G2 X35.50703 Y39.95006 I-0.3 J0.0
G1 F300.0 X35.76382 Y38.98359
G2 F800.0 X34.78 Y39.11417 I-0.33382 J1.25641
G2 Y41.36583 I0.65 J1.12583
G2 X36.73 Y40.24 I0.65 J-1.12583
G2 X35.76382 Y38.98359 I-1.3 J0.0
G1 F300.0 X35.50703 Y39.95006
G1 Z-7.5
G2 F800.0 X35.28 Y39.98019 I-0.07703 J0.28994
G2 Y40.49981 I0.15 J0.25981
G2 X35.73 Y40.24 I0.15 J-0.25981
G2 X35.50703 Y39.95006 I-0.3 J0.0
G1 F300.0 X35.76382 Y38.98359
G2 F800.0 X34.78 Y39.11417 I-0.33382 J1.25641
G2 Y41.36583 I0.65 J1.12583
G2 X36.73 Y40.24 I0.65 J-1.12583
G2 X35.76382 Y38.98359 I-1.3 J0.0
G1 F300.0 X35.50703 Y39.95006
G1 Z-8.5
G2 F800.0 X35.28 Y39.98019 I-0.07703 J0.28994
G2 Y40.49981 I0.15 J0.25981
G2 X35.73 Y40.24 I0.15 J-0.25981
G2 X35.50703 Y39.95006 I-0.3 J0.0
G1 F300.0 X35.76382 Y38.98359
G2 F800.0 X34.78 Y39.11417 I-0.33382 J1.25641
G2 Y41.36583 I0.65 J1.12583
G2 X36.73 Y40.24 I0.65 J-1.12583
G2 X35.76382 Y38.98359 I-1.3 J0.0
G1 F300.0 X35.50703 Y39.95006
G1 Z-9.5
G2 F800.0 X35.28 Y39.98019 I-0.07703 J0.28994
G2 Y40.49981 I0.15 J0.25981
G2 X35.73 Y40.24 I0.15 J-0.25981
G2 X35.50703 Y39.95006 I-0.3 J0.0
G1 F300.0 X35.76382 Y38.98359
G2 F800.0 X34.78 Y39.11417 I-0.33382 J1.25641
G2 Y41.36583 I0.65 J1.12583
G2 X36.73 Y40.24 I0.65 J-1.12583
G2 X35.76382 Y38.98359 I-1.3 J0.0
G1 F300.0 X35.50703 Y39.95006
G1 Z-10.0
G2 F800.0 X35.28 Y39.98019 I-0.07703 J0.28994
G2 Y40.49981 I0.15 J0.25981
G2 X35.73 Y40.24 I0.15 J-0.25981
G2 X35.50703 Y39.95006 I-0.3 J0.0
G1 F300.0 X35.76382 Y38.98359
G2 F800.0 X34.78 Y39.11417 I-0.33382 J1.25641
G2 Y41.36583 I0.65 J1.12583
G2 X36.73 Y40.24 I0.65 J-1.12583
G2 X35.76382 Y38.98359 I-1.3 J0.0
G0 Z3.0
G0 X35.44127 Y47.56021
G1 F300.0 Z-5.5
G2 F800.0 X35.28 Y47.60019 I-0.01127 J0.29979
G2 Y48.11981 I0.15 J0.25981
G2 X35.73 Y47.86 I0.15 J-0.25981
G2 X35.44127 Y47.56021 I-0.3 J0.0
G1 F300.0 X35.47885 Y46.56092
G2 F800.0 X34.78 Y46.73417 I-0.04885 J1.29908
G2 Y48.98583 I0.65 J1.12583
G2 X36.73 Y47.86 I0.65 J-1.12583
G2 X35.47885 Y46.56092 I-1.3 J0.0
G1 F300.0 X35.44127 Y47.56021
G1 Z-6.5
G2 F800.0 X35.28 Y47.60019 I-0.01127 J0.29979
G2 Y48.11981 I0.15 J0.25981
G2 X35.73 Y47.86 I0.15 J-0.25981
G2 X35.44127 Y47.56021 I-0.3 J0.0
G1 F300.0 X35.47885 Y46.56092
G2 F800.0 X34.78 Y46.73417 I-0.04885 J1.29908
G2 Y48.98583 I0.65 J1.12583
G2 X36.73 Y47.86 I0.65 J-1.12583
G2 X35.47885 Y46.56092 I-1.3 J0.0
G1 F300.0 X35.44127 Y47.56021
G1 Z-7.5
G2 F800.0 X35.28 Y47.60019 I-0.01127 J0.29979
G2 Y48.11981 I0.15 J0.25981
G2 X35.73 Y47.86 I0.15 J-0.25981
G2 X35.44127 Y47.56021 I-0.3 J0.0
G1 F300.0 X35.47885 Y46.56092
G2 F800.0 X34.78 Y46.73417 I-0.04885 J1.29908
G2 Y48.98583 I0.65 J1.12583
G2 X36.73 Y47.86 I0.65 J-1.12583
G2 X35.47885 Y46.56092 I-1.3 J0.0
G1 F300.0 X35.44127 Y47.56021
G1 Z-8.5
G2 F800.0 X35.28 Y47.60019 I-0.01127 J0.29979
G2 Y48.11981 I0.15 J0.25981
G2 X35.73 Y47.86 I0.15 J-0.25981
G2 X35.44127 Y47.56021 I-0.3 J0.0
G1 F300.0 X35.47885 Y46.56092
G2 F800.0 X34.78 Y46.73417 I-0.04885 J1.29908
G2 Y48.98583 I0.65 J1.12583
G2 X36.73 Y47.86 I0.65 J-1.12583
G2 X35.47885 Y46.56092 I-1.3 J0.0
G1 F300.0 X35.44127 Y47.56021
G1 Z-9.5
G2 F800.0 X35.28 Y47.60019 I-0.01127 J0.29979
G2 Y48.11981 I0.15 J0.25981
G2 X35.73 Y47.86 I0.15 J-0.25981
G2 X35.44127 Y47.56021 I-0.3 J0.0
G1 F300.0 X35.47885 Y46.56092
G2 F800.0 X34.78 Y46.73417 I-0.04885 J1.29908
G2 Y48.98583 I0.65 J1.12583
G2 X36.73 Y47.86 I0.65 J-1.12583
G2 X35.47885 Y46.56092 I-1.3 J0.0
G1 F300.0 X35.44127 Y47.56021
G1 Z-10.0
G2 F800.0 X35.28 Y47.60019 I-0.01127 J0.29979
G2 Y48.11981 I0.15 J0.25981
G2 X35.73 Y47.86 I0.15 J-0.25981
G2 X35.44127 Y47.56021 I-0.3 J0.0
G1 F300.0 X35.47885 Y46.56092
G2 F800.0 X34.78 Y46.73417 I-0.04885 J1.29908
G2 Y48.98583 I0.65 J1.12583
G2 X36.73 Y47.86 I0.65 J-1.12583
G2 X35.47885 Y46.56092 I-1.3 J0.0
G0 Z3.0
G0 X28.03355 Y50.28809
G1 F300.0 Z-5.5
G2 F800.0 X27.685 Y50.18349 I-0.22355 J0.11191
G2 Y50.61651 I0.125 J0.21651
G2 X28.06 Y50.4 I0.125 J-0.21651
G2 X28.03355 Y50.28809 I-0.25 J0.0
G1 F300.0 Z-6.5
G2 F800.0 X27.685 Y50.18349 I-0.22355 J0.11191
G2 Y50.61651 I0.125 J0.21651
G2 X28.06 Y50.4 I0.125 J-0.21651
G2 X28.03355 Y50.28809 I-0.25 J0.0
G1 F300.0 Z-7.5
G2 F800.0 X27.685 Y50.18349 I-0.22355 J0.11191
G2 Y50.61651 I0.125 J0.21651
G2 X28.06 Y50.4 I0.125 J-0.21651
G2 X28.03355 Y50.28809 I-0.25 J0.0
G1 F300.0 Z-8.5
G2 F800.0 X27.685 Y50.18349 I-0.22355 J0.11191
G2 Y50.61651 I0.125 J0.21651
G2 X28.06 Y50.4 I0.125 J-0.21651
G2 X28.03355 Y50.28809 I-0.25 J0.0
G1 F300.0 Z-9.5
G2 F800.0 X27.685 Y50.18349 I-0.22355 J0.11191
G2 Y50.61651 I0.125 J0.21651
G2 X28.06 Y50.4 I0.125 J-0.21651
G2 X28.03355 Y50.28809 I-0.25 J0.0
G1 F300.0 Z-10.0
G2 F800.0 X27.685 Y50.18349 I-0.22355 J0.11191
G2 Y50.61651 I0.125 J0.21651
G2 X28.06 Y50.4 I0.125 J-0.21651
G2 X28.03355 Y50.28809 I-0.25 J0.0
G0 Z3.0
G0 X21.75 Y35.75
G1 F300.0 Z-5.5
G1 F800.0 Y30.25
G1 X20.25
G1 Y35.75
G1 X21.75
G1 F300.0 Y36.75
G1 F800.0 X22.75
G1 Y29.25
G1 X19.25
G1 Y36.75
G1 X21.75
G1 F300.0 Y35.75
G1 Z-6.5
G1 F800.0 Y30.25
G1 X20.25
G1 Y35.75
G1 X21.75
G1 F300.0 Y36.75
G1 F800.0 X22.75
G1 Y29.25
G1 X19.25
G1 Y36.75
G1 X21.75
G0 Z3.0
G0 Y73.25
G1 F300.0 Z-5.5
G1 F800.0 X21.25
G1 Y76.75
G1 X21.75
G1 Y73.25
G0 Z3.0
G0 X23.75
G1 F300.0 Z-5.5
G1 F800.0 Y71.25
G1 X19.25
G1 Y78.75
G1 X23.75
G1 Y73.25
G0 Z3.0
G0 X33.25 Y78.25
G1 F300.0 Z-5.5
G1 F800.0 Y84.75
G1 X33.75
G1 Y78.25
G1 X33.25
G1 F300.0 X32.25
G1 F800.0 Y85.75
G1 X34.75
G1 Y77.25
G1 X32.25
G1 Y78.25
G1 F300.0 X31.25
G1 F800.0 Y86.75
G1 X35.75
G1 Y76.25
G1 X31.25
G1 Y78.25
G1 F300.0 X30.25
G1 F800.0 Y87.75
G1 X36.75
G1 Y75.25
G1 X30.25
G1 Y78.25
G1 F300.0 X29.25
G1 F800.0 Y88.75
G1 X37.75
G1 Y74.25
G1 X29.25
G1 Y78.25
G1 F300.0 X28.25
G1 F800.0 Y89.75
G1 X38.75
G1 Y73.25
G1 X28.25
G1 Y78.25
G1 F300.0 X27.25
G1 F800.0 Y90.75
G1 X39.75
G1 Y72.25
G1 X27.25
G1 Y78.25
G1 F300.0 X26.25
G1 F800.0 Y91.75
G1 X40.75
G1 Y71.25
G1 X26.25
G1 Y78.25
G1 F300.0 X25.25
G1 F800.0 Y92.75
G1 X41.75
G1 Y70.25
G1 X25.25
G1 Y78.25
G1 F300.0 X24.25
G1 F800.0 Y93.75
G1 X42.75
G1 Y69.25
G1 X24.25
G1 Y78.25
G1 F300.0 X23.25
G1 F800.0 Y94.75
G1 X43.75
G1 Y68.25
G1 X23.25
G1 Y78.25
G1 F300.0 X22.25
G1 F800.0 Y95.75
G1 X44.75
G1 Y67.25
G1 X22.25
G1 Y78.25
G1 F300.0 X21.75 Y76.75
G1 Z-6.5
G1 F800.0 Y73.25
G1 X21.25
G1 Y76.75
G1 X21.75
G0 Z3.0
G0 Y78.75
G1 F300.0 Z-6.5
G1 F800.0 X23.75
G1 Y71.25
G1 X19.25
G1 Y78.75
G1 X21.75
G0 Z3.0
G0 X33.25
G1 F300.0 Z-6.5
G1 F800.0 Y84.75
G1 X33.75
G1 Y78.25
G1 X33.25
G1 Y78.75
G1 F300.0 X32.25
G1 F800.0 Y85.75
G1 X34.75
G1 Y77.25
G1 X32.25
G1 Y78.75
G1 F300.0 X31.25
G1 F800.0 Y86.75
G1 X35.75
G1 Y76.25
G1 X31.25
G1 Y78.75
G1 F300.0 X30.25
G1 F800.0 Y87.75
G1 X36.75
G1 Y75.25
G1 X30.25
G1 Y78.75
G1 F300.0 X29.25
G1 F800.0 Y88.75
G1 X37.75
G1 Y74.25
G1 X29.25
G1 Y78.75
G1 F300.0 X28.25
G1 F800.0 Y89.75
G1 X38.75
G1 Y73.25
G1 X28.25
G1 Y78.75
G1 F300.0 X27.25
G1 F800.0 Y90.75
G1 X39.75
G1 Y72.25
G1 X27.25
G1 Y78.75
G1 F300.0 X26.25
G1 F800.0 Y91.75
G1 X40.75
G1 Y71.25
G1 X26.25
G1 Y78.75
G1 F300.0 X25.25
G1 F800.0 Y92.75
G1 X41.75
G1 Y70.25
G1 X25.25
G1 Y78.75
G1 F300.0 X24.25
G1 F800.0 Y93.75
G1 X42.75
G1 Y69.25
G1 X24.25
G1 Y78.75
G1 F300.0 X23.25
G1 F800.0 Y94.75
G1 X43.75
G1 Y68.25
G1 X23.25
G1 Y78.75
G1 F300.0 X22.25
G1 F800.0 Y95.75
G1 X44.75
G1 Y67.25
G1 X22.25
G1 Y78.75
G1 F300.0 Y77.75
G1 F800.0 X22.75
G1 Y72.25
G1 X20.25
G1 Y77.75
G1 X22.25
G0 Z3.0
G0 X17.75
G1 F300.0 Z-6.5
G1 F800.0 Y64.0
G3 X19.0 Y62.75 I1.25 J0.0
G1 X48.0
G3 X49.25 Y64.0 I0.0 J1.25
G1 Y99.0
G3 X48.0 Y100.25 I-1.25 J0.0
G1 X19.0
G3 X17.75 Y99.0 I0.0 J-1.25
G1 Y77.75
G1 F300.0 X16.752
G1 F800.0 Y99.0
G2 X19.0 Y101.248 I2.248 J0.0
G1 X48.0
G2 X50.248 Y99.0 I0.0 J-2.248
G1 Y64.0
G2 X48.0 Y61.752 I-2.248 J0.0
G1 X19.0
G2 X16.752 Y64.0 I0.0 J2.248
G1 Y77.75
G0 Z3.0
G0 X18.7324 Y61.23202
G1 F300.0 Z-6.5
G3 F800.0 X16.752 Y59.0 I0.2676 J-2.23202
G1 Y20.0
G3 X19.0 Y17.752 I2.248 J0.0
G1 X52.0
G3 X54.248 Y20.0 I0.0 J2.248
G1 Y59.0
G3 X52.0 Y61.248 I-2.248 J0.0
G1 X19.0
G3 X18.7324 Y61.23202 I0.0 J-2.248
G1 F300.0 X18.8512 Y60.24111
G3 F800.0 X17.75 Y59.0 I0.1488 J-1.24111
G1 Y20.0
G3 X19.0 Y18.75 I1.25 J0.0
G1 X52.0
G3 X53.25 Y20.0 I0.0 J1.25
G1 Y59.0
G3 X52.0 Y60.25 I-1.25 J0.0
G1 X19.0
G3 X18.8512 Y60.24111 I0.0 J-1.25
G0 Z3.0
G0 X16.92648 Y61.5
G1 F300.0 Z-6.5
G2 F800.0 X15.752 Y64.0 I2.07352 J2.5
G1 Y99.0
G2 X19.0 Y102.248 I3.248 J0.0
G1 X48.0
G2 X51.248 Y99.0 I0.0 J-3.248
G1 Y64.0
G2 X50.73496 Y62.248 I-3.248 J0.0
G1 X52.0
G2 X53.752 Y61.73496 I0.0 J-3.248
G1 Y98.0
G2 X57.0 Y101.248 I3.248 J0.0
G1 X73.0
G2 X76.248 Y98.0 I0.0 J-3.248
G1 Y20.0
G2 X73.0 Y16.752 I-3.248 J0.0
G1 X57.0
G2 X54.5 Y17.92648 I0.0 J3.248
G2 X52.0 Y16.752 I-2.5 J2.07352
G1 X19.0
G2 X15.752 Y20.0 I0.0 J3.248
G1 Y59.0
G2 X16.92648 Y61.5 I3.248 J0.0
G1 F300.0 X15.56554
G2 F800.0 X14.752 Y64.0 I3.43446 J2.5
G1 Y99.0
G2 X19.0 Y103.248 I4.248 J0.0
G1 X48.0
G2 X52.248 Y99.0 I0.0 J-4.248
G1 Y64.0
G2 X52.18022 Y63.24418 I-4.248 J0.0
G2 X52.752 Y63.18091 I-0.18022 J-4.24418
G1 Y98.0
G2 X57.0 Y102.248 I4.248 J0.0
G1 X73.0
G2 X77.248 Y98.0 I0.0 J-4.248
G1 Y20.0
G2 X73.0 Y15.752 I-4.248 J0.0
G1 X57.0
G2 X54.5 Y16.56554 I0.0 J4.248
G2 X52.0 Y15.752 I-2.5 J3.43446
G1 X19.0
G2 X14.752 Y20.0 I0.0 J4.248
G1 Y59.0
G2 X15.56554 Y61.5 I4.248 J0.0
G0 Z3.0
G0 X13.25
G1 F300.0 Z-6.5
G1 F800.0 Y104.75
G1 X78.75
G1 Y14.25
G1 X13.25
G1 Y61.5
G1 F300.0 X12.25
G1 F800.0 Y105.75
G1 X79.75
G1 Y13.25
G1 X12.25
G1 Y61.5
G1 F300.0 X11.25
G1 F800.0 Y12.25
G1 X80.75
G1 Y106.75
G1 X11.25
G1 Y61.5
G0 Z3.0
G0 X14.25
G1 F300.0 Z-7.5
G1 F800.0 Y61.76863
G3 X14.38573 Y61.5 I4.75 J2.23137
G3 X14.25 Y61.23137 I4.61427 J-2.5
G1 Y61.5
G0 Z3.0
G0 X20.25 Y72.25
G1 F300.0 Z-7.5
G1 F800.0 Y77.75
G1 X22.75
G1 Y72.25
G1 X20.25
G0 Z3.0
G0 X17.75
G1 F300.0 Z-7.5
G1 F800.0 Y64.0
G3 X19.0 Y62.75 I1.25 J0.0
G1 X48.0
G3 X49.25 Y64.0 I0.0 J1.25
G1 Y99.0
G3 X48.0 Y100.25 I-1.25 J0.0
G1 X19.0
G3 X17.75 Y99.0 I0.0 J-1.25
G1 Y72.25
G1 F300.0 X16.752
G1 F800.0 Y99.0
G2 X19.0 Y101.248 I2.248 J0.0
G1 X48.0
G2 X50.248 Y99.0 I0.0 J-2.248
G1 Y64.0
G2 X48.0 Y61.752 I-2.248 J0.0
G1 X19.0
G2 X16.752 Y64.0 I0.0 J2.248
G1 Y72.25
G0 Z3.0
G0 X14.25 Y101.23137
G1 F300.0 Z-7.5
G1 F800.0 Y103.75
G1 X16.76863
G3 X14.25 Y101.23137 I2.23137 J-4.75
G0 Z3.0
G0 X50.23137 Y103.75
G1 F300.0 Z-7.5
G1 F800.0 X77.75
G1 Y100.23137
G3 X73.0 Y103.248 I-4.75 J-2.23137
G1 X57.0
G3 X52.79304 Y101.13735 I0.0 J-5.248
G3 X50.23137 Y103.75 I-4.79304 J-2.13735
G0 Z3.0
G0 X54.5 Y15.38573
G1 F300.0 Z-7.5
G3 F800.0 X54.76863 Y15.25 I2.5 J4.61427
G1 X54.23137
G3 X54.5 Y15.38573 I-2.23137 J4.75
G0 Z3.0
G0 X75.23137 Y15.25
G1 F300.0 Z-7.5
G3 F800.0 X77.75 Y17.76863 I-2.23137 J4.75
G1 Y15.25
G1 X75.23137
G0 Z3.0
G0 X16.76863
G1 F300.0 Z-7.5
G1 F800.0 X14.25
G1 Y17.76863
G3 X16.76863 Y15.25 I4.75 J2.23137
G0 Z3.0
G0 X18.04419 Y17.96532
G1 F300.0 Z-7.5
G3 F800.0 X19.0 Y17.752 I0.95581 J2.03468
G1 X52.0
G3 X54.248 Y20.0 I0.0 J2.248
G1 Y59.0
G3 X52.0 Y61.248 I-2.248 J0.0
G1 X19.0
G3 X16.752 Y59.0 I0.0 J-2.248
G1 Y20.0
G3 X18.04419 Y17.96532 I2.248 J0.0
G1 F300.0 X18.46852 Y18.86862
G3 F800.0 X19.0 Y18.75 I0.53148 J1.13138
G1 X52.0
G3 X53.25 Y20.0 I0.0 J1.25
G1 Y59.0
G3 X52.0 Y60.25 I-1.25 J0.0
G1 X19.0
G3 X17.75 Y59.0 I0.0 J-1.25
G1 Y20.0
G3 X18.46852 Y18.86862 I1.25 J0.0
G0 Z3.0
G0 X54.75297 Y19.93402
G1 F300.0 Z-7.5
G3 F800.0 X57.0 Y17.752 I2.24703 J0.06598
G1 X73.0
G3 X75.248 Y20.0 I0.0 J2.248
G1 Y98.0
G3 X73.0 Y100.248 I-2.248 J0.0
G1 X57.0
G3 X54.752 Y98.0 I0.0 J-2.248
G1 Y20.0
G3 X54.75297 Y19.93402 I2.248 J0.0
G1 F300.0 X55.75054 Y19.96331
G3 F800.0 X57.0 Y18.75 I1.24946 J0.03669
G1 X73.0
G3 X74.25 Y20.0 I0.0 J1.25
G1 Y98.0
G3 X73.0 Y99.25 I-1.25 J0.0
G1 X57.0
G3 X55.75 Y98.0 I0.0 J-1.25
G1 Y20.0
G3 X55.75054 Y19.96331 I1.25 J0.0
G0 Z3.0
G0 X54.5 Y17.92648
G1 F300.0 Z-7.5
G2 F800.0 X52.0 Y16.752 I-2.5 J2.07352
G1 X19.0
G2 X15.752 Y20.0 I0.0 J3.248
G1 Y59.0
G2 X16.92648 Y61.5 I3.248 J0.0
G2 X15.752 Y64.0 I2.07352 J2.5
G1 Y99.0
G2 X19.0 Y102.248 I3.248 J0.0
G1 X48.0
G2 X51.248 Y99.0 I0.0 J-3.248
G1 Y64.0
G2 X50.73496 Y62.248 I-3.248 J0.0
G1 X52.0
G2 X53.752 Y61.73496 I0.0 J-3.248
G1 Y98.0
G2 X57.0 Y101.248 I3.248 J0.0
G1 X73.0
G2 X76.248 Y98.0 I0.0 J-3.248
G1 Y20.0
G2 X73.0 Y16.752 I-3.248 J0.0
G1 X57.0
G2 X54.5 Y17.92648 I0.0 J3.248
G1 F300.0 Y16.56554
G2 F800.0 X52.0 Y15.752 I-2.5 J3.43446
G1 X19.0
G2 X14.752 Y20.0 I0.0 J4.248
G1 Y59.0
G2 X15.56554 Y61.5 I4.248 J0.0
G2 X14.752 Y64.0 I3.43446 J2.5
G1 Y99.0
G2 X19.0 Y103.248 I4.248 J0.0
G1 X48.0
G2 X52.248 Y99.0 I0.0 J-4.248
G1 Y64.0
G2 X52.18022 Y63.24418 I-4.248 J0.0
G2 X52.752 Y63.18091 I-0.18022 J-4.24418
G1 Y98.0
G2 X57.0 Y102.248 I4.248 J0.0
G1 X73.0
G2 X77.248 Y98.0 I0.0 J-4.248
G1 Y20.0
G2 X73.0 Y15.752 I-4.248 J0.0
G1 X57.0
G2 X54.5 Y16.56554 I0.0 J4.248
G0 Z3.0
G0 Y14.25
G1 F300.0 Z-7.5
G1 F800.0 X13.25
G1 Y104.75
G1 X78.75
G1 Y14.25
G1 X54.5
G1 F300.0 Y13.25
G1 F800.0 X12.25
G1 Y105.75
G1 X79.75
G1 Y13.25
G1 X54.5
G1 F300.0 Y12.25
G1 F800.0 X11.25
G1 Y106.75
G1 X80.75
G1 Y12.25
G1 X54.5
G1 F300.0 Y11.25
G1 F800.0 X10.25
G1 Y107.75
G1 X81.75
G1 Y11.25
G1 X54.5
G0 Z3.0
G0 Y15.25
G1 F300.0 Z-8.5
G1 F800.0 X54.23137
G3 X54.5 Y15.38573 I-2.23137 J4.75
G3 X54.76863 Y15.25 I2.5 J4.61427
G1 X54.5
G0 Z3.0
G0 X75.23137
G1 F300.0 Z-8.5
G3 F800.0 X77.75 Y17.76863 I-2.23137 J4.75
G1 Y15.25
G1 X75.23137
G0 Z3.0
G0 X16.76863
G1 F300.0 Z-8.5
G1 F800.0 X14.25
G1 Y17.76863
G3 X16.76863 Y15.25 I4.75 J2.23137
G0 Z3.0
G0 X14.25 Y61.23137
G1 F300.0 Z-8.5
G1 F800.0 Y61.76863
G3 X14.38573 Y61.5 I4.75 J2.23137
G3 X14.25 Y61.23137 I4.61427 J-2.5
G0 Z3.0
G0 Y101.23137
G1 F300.0 Z-8.5
G1 F800.0 Y103.75
G1 X16.76863
G3 X14.25 Y101.23137 I2.23137 J-4.75
G0 Z3.0
G0 X50.23137 Y103.75
G1 F300.0 Z-8.5
G1 F800.0 X77.75
G1 Y100.23137
G3 X73.0 Y103.248 I-4.75 J-2.23137
G1 X57.0
G3 X52.79304 Y101.13735 I0.0 J-5.248
G3 X50.23137 Y103.75 I-4.79304 J-2.13735
G0 Z3.0
G0 X55.28674 Y99.45542
G1 F300.0 Z-8.5
G3 F800.0 X54.752 Y98.0 I1.71326 J-1.45542
G1 Y20.0
G3 X57.0 Y17.752 I2.248 J0.0
G1 X73.0
G3 X75.248 Y20.0 I0.0 J2.248
G1 Y98.0
G3 X73.0 Y100.248 I-2.248 J0.0
G1 X57.0
G3 X55.28674 Y99.45542 I0.0 J-2.248
G1 F300.0 X56.04734 Y98.80929
G3 F800.0 X55.75 Y98.0 I0.95266 J-0.80929
G1 Y20.0
G3 X57.0 Y18.75 I1.25 J0.0
G1 X73.0
G3 X74.25 Y20.0 I0.0 J1.25
G1 Y98.0
G3 X73.0 Y99.25 I-1.25 J0.0
G1 X57.0
G3 X56.04734 Y98.80929 I0.0 J-1.25
G0 Z3.0
G0 Y107.75
G1 F300.0 Z-8.5
G1 F800.0 X81.75
G1 Y11.25
G1 X10.25
G1 Y107.75
G1 X56.04734
G0 Z3.0
G0 X33.75 Y84.75
G1 F300.0 Z-7.5
G1 F800.0 Y78.25
G1 X33.25
G1 Y84.75
G1 X33.75
G1 F300.0 Y85.75
G1 F800.0 X34.75
G1 Y77.25
G1 X32.25
G1 Y85.75
G1 X33.75
G1 F300.0 Y86.75
G1 F800.0 X35.75
G1 Y76.25
G1 X31.25
G1 Y86.75
G1 X33.75
G1 F300.0 Y87.75
G1 F800.0 X36.75
G1 Y75.25
G1 X30.25
G1 Y87.75
G1 X33.75
G1 F300.0 Y88.75
G1 F800.0 X37.75
G1 Y74.25
G1 X29.25
G1 Y88.75
G1 X33.75
G1 F300.0 Y89.75
G1 F800.0 X38.75
G1 Y73.25
G1 X28.25
G1 Y89.75
G1 X33.75
G1 F300.0 Y90.75
G1 F800.0 X39.75
G1 Y72.25
G1 X27.25
G1 Y90.75
G1 X33.75
G1 F300.0 Y91.75
G1 F800.0 X40.75
G1 Y71.25
G1 X26.25
G1 Y91.75
G1 X33.75
G1 F300.0 Y92.75
G1 F800.0 X41.75
G1 Y70.25
G1 X25.25
G1 Y92.75
G1 X33.75
G1 F300.0 Y93.75
G1 F800.0 X42.75
G1 Y69.25
G1 X24.25
G1 Y93.75
G1 X33.75
G1 F300.0 Y94.75
G1 F800.0 X43.75
G1 Y68.25
G1 X23.25
G1 Y94.75
G1 X33.75
G1 F300.0 Y95.75
G1 F800.0 X44.75
G1 Y67.25
G1 X22.25
G1 Y95.75
G1 X33.75
G0 Z3.0
G0 X21.75 Y76.75
G1 F300.0 Z-7.5
G1 F800.0 Y73.25
G1 X21.25
G1 Y76.75
G1 X21.75
G0 Z3.0
G0 Y78.75
G1 F300.0 Z-7.5
G1 F800.0 X23.75
G1 Y71.25
G1 X19.25
G1 Y78.75
G1 X21.75
G0 Z3.0
G0 Y76.75
G1 F300.0 Z-8.5
G1 F800.0 Y73.25
G1 X21.25
G1 Y76.75
G1 X21.75
G0 Z3.0
G0 Y78.75
G1 F300.0 Z-8.5
G1 F800.0 X23.75
G1 Y71.25
G1 X19.25
G1 Y78.75
G1 X21.75
G0 Z3.0
G0 X33.25
G1 F300.0 Z-8.5
G1 F800.0 Y84.75
G1 X33.75
G1 Y78.25
G1 X33.25
G1 Y78.75
G1 F300.0 X32.25
G1 F800.0 Y85.75
G1 X34.75
G1 Y77.25
G1 X32.25
G1 Y78.75
G1 F300.0 X31.25
G1 F800.0 Y86.75
G1 X35.75
G1 Y76.25
G1 X31.25
G1 Y78.75
G1 F300.0 X30.25
G1 F800.0 Y87.75
G1 X36.75
G1 Y75.25
G1 X30.25
G1 Y78.75
G1 F300.0 X29.25
G1 F800.0 Y88.75
G1 X37.75
G1 Y74.25
G1 X29.25
G1 Y78.75
G1 F300.0 X28.25
G1 F800.0 Y89.75
G1 X38.75
G1 Y73.25
G1 X28.25
G1 Y78.75
G1 F300.0 X27.25
G1 F800.0 Y90.75
G1 X39.75
G1 Y72.25
G1 X27.25
G1 Y78.75
G1 F300.0 X26.25
G1 F800.0 Y91.75
G1 X40.75
G1 Y71.25
G1 X26.25
G1 Y78.75
G1 F300.0 X25.25
G1 F800.0 Y92.75
G1 X41.75
G1 Y70.25
G1 X25.25
G1 Y78.75
G1 F300.0 X24.25
G1 F800.0 Y93.75
G1 X42.75
G1 Y69.25
G1 X24.25
G1 Y78.75
G1 F300.0 X23.25
G1 F800.0 Y94.75
G1 X43.75
G1 Y68.25
G1 X23.25
G1 Y78.75
G1 F300.0 X22.25
G1 F800.0 Y95.75
G1 X44.75
G1 Y67.25
G1 X22.25
G1 Y78.75
G0 Z3.0
G0 X21.75 Y35.75
G1 F300.0 Z-7.5
G1 F800.0 Y30.25
G1 X20.25
G1 Y35.75
G1 X21.75
G1 F300.0 Y36.75
G1 F800.0 X22.75
G1 Y29.25
G1 X19.25
G1 Y36.75
G1 X21.75
G1 F300.0 Y35.75
G1 Z-8.5
G1 F800.0 Y30.25
G1 X20.25
G1 Y35.75
G1 X21.75
G1 F300.0 Y36.75
G1 F800.0 X22.75
G1 Y29.25
G1 X19.25
G1 Y36.75
G1 X21.75
G0 Z3.0
G0 X17.75
G1 F300.0 Z-8.5
G1 F800.0 Y20.0
G3 X19.0 Y18.75 I1.25 J0.0
G1 X52.0
G3 X53.25 Y20.0 I0.0 J1.25
G1 Y59.0
G3 X52.0 Y60.25 I-1.25 J0.0
G1 X19.0
G3 X17.75 Y59.0 I0.0 J-1.25
G1 Y36.75
G1 F300.0 X16.752
G1 F800.0 Y59.0
G2 X19.0 Y61.248 I2.248 J0.0
G1 X52.0
G2 X54.248 Y59.0 I0.0 J-2.248
G1 Y20.0
G2 X52.0 Y17.752 I-2.248 J0.0
G1 X19.0
G2 X16.752 Y20.0 I0.0 J2.248
G1 Y36.75
G0 Z3.0
G0 X20.25 Y72.25
G1 F300.0 Z-8.5
G1 F800.0 Y77.75
G1 X22.75
G1 Y72.25
G1 X20.25
G0 Z3.0
G0 X17.75
G1 F300.0 Z-8.5
G1 F800.0 Y64.0
G3 X19.0 Y62.75 I1.25 J0.0
G1 X48.0
G3 X49.25 Y64.0 I0.0 J1.25
G1 Y99.0
G3 X48.0 Y100.25 I-1.25 J0.0
G1 X19.0
G3 X17.75 Y99.0 I0.0 J-1.25
G1 Y72.25
G1 F300.0 X16.752
G1 F800.0 Y99.0
G2 X19.0 Y101.248 I2.248 J0.0
G1 X48.0
G2 X50.248 Y99.0 I0.0 J-2.248
G1 Y64.0
G2 X48.0 Y61.752 I-2.248 J0.0
G1 X19.0
G2 X16.752 Y64.0 I0.0 J2.248
G1 Y72.25
G1 F300.0 X15.752
G1 F800.0 Y99.0
G2 X19.0 Y102.248 I3.248 J0.0
G1 X48.0
G2 X51.248 Y99.0 I0.0 J-3.248
G1 Y64.0
G2 X50.73496 Y62.248 I-3.248 J0.0
G1 X52.0
G2 X53.752 Y61.73496 I0.0 J-3.248
G1 Y98.0
G2 X57.0 Y101.248 I3.248 J0.0
G1 X73.0
G2 X76.248 Y98.0 I0.0 J-3.248
G1 Y20.0
G2 X73.0 Y16.752 I-3.248 J0.0
G1 X57.0
G2 X54.5 Y17.92648 I0.0 J3.248
G2 X52.0 Y16.752 I-2.5 J2.07352
G1 X19.0
G2 X15.752 Y20.0 I0.0 J3.248
G1 Y59.0
G2 X16.92648 Y61.5 I3.248 J0.0
G2 X15.752 Y64.0 I2.07352 J2.5
G1 Y72.25
G1 F300.0 X14.752
G1 F800.0 Y99.0
G2 X19.0 Y103.248 I4.248 J0.0
G1 X48.0
G2 X52.248 Y99.0 I0.0 J-4.248
G1 Y64.0
G2 X52.18022 Y63.24418 I-4.248 J0.0
G2 X52.752 Y63.18091 I-0.18022 J-4.24418
G1 Y98.0
G2 X57.0 Y102.248 I4.248 J0.0
G1 X73.0
G2 X77.248 Y98.0 I0.0 J-4.248
G1 Y20.0
G2 X73.0 Y15.752 I-4.248 J0.0
G1 X57.0
G2 X54.5 Y16.56554 I0.0 J4.248
G2 X52.0 Y15.752 I-2.5 J3.43446
G1 X19.0
G2 X14.752 Y20.0 I0.0 J4.248
G1 Y59.0
G2 X15.56554 Y61.5 I4.248 J0.0
G2 X14.752 Y64.0 I3.43446 J2.5
G1 Y72.25
G1 F300.0 X13.25
G1 F800.0 Y104.75
G1 X78.75
G1 Y14.25
G1 X13.25
G1 Y72.25
G1 F300.0 X12.25
G1 F800.0 Y105.75
G1 X79.75
G1 Y13.25
G1 X12.25
G1 Y72.25
G1 F300.0 X11.25
G1 F800.0 Y12.25
G1 X80.75
G1 Y106.75
G1 X11.25
G1 Y72.25
G0 Z3.0
G0 X20.25
G1 F300.0 Z-9.5
G1 F800.0 Y77.75
G1 X22.75
G1 Y72.25
G1 X20.25
G0 Z3.0
G0 X17.75
G1 F300.0 Z-9.5
G1 F800.0 Y64.0
G3 X19.0 Y62.75 I1.25 J0.0
G1 X48.0
G3 X49.25 Y64.0 I0.0 J1.25
G1 Y99.0
G3 X48.0 Y100.25 I-1.25 J0.0
G1 X19.0
G3 X17.75 Y99.0 I0.0 J-1.25
G1 Y72.25
G1 F300.0 X16.752
G1 F800.0 Y99.0
G2 X19.0 Y101.248 I2.248 J0.0
G1 X48.0
G2 X50.248 Y99.0 I0.0 J-2.248
G1 Y64.0
G2 X48.0 Y61.752 I-2.248 J0.0
G1 X19.0
G2 X16.752 Y64.0 I0.0 J2.248
G1 Y72.25
G0 Z3.0
G0 X14.25 Y61.76863
G1 F300.0 Z-9.5
G3 F800.0 X14.38573 Y61.5 I4.75 J2.23137
G3 X14.25 Y61.23137 I4.61427 J-2.5
G1 Y61.76863
G0 Z3.0
G0 Y101.23137
G1 F300.0 Z-9.5
G1 F800.0 Y103.75
G1 X16.76863
G3 X14.25 Y101.23137 I2.23137 J-4.75
G0 Z3.0
G0 X50.23137 Y103.75
G1 F300.0 Z-9.5
G1 F800.0 X77.75
G1 Y100.23137
G3 X73.0 Y103.248 I-4.75 J-2.23137
G1 X57.0
G3 X52.79304 Y101.13735 I0.0 J-5.248
G3 X50.23137 Y103.75 I-4.79304 J-2.13735
G0 Z3.0
G0 X54.5 Y15.38573
G1 F300.0 Z-9.5
G3 F800.0 X54.76863 Y15.25 I2.5 J4.61427
G1 X54.23137
G3 X54.5 Y15.38573 I-2.23137 J4.75
G0 Z3.0
G0 X75.23137 Y15.25
G1 F300.0 Z-9.5
G3 F800.0 X77.75 Y17.76863 I-2.23137 J4.75
G1 Y15.25
G1 X75.23137
G0 Z3.0
G0 X16.76863
G1 F300.0 Z-9.5
G1 F800.0 X14.25
G1 Y17.76863
G3 X16.76863 Y15.25 I4.75 J2.23137
G0 Z3.0
G0 X18.04419 Y17.96532
G1 F300.0 Z-9.5
G3 F800.0 X19.0 Y17.752 I0.95581 J2.03468
G1 X52.0
G3 X54.248 Y20.0 I0.0 J2.248
G1 Y59.0
G3 X52.0 Y61.248 I-2.248 J0.0
G1 X19.0
G3 X16.752 Y59.0 I0.0 J-2.248
G1 Y20.0
G3 X18.04419 Y17.96532 I2.248 J0.0
G1 F300.0 X18.46852 Y18.86862
G3 F800.0 X19.0 Y18.75 I0.53148 J1.13138
G1 X52.0
G3 X53.25 Y20.0 I0.0 J1.25
G1 Y59.0
G3 X52.0 Y60.25 I-1.25 J0.0
G1 X19.0
G3 X17.75 Y59.0 I0.0 J-1.25
G1 Y20.0
G3 X18.46852 Y18.86862 I1.25 J0.0
G0 Z3.0
G0 X54.75297 Y19.93402
G1 F300.0 Z-9.5
G3 F800.0 X57.0 Y17.752 I2.24703 J0.06598
G1 X73.0
G3 X75.248 Y20.0 I0.0 J2.248
G1 Y98.0
G3 X73.0 Y100.248 I-2.248 J0.0
G1 X57.0
G3 X54.752 Y98.0 I0.0 J-2.248
G1 Y20.0
G3 X54.75297 Y19.93402 I2.248 J0.0
G1 F300.0 X55.75054 Y19.96331
G3 F800.0 X57.0 Y18.75 I1.24946 J0.03669
G1 X73.0
G3 X74.25 Y20.0 I0.0 J1.25
G1 Y98.0
G3 X73.0 Y99.25 I-1.25 J0.0
G1 X57.0
G3 X55.75 Y98.0 I0.0 J-1.25
G1 Y20.0
G3 X55.75054 Y19.96331 I1.25 J0.0
G0 Z3.0
G0 X54.5 Y17.92648
G1 F300.0 Z-9.5
G2 F800.0 X52.0 Y16.752 I-2.5 J2.07352
G1 X19.0
G2 X15.752 Y20.0 I0.0 J3.248
G1 Y59.0
G2 X16.92648 Y61.5 I3.248 J0.0
G2 X15.752 Y64.0 I2.07352 J2.5
G1 Y99.0
G2 X19.0 Y102.248 I3.248 J0.0
G1 X48.0
G2 X51.248 Y99.0 I0.0 J-3.248
G1 Y64.0
G2 X50.73496 Y62.248 I-3.248 J0.0
G1 X52.0
G2 X53.752 Y61.73496 I0.0 J-3.248
G1 Y98.0
G2 X57.0 Y101.248 I3.248 J0.0
G1 X73.0
G2 X76.248 Y98.0 I0.0 J-3.248
G1 Y20.0
G2 X73.0 Y16.752 I-3.248 J0.0
G1 X57.0
G2 X54.5 Y17.92648 I0.0 J3.248
G1 F300.0 Y16.56554
G2 F800.0 X52.0 Y15.752 I-2.5 J3.43446
G1 X19.0
G2 X14.752 Y20.0 I0.0 J4.248
G1 Y59.0
G2 X15.56554 Y61.5 I4.248 J0.0
G2 X14.752 Y64.0 I3.43446 J2.5
G1 Y99.0
G2 X19.0 Y103.248 I4.248 J0.0
G1 X48.0
G2 X52.248 Y99.0 I0.0 J-4.248
G1 Y64.0
G2 X52.18022 Y63.24418 I-4.248 J0.0
G2 X52.752 Y63.18091 I-0.18022 J-4.24418
G1 Y98.0
G2 X57.0 Y102.248 I4.248 J0.0
G1 X73.0
G2 X77.248 Y98.0 I0.0 J-4.248
G1 Y20.0
G2 X73.0 Y15.752 I-4.248 J0.0
G1 X57.0
G2 X54.5 Y16.56554 I0.0 J4.248
G0 Z3.0
G0 Y14.25
G1 F300.0 Z-9.5
G1 F800.0 X13.25
G1 Y104.75
G1 X78.75
G1 Y14.25
G1 X54.5
G1 F300.0 Y13.25
G1 F800.0 X12.25
G1 Y105.75
G1 X79.75
G1 Y13.25
G1 X54.5
G1 F300.0 Y12.25
G1 F800.0 X11.25
G1 Y106.75
G1 X80.75
G1 Y12.25
G1 X54.5
G1 F300.0 Y11.25
G1 F800.0 X10.25
G1 Y107.75
G1 X81.75
G1 Y11.25
G1 X54.5
G0 Z3.0
G0 Y15.25
G1 F300.0 Z-10.0
G1 F800.0 X54.23137
G3 X54.5 Y15.38573 I-2.23137 J4.75
G3 X54.76863 Y15.25 I2.5 J4.61427
G1 X54.5
G0 Z3.0
G0 X75.23137
G1 F300.0 Z-10.0
G3 F800.0 X77.75 Y17.76863 I-2.23137 J4.75
G1 Y15.25
G1 X75.23137
G0 Z3.0
G0 X16.76863
G1 F300.0 Z-10.0
G1 F800.0 X14.25
G1 Y17.76863
G3 X16.76863 Y15.25 I4.75 J2.23137
G0 Z3.0
G0 X14.25 Y61.23137
G1 F300.0 Z-10.0
G1 F800.0 Y61.76863
G3 X14.38573 Y61.5 I4.75 J2.23137
G3 X14.25 Y61.23137 I4.61427 J-2.5
G0 Z3.0
G0 Y101.23137
G1 F300.0 Z-10.0
G1 F800.0 Y103.75
G1 X16.76863
G3 X14.25 Y101.23137 I2.23137 J-4.75
G0 Z3.0
G0 X50.23137 Y103.75
G1 F300.0 Z-10.0
G1 F800.0 X77.75
G1 Y100.23137
G3 X73.0 Y103.248 I-4.75 J-2.23137
G1 X57.0
G3 X52.79304 Y101.13735 I0.0 J-5.248
G3 X50.23137 Y103.75 I-4.79304 J-2.13735
G0 Z3.0
G0 X55.28674 Y99.45542
G1 F300.0 Z-10.0
G3 F800.0 X54.752 Y98.0 I1.71326 J-1.45542
G1 Y20.0
G3 X57.0 Y17.752 I2.248 J0.0
G1 X73.0
G3 X75.248 Y20.0 I0.0 J2.248
G1 Y98.0
G3 X73.0 Y100.248 I-2.248 J0.0
G1 X57.0
G3 X55.28674 Y99.45542 I0.0 J-2.248
G1 F300.0 X56.04734 Y98.80929
G3 F800.0 X55.75 Y98.0 I0.95266 J-0.80929
G1 Y20.0
G3 X57.0 Y18.75 I1.25 J0.0
G1 X73.0
G3 X74.25 Y20.0 I0.0 J1.25
G1 Y98.0
G3 X73.0 Y99.25 I-1.25 J0.0
G1 X57.0
G3 X56.04734 Y98.80929 I0.0 J-1.25
G0 Z3.0
G0 Y107.75
G1 F300.0 Z-10.0
G1 F800.0 X81.75
G1 Y11.25
G1 X10.25
G1 Y107.75
G1 X56.04734
G0 Z3.0
G0 X33.75 Y84.75
G1 F300.0 Z-9.5
G1 F800.0 Y78.25
G1 X33.25
G1 Y84.75
G1 X33.75
G1 F300.0 Y85.75
G1 F800.0 X34.75
G1 Y77.25
G1 X32.25
G1 Y85.75
G1 X33.75
G1 F300.0 Y86.75
G1 F800.0 X35.75
G1 Y76.25
G1 X31.25
G1 Y86.75
G1 X33.75
G1 F300.0 Y87.75
G1 F800.0 X36.75
G1 Y75.25
G1 X30.25
G1 Y87.75
G1 X33.75
G1 F300.0 Y88.75
G1 F800.0 X37.75
G1 Y74.25
G1 X29.25
G1 Y88.75
G1 X33.75
G1 F300.0 Y89.75
G1 F800.0 X38.75
G1 Y73.25
G1 X28.25
G1 Y89.75
G1 X33.75
G1 F300.0 Y90.75
G1 F800.0 X39.75
G1 Y72.25
G1 X27.25
G1 Y90.75
G1 X33.75
G1 F300.0 Y91.75
G1 F800.0 X40.75
G1 Y71.25
G1 X26.25
G1 Y91.75
G1 X33.75
G1 F300.0 Y92.75
G1 F800.0 X41.75
G1 Y70.25
G1 X25.25
G1 Y92.75
G1 X33.75
G1 F300.0 Y93.75
G1 F800.0 X42.75
G1 Y69.25
G1 X24.25
G1 Y93.75
G1 X33.75
G1 F300.0 Y94.75
G1 F800.0 X43.75
G1 Y68.25
G1 X23.25
G1 Y94.75
G1 X33.75
G1 F300.0 Y95.75
G1 F800.0 X44.75
G1 Y67.25
G1 X22.25
G1 Y95.75
G1 X33.75
G0 Z3.0
G0 X21.75 Y76.75
G1 F300.0 Z-9.5
G1 F800.0 Y73.25
G1 X21.25
G1 Y76.75
G1 X21.75
G0 Z3.0
G0 Y78.75
G1 F300.0 Z-9.5
G1 F800.0 X23.75
G1 Y71.25
G1 X19.25
G1 Y78.75
G1 X21.75
G0 Z3.0
G0 Y76.75
G1 F300.0 Z-10.0
G1 F800.0 Y73.25
G1 X21.25
G1 Y76.75
G1 X21.75
G0 Z3.0
G0 Y78.75
G1 F300.0 Z-10.0
G1 F800.0 X23.75
G1 Y71.25
G1 X19.25
G1 Y78.75
G1 X21.75
G0 Z3.0
G0 X33.25
G1 F300.0 Z-10.0
G1 F800.0 Y84.75
G1 X33.75
G1 Y78.25
G1 X33.25
G1 Y78.75
G1 F300.0 X32.25
G1 F800.0 Y85.75
G1 X34.75
G1 Y77.25
G1 X32.25
G1 Y78.75
G1 F300.0 X31.25
G1 F800.0 Y86.75
G1 X35.75
G1 Y76.25
G1 X31.25
G1 Y78.75
G1 F300.0 X30.25
G1 F800.0 Y87.75
G1 X36.75
G1 Y75.25
G1 X30.25
G1 Y78.75
G1 F300.0 X29.25
G1 F800.0 Y88.75
G1 X37.75
G1 Y74.25
G1 X29.25
G1 Y78.75
G1 F300.0 X28.25
G1 F800.0 Y89.75
G1 X38.75
G1 Y73.25
G1 X28.25
G1 Y78.75
G1 F300.0 X27.25
G1 F800.0 Y90.75
G1 X39.75
G1 Y72.25
G1 X27.25
G1 Y78.75
G1 F300.0 X26.25
G1 F800.0 Y91.75
G1 X40.75
G1 Y71.25
G1 X26.25
G1 Y78.75
G1 F300.0 X25.25
G1 F800.0 Y92.75
G1 X41.75
G1 Y70.25
G1 X25.25
G1 Y78.75
G1 F300.0 X24.25
G1 F800.0 Y93.75
G1 X42.75
G1 Y69.25
G1 X24.25
G1 Y78.75
G1 F300.0 X23.25
G1 F800.0 Y94.75
G1 X43.75
G1 Y68.25
G1 X23.25
G1 Y78.75
G1 F300.0 X22.25
G1 F800.0 Y95.75
G1 X44.75
G1 Y67.25
G1 X22.25
G1 Y78.75
G0 Z3.0
G0 X21.75 Y35.75
G1 F300.0 Z-9.5
G1 F800.0 Y30.25
G1 X20.25
G1 Y35.75
G1 X21.75
G1 F300.0 Y36.75
G1 F800.0 X22.75
G1 Y29.25
G1 X19.25
G1 Y36.75
G1 X21.75
G1 F300.0 Y35.75
G1 Z-10.0
G1 F800.0 Y30.25
G1 X20.25
G1 Y35.75
G1 X21.75
G1 F300.0 Y36.75
G1 F800.0 X22.75
G1 Y29.25
G1 X19.25
G1 Y36.75
G1 X21.75
G0 Z3.0
G0 X17.75
G1 F300.0 Z-10.0
G1 F800.0 Y20.0
G3 X19.0 Y18.75 I1.25 J0.0
G1 X52.0
G3 X53.25 Y20.0 I0.0 J1.25
G1 Y59.0
G3 X52.0 Y60.25 I-1.25 J0.0
G1 X19.0
G3 X17.75 Y59.0 I0.0 J-1.25
G1 Y36.75
G1 F300.0 X16.752
G1 F800.0 Y59.0
G2 X19.0 Y61.248 I2.248 J0.0
G1 X52.0
G2 X54.248 Y59.0 I0.0 J-2.248
G1 Y20.0
G2 X52.0 Y17.752 I-2.248 J0.0
G1 X19.0
G2 X16.752 Y20.0 I0.0 J2.248
G1 Y36.75
G0 Z3.0
G0 X20.25 Y72.25
G1 F300.0 Z-10.0
G1 F800.0 Y77.75
G1 X22.75
G1 Y72.25
G1 X20.25
G0 Z3.0
G0 X17.75
G1 F300.0 Z-10.0
G1 F800.0 Y64.0
G3 X19.0 Y62.75 I1.25 J0.0
G1 X48.0
G3 X49.25 Y64.0 I0.0 J1.25
G1 Y99.0
G3 X48.0 Y100.25 I-1.25 J0.0
G1 X19.0
G3 X17.75 Y99.0 I0.0 J-1.25
G1 Y72.25
G1 F300.0 X16.752
G1 F800.0 Y99.0
G2 X19.0 Y101.248 I2.248 J0.0
G1 X48.0
G2 X50.248 Y99.0 I0.0 J-2.248
G1 Y64.0
G2 X48.0 Y61.752 I-2.248 J0.0
G1 X19.0
G2 X16.752 Y64.0 I0.0 J2.248
G1 Y72.25
G1 F300.0 X15.752
G1 F800.0 Y99.0
G2 X19.0 Y102.248 I3.248 J0.0
G1 X48.0
G2 X51.248 Y99.0 I0.0 J-3.248
G1 Y64.0
G2 X50.73496 Y62.248 I-3.248 J0.0
G1 X52.0
G2 X53.752 Y61.73496 I0.0 J-3.248
G1 Y98.0
G2 X57.0 Y101.248 I3.248 J0.0
G1 X73.0
G2 X76.248 Y98.0 I0.0 J-3.248
G1 Y20.0
G2 X73.0 Y16.752 I-3.248 J0.0
G1 X57.0
G2 X54.5 Y17.92648 I0.0 J3.248
G2 X52.0 Y16.752 I-2.5 J2.07352
G1 X19.0
G2 X15.752 Y20.0 I0.0 J3.248
G1 Y59.0
G2 X16.92648 Y61.5 I3.248 J0.0
G2 X15.752 Y64.0 I2.07352 J2.5
G1 Y72.25
G1 F300.0 X14.752
G1 F800.0 Y99.0
G2 X19.0 Y103.248 I4.248 J0.0
G1 X48.0
G2 X52.248 Y99.0 I0.0 J-4.248
G1 Y64.0
G2 X52.18022 Y63.24418 I-4.248 J0.0
G2 X52.752 Y63.18091 I-0.18022 J-4.24418
G1 Y98.0
G2 X57.0 Y102.248 I4.248 J0.0
G1 X73.0
G2 X77.248 Y98.0 I0.0 J-4.248
G1 Y20.0
G2 X73.0 Y15.752 I-4.248 J0.0
G1 X57.0
G2 X54.5 Y16.56554 I0.0 J4.248
G2 X52.0 Y15.752 I-2.5 J3.43446
G1 X19.0
G2 X14.752 Y20.0 I0.0 J4.248
G1 Y59.0
G2 X15.56554 Y61.5 I4.248 J0.0
G2 X14.752 Y64.0 I3.43446 J2.5
G1 Y72.25
G1 F300.0 X13.25
G1 F800.0 Y104.75
G1 X78.75
G1 Y14.25
G1 X13.25
G1 Y72.25
G1 F300.0 X12.25
G1 F800.0 Y105.75
G1 X79.75
G1 Y13.25
G1 X12.25
G1 Y72.25
G1 F300.0 X11.25
G1 F800.0 Y12.25
G1 X80.75
G1 Y106.75
G1 X11.25
G1 Y72.25
( Case - inside level all  -4.5 )
S1000
G0 Z3.0
G0 X35.25 Y36.25
G1 F300.0 Z-4.0
G1 F800.0 Y42.75
G1 X35.75
G1 Y36.25
G1 X35.25
G1 F300.0 X34.25
G1 F800.0 Y43.75
G1 X36.75
G1 Y35.25
G1 X34.25
G1 Y36.25
G1 F300.0 X33.25
G1 F800.0 Y44.75
G1 X37.75
G1 Y34.25
G1 X33.25
G1 Y36.25
G1 F300.0 X32.25
G1 F800.0 Y45.75
G1 X38.75
G1 Y33.25
G1 X32.25
G1 Y36.25
G1 F300.0 X31.25
G1 F800.0 Y46.75
G1 X39.75
G1 Y32.25
G1 X31.25
G1 Y36.25
G1 F300.0 X30.25
G1 F800.0 Y47.75
G1 X40.75
G1 Y31.25
G1 X30.25
G1 Y36.25
G1 F300.0 X29.25
G1 F800.0 Y48.75
G1 X41.75
G1 Y30.25
G1 X29.25
G1 Y36.25
G1 F300.0 X28.25
G1 F800.0 Y49.75
G1 X42.75
G1 Y29.25
G1 X28.25
G1 Y36.25
G1 F300.0 X27.25
G1 F800.0 Y50.75
G1 X43.75
G1 Y28.25
G1 X27.25
G1 Y36.25
G1 F300.0 X26.25
G1 F800.0 Y51.75
G1 X44.75
G1 Y27.25
G1 X26.25
G1 Y36.25
G1 F300.0 X25.25
G1 F800.0 Y52.75
G1 X45.75
G1 Y26.25
G1 X25.25
G1 Y36.25
G1 F300.0 X24.25
G1 F800.0 Y53.75
G1 X46.75
G1 Y25.25
G1 X24.25
G1 Y36.25
G0 Z3.0
G0 X35.25
G1 F300.0 Z-4.5
G1 F800.0 Y42.75
G1 X35.75
G1 Y36.25
G1 X35.25
G1 F300.0 X34.25
G1 F800.0 Y43.75
G1 X36.75
G1 Y35.25
G1 X34.25
G1 Y36.25
G1 F300.0 X33.25
G1 F800.0 Y44.75
G1 X37.75
G1 Y34.25
G1 X33.25
G1 Y36.25
G1 F300.0 X32.25
G1 F800.0 Y45.75
G1 X38.75
G1 Y33.25
G1 X32.25
G1 Y36.25
G1 F300.0 X31.25
G1 F800.0 Y46.75
G1 X39.75
G1 Y32.25
G1 X31.25
G1 Y36.25
G1 F300.0 X30.25
G1 F800.0 Y47.75
G1 X40.75
G1 Y31.25
G1 X30.25
G1 Y36.25
G1 F300.0 X29.25
G1 F800.0 Y48.75
G1 X41.75
G1 Y30.25
G1 X29.25
G1 Y36.25
G1 F300.0 X28.25
G1 F800.0 Y49.75
G1 X42.75
G1 Y29.25
G1 X28.25
G1 Y36.25
G1 F300.0 X27.25
G1 F800.0 Y50.75
G1 X43.75
G1 Y28.25
G1 X27.25
G1 Y36.25
G1 F300.0 X26.25
G1 F800.0 Y51.75
G1 X44.75
G1 Y27.25
G1 X26.25
G1 Y36.25
G1 F300.0 X25.25
G1 F800.0 Y52.75
G1 X45.75
G1 Y26.25
G1 X25.25
G1 Y36.25
G1 F300.0 X24.25
G1 F800.0 Y53.75
G1 X46.75
G1 Y25.25
G1 X24.25
G1 Y36.25
( Case - Inside Pocket )
S1000
G0 Z3.0
G0 X34.25 Y38.03342
G1 F300.0 Z-5.5
G1 F800.0 Y39.39828
G3 X36.75 Y41.31221 I-6.44 J11.00172
G1 Y39.89249
G3 X36.676 Y39.85009 I6.3 J-11.08249
G3 X34.25 Y38.03342 I6.374 J-11.04009
G1 F300.0 X34.9403 Y37.3099
G3 F800.0 X33.25 Y35.28885 I8.1097 J-8.4999
G1 Y39.98742
G3 X37.75 Y44.13806 I-5.44 J10.41258
G1 Y39.29454
G3 X37.176 Y38.98407 I5.3 J-10.48454
G3 X34.9403 Y37.3099 I5.874 J-10.17407
G1 F300.0 X35.63061 Y36.58638
G3 F800.0 X33.26195 Y33.25 I7.41939 J-7.77638
G1 X32.25
G1 Y40.61195
G3 X37.50005 Y45.75 I-4.44 J9.78805
G1 X38.75
G1 Y38.66036
G3 X37.676 Y38.11804 I4.3 J-9.85036
G3 X35.63061 Y36.58638 I5.374 J-9.30804
G1 F300.0 X36.32091 Y35.86286
G3 F800.0 X33.92915 Y32.25 I6.72909 J-7.05286
G1 X31.25
G1 Y41.27915
G3 X36.84886 Y46.75 I-3.44 J9.12085
G1 X39.75
G1 Y37.98243
G3 X38.176 Y37.25202 I3.3 J-9.17243
G3 X36.32091 Y35.86286 I4.874 J-8.44202
G1 F300.0 X37.01122 Y35.13935
G3 F800.0 X34.64917 Y31.25 I6.03878 J-6.32935
G1 X30.25
G1 Y41.99917
G3 X36.14697 Y47.75 I-2.44 J8.40083
G1 X40.75
G1 Y37.25023
G3 X38.676 Y36.38599 I2.3 J-8.44023
G3 X37.01122 Y35.13935 I4.374 J-7.57599
G1 F300.0 X37.70152 Y34.41583
G3 F800.0 X35.43699 Y30.25 I5.34848 J-5.60583
G1 X29.25
G1 Y42.78699
G3 X35.38027 Y48.75 I-1.44 J7.61301
G1 X41.75
G1 Y36.44816
G3 X39.176 Y35.51996 I1.3 J-7.63816
G3 X37.70152 Y34.41583 I3.874 J-6.70996
G1 F300.0 X38.39183 Y33.69231
G3 F800.0 X36.31636 Y29.25 I4.65817 J-4.88231
G1 X28.25
G1 Y43.66636
G3 X34.52662 Y49.75 I-0.44 J6.73364
G1 X42.75
G1 Y35.55133
G3 X39.676 Y34.65394 I0.3 J-6.74133
G3 X38.39183 Y33.69231 I3.374 J-5.84394
G1 F300.0 X39.08213 Y32.96879
G3 F800.0 X37.32934 Y28.25 I3.96787 J-4.15879
G1 X27.25
G1 Y44.67934
G3 X33.558 Y50.4 I0.56 J5.72066
G3 X33.54733 Y50.75 I-5.748 J0.0
G1 X43.75
G1 Y34.51522
G3 X40.176 Y33.78791 I-0.7 J-5.70522
G3 X39.08213 Y32.96879 I2.874 J-4.97791
G1 F300.0 X39.77243 Y32.24527
G3 F800.0 X38.56559 Y27.25 I3.27757 J-3.43527
G1 X26.25
G1 Y45.91559
G3 X32.558 Y50.4 I1.56 J4.48441
G3 X32.36203 Y51.75 I-4.748 J0.0
G1 X44.75
G1 Y33.24323
G3 X40.676 Y32.92189 I-1.7 J-4.43323
G3 X39.77243 Y32.24527 I2.374 J-4.11189
G1 F300.0 X40.46274 Y31.52175
G3 F800.0 X40.3125 Y26.25 I2.58726 J-2.71175
G1 X25.25
G1 Y47.6625
G3 X25.936 Y47.15414 I2.56 J2.7375
G3 X31.558 Y50.4 I1.874 J3.24586
G3 X30.72976 Y52.75 I-3.748 J0.0
G1 X45.75
G1 Y31.40952
G3 X41.176 Y32.05586 I-2.7 J-2.59952
G3 X40.46274 Y31.52175 I1.874 J-3.24586
G0 Z3.0
G0 Y25.25
G1 F300.0 Z-5.5
G1 F800.0 X24.25
G1 Y53.75
G1 X46.75
G1 Y25.25
G1 X40.46274
G1 F300.0 X41.43328 Y26.58543
G3 F800.0 X41.675 Y26.42843 I1.61672 J2.22457
G3 X45.8 Y28.81 I1.375 J2.38157
G3 X41.675 Y31.19157 I-2.75 J0.0
G3 X41.43328 Y26.58543 I1.375 J-2.38157
G1 F300.0 Z-6.5
G3 F800.0 X41.675 Y26.42843 I1.61672 J2.22457
G3 X45.8 Y28.81 I1.375 J2.38157
G3 X41.675 Y31.19157 I-2.75 J0.0
G3 X41.43328 Y26.58543 I1.375 J-2.38157
G0 Z3.0
G0 X29.17551 Y48.01298
G1 F300.0 Z-5.5
G3 F800.0 X30.56 Y50.4 I-1.36551 J2.38702
G3 X26.435 Y52.78157 I-2.75 J0.0
G3 Y48.01843 I1.375 J-2.38157
G3 X29.17551 Y48.01298 I1.375 J2.38157
G1 F300.0 Z-6.5
G3 F800.0 X30.56 Y50.4 I-1.36551 J2.38702
G3 X26.435 Y52.78157 I-2.75 J0.0
G3 Y48.01843 I1.375 J-2.38157
G3 X29.17551 Y48.01298 I1.375 J2.38157
G0 Z3.0
G0 X34.25 Y39.39828
G1 F300.0 Z-6.5
G3 F800.0 X36.75 Y41.31221 I-6.44 J11.00172
G1 Y39.89249
G3 X36.676 Y39.85009 I6.3 J-11.08249
G3 X34.25 Y38.03342 I6.374 J-11.04009
G1 Y39.39828
G1 F300.0 X33.74482 Y40.26129
G3 F800.0 X37.75 Y44.13806 I-5.93482 J10.13871
G1 Y39.29454
G3 X37.176 Y38.98407 I5.3 J-10.48454
G3 X33.25 Y35.28885 I5.874 J-10.17407
G1 Y39.98742
G3 X33.74482 Y40.26129 I-5.44 J10.41258
G1 F300.0 X33.23965 Y41.12431
G3 F800.0 X37.50005 Y45.75 I-5.42965 J9.27569
G1 X38.75
G1 Y38.66036
G3 X37.676 Y38.11804 I4.3 J-9.85036
G3 X33.26195 Y33.25 I5.374 J-9.30804
G1 X32.25
G1 Y40.61195
G3 X33.23965 Y41.12431 I-4.44 J9.78805
G1 F300.0 X32.73447 Y41.98732
G3 F800.0 X36.84886 Y46.75 I-4.92447 J8.41268
G1 X39.75
G1 Y37.98243
G3 X38.176 Y37.25202 I3.3 J-9.17243
G3 X33.92915 Y32.25 I4.874 J-8.44202
G1 X31.25
G1 Y41.27915
G3 X32.73447 Y41.98732 I-3.44 J9.12085
G1 F300.0 X32.22929 Y42.85034
G3 F800.0 X36.14697 Y47.75 I-4.41929 J7.54966
G1 X40.75
G1 Y37.25023
G3 X38.676 Y36.38599 I2.3 J-8.44023
G3 X34.64917 Y31.25 I4.374 J-7.57599
G1 X30.25
G1 Y41.99917
G3 X32.22929 Y42.85034 I-2.44 J8.40083
G1 F300.0 X31.72411 Y43.71336
G3 F800.0 X35.38027 Y48.75 I-3.91411 J6.68664
G1 X41.75
G1 Y36.44816
G3 X39.176 Y35.51996 I1.3 J-7.63816
G3 X35.43699 Y30.25 I3.874 J-6.70996
G1 X29.25
G1 Y42.78699
G3 X31.72411 Y43.71336 I-1.44 J7.61301
G1 F300.0 X31.21894 Y44.57637
G3 F800.0 X34.52662 Y49.75 I-3.40894 J5.82363
G1 X42.75
G1 Y35.55133
G3 X39.676 Y34.65394 I0.3 J-6.74133
G3 X36.31636 Y29.25 I3.374 J-5.84394
G1 X28.25
G1 Y43.66636
G3 X31.21894 Y44.57637 I-0.44 J6.73364
G1 F300.0 X30.71376 Y45.43939
G3 F800.0 X33.558 Y50.4 I-2.90376 J4.96061
G3 X33.54733 Y50.75 I-5.748 J0.0
G1 X43.75
G1 Y34.51522
G3 X40.176 Y33.78791 I-0.7 J-5.70522
G3 X37.32934 Y28.25 I2.874 J-4.97791
G1 X27.25
G1 Y44.67934
G3 X30.71376 Y45.43939 I0.56 J5.72066
G1 F300.0 X30.20858 Y46.3024
G3 F800.0 X32.558 Y50.4 I-2.39858 J4.0976
G3 X32.36203 Y51.75 I-4.748 J0.0
G1 X44.75
G1 Y33.24323
G3 X40.676 Y32.92189 I-1.7 J-4.43323
G3 X38.56559 Y27.25 I2.374 J-4.11189
G1 X26.25
G1 Y45.91559
G3 X30.20858 Y46.3024 I1.56 J4.48441
G1 F300.0 X29.7034 Y47.16542
G3 F800.0 X31.558 Y50.4 I-1.8934 J3.23458
G3 X30.72976 Y52.75 I-3.748 J0.0
G1 X45.75
G1 Y31.40952
G3 X41.176 Y32.05586 I-2.7 J-2.59952
G3 X40.3125 Y26.25 I1.874 J-3.24586
G1 X25.25
G1 Y47.6625
G3 X25.936 Y47.15414 I2.56 J2.7375
G3 X29.7034 Y47.16542 I1.874 J3.24586
G0 Z3.0
G0 X24.25
G1 F300.0 Z-6.5
G1 F800.0 Y53.75
G1 X46.75
G1 Y25.25
G1 X24.25
G1 Y47.16542
G0 Z3.0
G0 X25.77466 Y48.55071
G1 F300.0 Z-7.5
G3 F800.0 X26.435 Y48.01843 I2.03534 J1.84929
G3 X30.56 Y50.4 I1.375 J2.38157
G3 X26.435 Y52.78157 I-2.75 J0.0
G3 X25.77466 Y48.55071 I1.375 J-2.38157
G0 Z3.0
G0 X34.25 Y39.39828
G1 F300.0 Z-7.5
G3 F800.0 X36.75 Y41.31221 I-6.44 J11.00172
G1 Y39.89249
G3 X36.676 Y39.85009 I6.3 J-11.08249
G3 X34.25 Y38.03342 I6.374 J-11.04009
G1 Y39.39828
G1 F300.0 X33.74482 Y40.26129
G3 F800.0 X37.75 Y44.13806 I-5.93482 J10.13871
G1 Y39.29454
G3 X37.176 Y38.98407 I5.3 J-10.48454
G3 X33.25 Y35.28885 I5.874 J-10.17407
G1 Y39.98742
G3 X33.74482 Y40.26129 I-5.44 J10.41258
G1 F300.0 X33.23965 Y41.12431
G3 F800.0 X37.50005 Y45.75 I-5.42965 J9.27569
G1 X38.75
G1 Y38.66036
G3 X37.676 Y38.11804 I4.3 J-9.85036
G3 X33.26195 Y33.25 I5.374 J-9.30804
G1 X32.25
G1 Y40.61195
G3 X33.23965 Y41.12431 I-4.44 J9.78805
G1 F300.0 X32.73447 Y41.98732
G3 F800.0 X36.84886 Y46.75 I-4.92447 J8.41268
G1 X39.75
G1 Y37.98243
G3 X38.176 Y37.25202 I3.3 J-9.17243
G3 X33.92915 Y32.25 I4.874 J-8.44202
G1 X31.25
G1 Y41.27915
G3 X32.73447 Y41.98732 I-3.44 J9.12085
G1 F300.0 X32.22929 Y42.85034
G3 F800.0 X36.14697 Y47.75 I-4.41929 J7.54966
G1 X40.75
G1 Y37.25023
G3 X38.676 Y36.38599 I2.3 J-8.44023
G3 X34.64917 Y31.25 I4.374 J-7.57599
G1 X30.25
G1 Y41.99917
G3 X32.22929 Y42.85034 I-2.44 J8.40083
G1 F300.0 X31.72411 Y43.71336
G3 F800.0 X35.38027 Y48.75 I-3.91411 J6.68664
G1 X41.75
G1 Y36.44816
G3 X39.176 Y35.51996 I1.3 J-7.63816
G3 X35.43699 Y30.25 I3.874 J-6.70996
G1 X29.25
G1 Y42.78699
G3 X31.72411 Y43.71336 I-1.44 J7.61301
G1 F300.0 X31.21894 Y44.57637
G3 F800.0 X34.52662 Y49.75 I-3.40894 J5.82363
G1 X42.75
G1 Y35.55133
G3 X39.676 Y34.65394 I0.3 J-6.74133
G3 X36.31636 Y29.25 I3.374 J-5.84394
G1 X28.25
G1 Y43.66636
G3 X31.21894 Y44.57637 I-0.44 J6.73364
G1 F300.0 X30.71376 Y45.43939
G3 F800.0 X33.558 Y50.4 I-2.90376 J4.96061
G3 X33.54733 Y50.75 I-5.748 J0.0
G1 X43.75
G1 Y34.51522
G3 X40.176 Y33.78791 I-0.7 J-5.70522
G3 X37.32934 Y28.25 I2.874 J-4.97791
G1 X27.25
G1 Y44.67934
G3 X30.71376 Y45.43939 I0.56 J5.72066
G1 F300.0 X30.20858 Y46.3024
G3 F800.0 X32.558 Y50.4 I-2.39858 J4.0976
G3 X32.36203 Y51.75 I-4.748 J0.0
G1 X44.75
G1 Y33.24323
G3 X40.676 Y32.92189 I-1.7 J-4.43323
G3 X38.56559 Y27.25 I2.374 J-4.11189
G1 X26.25
G1 Y45.91559
G3 X30.20858 Y46.3024 I1.56 J4.48441
G1 F300.0 X29.7034 Y47.16542
G3 F800.0 X31.558 Y50.4 I-1.8934 J3.23458
G3 X30.72976 Y52.75 I-3.748 J0.0
G1 X45.75
G1 Y31.40952
G3 X41.176 Y32.05586 I-2.7 J-2.59952
G3 X40.3125 Y26.25 I1.874 J-3.24586
G1 X25.25
G1 Y47.6625
G3 X25.936 Y47.15414 I2.56 J2.7375
G3 X29.7034 Y47.16542 I1.874 J3.24586
G0 Z3.0
G0 X24.25
G1 F300.0 Z-7.5
G1 F800.0 Y53.75
G1 X46.75
G1 Y25.25
G1 X24.25
G1 Y47.16542
G0 Z3.0
G0 X25.77466 Y48.55071
G1 F300.0 Z-8.0
G3 F800.0 X26.435 Y48.01843 I2.03534 J1.84929
G3 X30.56 Y50.4 I1.375 J2.38157
G3 X26.435 Y52.78157 I-2.75 J0.0
G3 X25.77466 Y48.55071 I1.375 J-2.38157
G0 Z3.0
G0 X41.23898 Y30.87947
G1 F300.0 Z-7.5
G3 F800.0 X41.675 Y26.42843 I1.81102 J-2.06947
G3 X45.8 Y28.81 I1.375 J2.38157
G3 X41.675 Y31.19157 I-2.75 J0.0
G3 X41.23898 Y30.87947 I1.375 J-2.38157
G1 F300.0 Z-8.0
G3 F800.0 X41.675 Y26.42843 I1.81102 J-2.06947
G3 X45.8 Y28.81 I1.375 J2.38157
G3 X41.675 Y31.19157 I-2.75 J0.0
G3 X41.23898 Y30.87947 I1.375 J-2.38157
G0 Z3.0
G0 X34.65477 Y38.40331
G1 F300.0 Z-8.0
G3 F800.0 X34.25 Y38.03342 I8.39523 J-9.59331
G1 Y39.39828
G3 X36.75 Y41.31221 I-6.44 J11.00172
G1 Y39.89249
G3 X36.676 Y39.85009 I6.3 J-11.08249
G3 X34.65477 Y38.40331 I6.374 J-11.04009
G1 F300.0 X35.31332 Y37.65078
G3 F800.0 X33.25 Y35.28885 I7.73668 J-8.84078
G1 Y39.98742
G3 X37.75 Y44.13806 I-5.44 J10.41258
G1 Y39.29454
G3 X37.176 Y38.98407 I5.3 J-10.48454
G3 X35.31332 Y37.65078 I5.874 J-10.17407
G1 F300.0 X35.97188 Y36.89824
G3 F800.0 X33.26195 Y33.25 I7.07812 J-8.08824
G1 X32.25
G1 Y40.61195
G3 X37.50005 Y45.75 I-4.44 J9.78805
G1 X38.75
G1 Y38.66036
G3 X37.676 Y38.11804 I4.3 J-9.85036
G3 X35.97188 Y36.89824 I5.374 J-9.30804
G1 F300.0 X36.63043 Y36.14571
G3 F800.0 X33.92915 Y32.25 I6.41957 J-7.33571
G1 X31.25
G1 Y41.27915
G3 X36.84886 Y46.75 I-3.44 J9.12085
G1 X39.75
G1 Y37.98243
G3 X38.176 Y37.25202 I3.3 J-9.17243
G3 X36.63043 Y36.14571 I4.874 J-8.44202
G1 F300.0 X37.28898 Y35.39317
G3 F800.0 X34.64917 Y31.25 I5.76102 J-6.58317
G1 X30.25
G1 Y41.99917
G3 X36.14697 Y47.75 I-2.44 J8.40083
G1 X40.75
G1 Y37.25023
G3 X38.676 Y36.38599 I2.3 J-8.44023
G3 X37.28898 Y35.39317 I4.374 J-7.57599
G1 F300.0 X37.94753 Y34.64064
G3 F800.0 X35.43699 Y30.25 I5.10247 J-5.83064
G1 X29.25
G1 Y42.78699
G3 X35.38027 Y48.75 I-1.44 J7.61301
G1 X41.75
G1 Y36.44816
G3 X39.176 Y35.51996 I1.3 J-7.63816
G3 X37.94753 Y34.64064 I3.874 J-6.70996
G1 F300.0 X38.60609 Y33.8881
G3 F800.0 X36.31636 Y29.25 I4.44391 J-5.0781
G1 X28.25
G1 Y43.66636
G3 X34.52662 Y49.75 I-0.44 J6.73364
G1 X42.75
G1 Y35.55133
G3 X39.676 Y34.65394 I0.3 J-6.74133
G3 X38.60609 Y33.8881 I3.374 J-5.84394
G1 F300.0 X39.26464 Y33.13557
G3 F800.0 X37.32934 Y28.25 I3.78536 J-4.32557
G1 X27.25
G1 Y44.67934
G3 X33.558 Y50.4 I0.56 J5.72066
G3 X33.54733 Y50.75 I-5.748 J0.0
G1 X43.75
G1 Y34.51522
G3 X40.176 Y33.78791 I-0.7 J-5.70522
G3 X39.26464 Y33.13557 I2.874 J-4.97791
G1 F300.0 X39.92319 Y32.38303
G3 F800.0 X38.56559 Y27.25 I3.12681 J-3.57303
G1 X26.25
G1 Y45.91559
G3 X32.558 Y50.4 I1.56 J4.48441
G3 X32.36203 Y51.75 I-4.748 J0.0
G1 X44.75
G1 Y33.24323
G3 X40.676 Y32.92189 I-1.7 J-4.43323
G3 X39.92319 Y32.38303 I2.374 J-4.11189
G1 F300.0 X40.58174 Y31.6305
G3 F800.0 X40.3125 Y26.25 I2.46826 J-2.8205
G1 X25.25
G1 Y47.6625
G3 X25.936 Y47.15414 I2.56 J2.7375
G3 X31.558 Y50.4 I1.874 J3.24586
G3 X30.72976 Y52.75 I-3.748 J0.0
G1 X45.75
G1 Y31.40952
G3 X41.176 Y32.05586 I-2.7 J-2.59952
G3 X40.58174 Y31.6305 I1.874 J-3.24586
G0 Z3.0
G0 X46.75
G1 F300.0 Z-8.0
G1 F800.0 Y25.25
G1 X24.25
G1 Y53.75
G1 X46.75
G1 Y31.6305
( Case - Sensor Pocket )
S1000
G0 Z3.0
G0 X35.5 Y28.25
G1 F300.0 Z-9.0
G1 F800.0 Y29.25
G1 X37.5
G1 Y28.25
G1 X35.5
G1 F300.0 X34.5
G1 F800.0 Y30.25
G1 X38.5
G1 Y27.25
G1 X34.5
G1 Y28.25
( Case - LED top )
S1000
G0 Z3.0
G0 X35.73 Y47.86
G1 F300.0 Z-9.0
G2 F800.0 X35.28 Y47.60019 I-0.3 J0.0
G2 Y48.11981 I0.15 J0.25981
G2 X35.73 Y47.86 I0.15 J-0.25981
G1 F300.0 X36.73
G2 F800.0 X34.78 Y46.73417 I-1.3 J0.0
G2 Y48.98583 I0.65 J1.12583
G2 X36.73 Y47.86 I0.65 J-1.12583
G1 F300.0 X35.73
G1 Z-10.0
G2 F800.0 X35.28 Y47.60019 I-0.3 J0.0
G2 Y48.11981 I0.15 J0.25981
G2 X35.73 Y47.86 I0.15 J-0.25981
G1 F300.0 X36.73
G2 F800.0 X34.78 Y46.73417 I-1.3 J0.0
G2 Y48.98583 I0.65 J1.12583
G2 X36.73 Y47.86 I0.65 J-1.12583
( Case - LED bottom )
S1000
G0 Z3.0
G0 X35.73 Y40.24
G1 F300.0 Z-9.0
G2 F800.0 X35.28 Y39.98019 I-0.3 J0.0
G2 Y40.49981 I0.15 J0.25981
G2 X35.73 Y40.24 I0.15 J-0.25981
G1 F300.0 X36.73
G2 F800.0 X34.78 Y39.11417 I-1.3 J0.0
G2 Y41.36583 I0.65 J1.12583
G2 X36.73 Y40.24 I0.65 J-1.12583
G1 F300.0 X35.73
G1 Z-10.0
G2 F800.0 X35.28 Y39.98019 I-0.3 J0.0
G2 Y40.49981 I0.15 J0.25981
G2 X35.73 Y40.24 I0.15 J-0.25981
G1 F300.0 X36.73
G2 F800.0 X34.78 Y39.11417 I-1.3 J0.0
G2 Y41.36583 I0.65 J1.12583
G2 X36.73 Y40.24 I0.65 J-1.12583
( Case - Wire Whole )
S1000
G0 Z3.0
G0 X20.25 Y30.25
G1 F300.0 Z-5.5
G1 F800.0 Y35.75
G1 X21.75
G1 Y30.25
G1 X20.25
G1 F300.0 X19.25
G1 F800.0 Y36.75
G1 X22.75
G1 Y29.25
G1 X19.25
G1 Y30.25
G1 F300.0 X20.25
G1 Z-6.0
G1 F800.0 Y35.75
G1 X21.75
G1 Y30.25
G1 X20.25
G1 F300.0 X19.25
G1 F800.0 Y36.75
G1 X22.75
G1 Y29.25
G1 X19.25
G1 Y30.25
( Case - Outside body )
S1000
G0 Z3.0
G0 X21.0 Y20.75
G1 F300.0 Z-4.0
G1 F800.0 X50.0
G3 X51.25 Y22.0 I0.0 J1.25
G1 Y57.0
G3 X50.0 Y58.25 I-1.25 J0.0
G1 X21.0
G3 X19.75 Y57.0 I0.0 J-1.25
G1 Y22.0
G3 X21.0 Y20.75 I1.25 J0.0
G1 F300.0 Y20.25
G1 F800.0 X50.0
G3 X51.75 Y22.0 I0.0 J1.75
G1 Y57.0
G3 X50.0 Y58.75 I-1.75 J0.0
G1 X21.0
G3 X19.25 Y57.0 I0.0 J-1.75
G1 Y22.0
G3 X21.0 Y20.25 I1.75 J0.0
G1 F300.0 Y20.75
G1 Z-5.0
G1 F800.0 X50.0
G3 X51.25 Y22.0 I0.0 J1.25
G1 Y57.0
G3 X50.0 Y58.25 I-1.25 J0.0
G1 X21.0
G3 X19.75 Y57.0 I0.0 J-1.25
G1 Y22.0
G3 X21.0 Y20.75 I1.25 J0.0
G1 F300.0 Y20.25
G1 F800.0 X50.0
G3 X51.75 Y22.0 I0.0 J1.75
G1 Y57.0
G3 X50.0 Y58.75 I-1.75 J0.0
G1 X21.0
G3 X19.25 Y57.0 I0.0 J-1.75
G1 Y22.0
G3 X21.0 Y20.25 I1.75 J0.0
G1 F300.0 Y20.75
G1 Z-6.0
G1 F800.0 X50.0
G3 X51.25 Y22.0 I0.0 J1.25
G1 Y57.0
G3 X50.0 Y58.25 I-1.25 J0.0
G1 X21.0
G3 X19.75 Y57.0 I0.0 J-1.25
G1 Y22.0
G3 X21.0 Y20.75 I1.25 J0.0
G1 F300.0 Y20.25
G1 F800.0 X50.0
G3 X51.75 Y22.0 I0.0 J1.75
G1 Y57.0
G3 X50.0 Y58.75 I-1.75 J0.0
G1 X21.0
G3 X19.25 Y57.0 I0.0 J-1.75
G1 Y22.0
G3 X21.0 Y20.25 I1.75 J0.0
G1 F300.0 Y20.75
G1 Z-7.0
G1 F800.0 X50.0
G3 X51.25 Y22.0 I0.0 J1.25
G1 Y57.0
G3 X50.0 Y58.25 I-1.25 J0.0
G1 X21.0
G3 X19.75 Y57.0 I0.0 J-1.25
G1 Y22.0
G3 X21.0 Y20.75 I1.25 J0.0
G1 F300.0 Y20.25
G1 F800.0 X50.0
G3 X51.75 Y22.0 I0.0 J1.75
G1 Y57.0
G3 X50.0 Y58.75 I-1.75 J0.0
G1 X21.0
G3 X19.25 Y57.0 I0.0 J-1.75
G1 Y22.0
G3 X21.0 Y20.25 I1.75 J0.0
G1 F300.0 Y20.75
G1 Z-8.0
G1 F800.0 X50.0
G3 X51.25 Y22.0 I0.0 J1.25
G1 Y57.0
G3 X50.0 Y58.25 I-1.25 J0.0
G1 X21.0
G3 X19.75 Y57.0 I0.0 J-1.25
G1 Y22.0
G3 X21.0 Y20.75 I1.25 J0.0
G1 F300.0 Y20.25
G1 F800.0 X50.0
G3 X51.75 Y22.0 I0.0 J1.75
G1 Y57.0
G3 X50.0 Y58.75 I-1.75 J0.0
G1 X21.0
G3 X19.25 Y57.0 I0.0 J-1.75
G1 Y22.0
G3 X21.0 Y20.25 I1.75 J0.0
G1 F300.0 Y20.75
G1 Z-9.0
G1 F800.0 X50.0
G3 X51.25 Y22.0 I0.0 J1.25
G1 Y57.0
G3 X50.0 Y58.25 I-1.25 J0.0
G1 X21.0
G3 X19.75 Y57.0 I0.0 J-1.25
G1 Y22.0
G3 X21.0 Y20.75 I1.25 J0.0
G1 F300.0 Y20.25
G1 F800.0 X50.0
G3 X51.75 Y22.0 I0.0 J1.75
G1 Y57.0
G3 X50.0 Y58.75 I-1.75 J0.0
G1 X21.0
G3 X19.25 Y57.0 I0.0 J-1.75
G1 Y22.0
G3 X21.0 Y20.25 I1.75 J0.0
G1 F300.0 Y20.75
G1 Z-10.0
G1 F800.0 X50.0
G3 X51.25 Y22.0 I0.0 J1.25
G1 Y57.0
G3 X50.0 Y58.25 I-1.25 J0.0
G1 X21.0
G3 X19.75 Y57.0 I0.0 J-1.25
G1 Y22.0
G3 X21.0 Y20.75 I1.25 J0.0
G1 F300.0 Y20.25
G1 F800.0 X50.0
G3 X51.75 Y22.0 I0.0 J1.75
G1 Y57.0
G3 X50.0 Y58.75 I-1.75 J0.0
G1 X21.0
G3 X19.25 Y57.0 I0.0 J-1.75
G1 Y22.0
G3 X21.0 Y20.25 I1.75 J0.0
( Cover - Wire Whole )
S1000
G0 Z3.0
G0 X21.25 Y73.25
G1 F300.0 Z-9.0
G1 F800.0 Y76.75
G1 X21.75
G1 Y73.25
G1 X21.25
G1 F300.0 X20.25
G1 F800.0 Y77.75
G1 X22.75
G1 Y72.25
G1 X20.25
G1 Y73.25
G1 F300.0 X19.25
G1 F800.0 Y78.75
G1 X23.75
G1 Y71.25
G1 X19.25
G1 Y73.25
G0 Z3.0
G0 X21.25
G1 F300.0 Z-10.0
G1 F800.0 Y76.75
G1 X21.75
G1 Y73.25
G1 X21.25
G1 F300.0 X20.25
G1 F800.0 Y77.75
G1 X22.75
G1 Y72.25
G1 X20.25
G1 Y73.25
G1 F300.0 X19.25
G1 F800.0 Y78.75
G1 X23.75
G1 Y71.25
G1 X19.25
G1 Y73.25
( Cover - Outside cover )
S1000
G0 Z3.0
G0 X21.0 Y64.75
G1 F300.0 Z-9.0
G1 F800.0 X46.0
G3 X47.25 Y66.0 I0.0 J1.25
G1 Y97.0
G3 X46.0 Y98.25 I-1.25 J0.0
G1 X21.0
G3 X19.75 Y97.0 I0.0 J-1.25
G1 Y66.0
G3 X21.0 Y64.75 I1.25 J0.0
G1 F300.0 Y64.25
G1 F800.0 X46.0
G3 X47.75 Y66.0 I0.0 J1.75
G1 Y97.0
G3 X46.0 Y98.75 I-1.75 J0.0
G1 X21.0
G3 X19.25 Y97.0 I0.0 J-1.75
G1 Y66.0
G3 X21.0 Y64.25 I1.75 J0.0
G1 F300.0 Y64.75
G1 Z-10.0
G1 F800.0 X46.0
G3 X47.25 Y66.0 I0.0 J1.25
G1 Y97.0
G3 X46.0 Y98.25 I-1.25 J0.0
G1 X21.0
G3 X19.75 Y97.0 I0.0 J-1.25
G1 Y66.0
G3 X21.0 Y64.75 I1.25 J0.0
G1 F300.0 Y64.25
G1 F800.0 X46.0
G3 X47.75 Y66.0 I0.0 J1.75
G1 Y97.0
G3 X46.0 Y98.75 I-1.75 J0.0
G1 X21.0
G3 X19.25 Y97.0 I0.0 J-1.75
G1 Y66.0
G3 X21.0 Y64.25 I1.75 J0.0
( Sensor Arm - Magnet whole )
S1000
G0 Z3.0
G0 X66.5 Y90.0
G1 F300.0 Z-8.0
G2 F800.0 X64.25 Y88.70096 I-1.5 J0.0
G2 Y91.29904 I0.75 J1.29904
G2 X66.5 Y90.0 I0.75 J-1.29904
G1 F300.0 X67.0
G2 F800.0 X64.0 Y88.26795 I-2.0 J0.0
G2 Y91.73205 I1.0 J1.73205
G2 X67.0 Y90.0 I1.0 J-1.73205
G1 F300.0 X66.5
G1 Z-9.0
G2 F800.0 X64.25 Y88.70096 I-1.5 J0.0
G2 Y91.29904 I0.75 J1.29904
G2 X66.5 Y90.0 I0.75 J-1.29904
G1 F300.0 X67.0
G2 F800.0 X64.0 Y88.26795 I-2.0 J0.0
G2 Y91.73205 I1.0 J1.73205
G2 X67.0 Y90.0 I1.0 J-1.73205
( Sensor Arm - Outside Trigger )
S1000
G0 Z3.0
G0 X59.0 Y20.75
G1 F300.0 Z-8.0
G1 F800.0 X71.0
G3 X72.25 Y22.0 I0.0 J1.25
G1 Y96.0
G3 X71.0 Y97.25 I-1.25 J0.0
G1 X59.0
G3 X57.75 Y96.0 I0.0 J-1.25
G1 Y22.0
G3 X59.0 Y20.75 I1.25 J0.0
G1 F300.0 Y20.25
G1 F800.0 X71.0
G3 X72.75 Y22.0 I0.0 J1.75
G1 Y96.0
G3 X71.0 Y97.75 I-1.75 J0.0
G1 X59.0
G3 X57.25 Y96.0 I0.0 J-1.75
G1 Y22.0
G3 X59.0 Y20.25 I1.75 J0.0
G1 F300.0 Y20.75
G1 Z-9.0
G1 F800.0 X71.0
G3 X72.25 Y22.0 I0.0 J1.25
G1 Y96.0
G3 X71.0 Y97.25 I-1.25 J0.0
G1 X59.0
G3 X57.75 Y96.0 I0.0 J-1.25
G1 Y22.0
G3 X59.0 Y20.75 I1.25 J0.0
G1 F300.0 Y20.25
G1 F800.0 X71.0
G3 X72.75 Y22.0 I0.0 J1.75
G1 Y96.0
G3 X71.0 Y97.75 I-1.75 J0.0
G1 X59.0
G3 X57.25 Y96.0 I0.0 J-1.75
G1 Y22.0
G3 X59.0 Y20.25 I1.75 J0.0
G1 F300.0 Y20.75
G1 Z-10.0
G1 F800.0 X71.0
G3 X72.25 Y22.0 I0.0 J1.25
G1 Y96.0
G3 X71.0 Y97.25 I-1.25 J0.0
G1 X59.0
G3 X57.75 Y96.0 I0.0 J-1.25
G1 Y22.0
G3 X59.0 Y20.75 I1.25 J0.0
G1 F300.0 Y20.25
G1 F800.0 X71.0
G3 X72.75 Y22.0 I0.0 J1.75
G1 Y96.0
G3 X71.0 Y97.75 I-1.75 J0.0
G1 X59.0
G3 X57.25 Y96.0 I0.0 J-1.75
G1 Y22.0
G3 X59.0 Y20.25 I1.75 J0.0
G0 Z3.0
M5
M30
