(.../pcb-gcode-3.6.2.4/pcb-gcode.ulp)
(Copyright 2005 - 2012 by John Johnson)
(See readme.txt for licensing terms.)
(This file generated from the board:)
(.../CNC/3D-Printer/Cooler-7805.brd)
(Current profile is .../pcb-gcode-3.6.2.4/profiles/emc.pp  )
(This file generated 7/15/2017 3:22 PM)
(Settings from pcb-machine.h)
(spindle on time = 3.0000)
(  Tool Size)
(0.0070 )
(spindle speed = 30000.0000)
(tool change at 0.0000 0.0000 1.0000 )
(feed rate xy = F20.00 )
(feed rate z  = F10.00 )
(Z Axis Settings)
(  High     Up        Down     Drill)
(0.5000 	0.1000 	-0.0070 	-0.0320 )
(Settings from pcb-defaults.h)
(isolate min = 0.0010)
(isolate max = 0.0200)
(isolate step = 0.0050)
(Generated top outlines, top drill, bottom outlines, bottom drill, )
(Unit of measure: inch)
(Inch Mode)
G20
(Absolute Coordinates)
G90
S30000
G00 Z0.5000 
G00 X0.0000 Y0.0000 
M03
G04 P3.000000
G00 Z0.1000 
G00 X0.1205 Y0.5171 
G01 Z-0.0070 F10.00 
G01 X0.1205 Y0.5829 F20.00 
G01 X0.1671 Y0.6295 
G01 X0.2329 Y0.6295 
G01 X0.2795 Y0.5829 
G01 X0.2795 Y0.5171 
G01 X0.2329 Y0.4705 
G01 X0.1671 Y0.4705 
G01 X0.1205 Y0.5171 
G00 Z0.1000 
G00 X0.1205 Y0.8171 
G01 Z-0.0070 F10.00 
G01 X0.1205 Y0.8829 F20.00 
G01 X0.1671 Y0.9295 
G01 X0.2329 Y0.9295 
G01 X0.2795 Y0.8829 
G01 X0.2795 Y0.8171 
G01 X0.2329 Y0.7705 
G01 X0.1671 Y0.7705 
G01 X0.1205 Y0.8171 
G00 Z0.1000 
G00 X0.1389 Y1.0075 
G01 Z-0.0070 F10.00 
G01 X0.0611 Y1.0075 F20.00 
G01 X0.0595 Y1.0082 
G01 X0.0582 Y1.0095 
G01 X0.0575 Y1.0111 
G01 X0.0575 Y1.0889 
G01 X0.0582 Y1.0905 
G01 X0.0595 Y1.0918 
G01 X0.0611 Y1.0925 
G01 X0.1389 Y1.0925 
G01 X0.1405 Y1.0918 
G01 X0.1418 Y1.0905 
G01 X0.1425 Y1.0889 
G01 X0.1425 Y1.0111 
G01 X0.1418 Y1.0095 
G01 X0.1405 Y1.0082 
G01 X0.1389 Y1.0075 
G00 Z0.1000 
G00 X0.1389 Y1.1575 
G01 Z-0.0070 F10.00 
G01 X0.0611 Y1.1575 F20.00 
G01 X0.0595 Y1.1582 
G01 X0.0582 Y1.1595 
G01 X0.0575 Y1.1611 
G01 X0.0575 Y1.2389 
G01 X0.0582 Y1.2405 
G01 X0.0595 Y1.2418 
G01 X0.0611 Y1.2425 
G01 X0.1389 Y1.2425 
G01 X0.1405 Y1.2418 
G01 X0.1418 Y1.2405 
G01 X0.1425 Y1.2389 
G01 X0.1425 Y1.1611 
G01 X0.1418 Y1.1595 
G01 X0.1405 Y1.1582 
G01 X0.1389 Y1.1575 
G00 Z0.1000 
G00 X0.1625 Y1.4345 
G01 Z-0.0070 F10.00 
G01 X0.1625 Y1.4655 F20.00 
G01 X0.1845 Y1.4875 
G01 X0.2155 Y1.4875 
G01 X0.2375 Y1.4655 
G01 X0.2375 Y1.4345 
G01 X0.2155 Y1.4125 
G01 X0.1845 Y1.4125 
G01 X0.1625 Y1.4345 
G00 Z0.1000 
G00 X0.3695 Y1.4374 
G01 Z-0.0070 F10.00 
G01 X0.3695 Y1.4626 F20.00 
G01 X0.3874 Y1.4805 
G01 X0.4126 Y1.4805 
G01 X0.4305 Y1.4626 
G01 X0.4305 Y1.4374 
G01 X0.4126 Y1.4195 
G01 X0.3874 Y1.4195 
G01 X0.3695 Y1.4374 
G00 Z0.1000 
G00 X0.6195 Y1.4374 
G01 Z-0.0070 F10.00 
G01 X0.6195 Y1.4626 F20.00 
G01 X0.6374 Y1.4805 
G01 X0.6626 Y1.4805 
G01 X0.6805 Y1.4626 
G01 X0.6805 Y1.4374 
G01 X0.6626 Y1.4195 
G01 X0.6374 Y1.4195 
G01 X0.6195 Y1.4374 
G00 Z0.1000 
G00 X0.8125 Y1.4345 
G01 Z-0.0070 F10.00 
G01 X0.8125 Y1.4655 F20.00 
G01 X0.8345 Y1.4875 
G01 X0.8655 Y1.4875 
G01 X0.8875 Y1.4655 
G01 X0.8875 Y1.4345 
G01 X0.8655 Y1.4125 
G01 X0.8345 Y1.4125 
G01 X0.8125 Y1.4345 
G00 Z0.1000 
G00 X0.8874 Y1.2305 
G01 Z-0.0070 F10.00 
G01 X0.9126 Y1.2305 F20.00 
G01 X0.9305 Y1.2126 
G01 X0.9305 Y1.1874 
G01 X0.9126 Y1.1695 
G01 X0.8874 Y1.1695 
G01 X0.8695 Y1.1874 
G01 X0.8695 Y1.2126 
G01 X0.8874 Y1.2305 
G00 Z0.1000 
G00 X0.8874 Y1.0805 
G01 Z-0.0070 F10.00 
G01 X0.9126 Y1.0805 F20.00 
G01 X0.9305 Y1.0626 
G01 X0.9305 Y1.0374 
G01 X0.9126 Y1.0195 
G01 X0.8874 Y1.0195 
G01 X0.8695 Y1.0374 
G01 X0.8695 Y1.0626 
G01 X0.8874 Y1.0805 
G00 Z0.1000 
G00 X1.0625 Y1.1845 
G01 Z-0.0070 F10.00 
G01 X1.0625 Y1.2155 F20.00 
G01 X1.0845 Y1.2375 
G01 X1.1155 Y1.2375 
G01 X1.1375 Y1.2155 
G01 X1.1375 Y1.1845 
G01 X1.1155 Y1.1625 
G01 X1.0845 Y1.1625 
G01 X1.0625 Y1.1845 
G00 Z0.1000 
G00 X1.2845 Y1.1375 
G01 Z-0.0070 F10.00 
G01 X1.3155 Y1.1375 F20.00 
G01 X1.3375 Y1.1155 
G01 X1.3375 Y1.0845 
G01 X1.3155 Y1.0625 
G01 X1.2845 Y1.0625 
G01 X1.2625 Y1.0845 
G01 X1.2625 Y1.1155 
G01 X1.2845 Y1.1375 
G00 Z0.1000 
G00 X1.5223 Y1.1324 
G01 Z-0.0070 F10.00 
G01 X1.5277 Y1.1363 F20.00 
G01 X1.5337 Y1.1394 
G01 X1.5400 Y1.1415 
G01 X1.5467 Y1.1425 
G01 X1.5533 Y1.1425 
G01 X1.5600 Y1.1415 
G01 X1.5663 Y1.1394 
G01 X1.5723 Y1.1363 
G01 X1.5777 Y1.1324 
G01 X1.5824 Y1.1277 
G01 X1.5863 Y1.1223 
G01 X1.5894 Y1.1163 
G01 X1.5915 Y1.1100 
G01 X1.5925 Y1.1033 
G01 X1.5925 Y1.0967 
G01 X1.5915 Y1.0900 
G01 X1.5894 Y1.0837 
G01 X1.5863 Y1.0777 
G01 X1.5824 Y1.0723 
G01 X1.5777 Y1.0676 
G01 X1.5723 Y1.0637 
G01 X1.5663 Y1.0606 
G01 X1.5600 Y1.0585 
G01 X1.5533 Y1.0575 
G01 X1.5467 Y1.0575 
G01 X1.5400 Y1.0585 
G01 X1.5337 Y1.0606 
G01 X1.5277 Y1.0637 
G01 X1.5223 Y1.0676 
G01 X1.5176 Y1.0723 
G01 X1.5137 Y1.0777 
G01 X1.5106 Y1.0837 
G01 X1.5085 Y1.0900 
G01 X1.5075 Y1.0967 
G01 X1.5075 Y1.1033 
G01 X1.5085 Y1.1100 
G01 X1.5106 Y1.1163 
G01 X1.5137 Y1.1223 
G01 X1.5176 Y1.1277 
G01 X1.5223 Y1.1324 
G00 Z0.1000 
G00 X1.5223 Y1.1676 
G01 Z-0.0070 F10.00 
G01 X1.5176 Y1.1723 F20.00 
G01 X1.5137 Y1.1777 
G01 X1.5106 Y1.1837 
G01 X1.5085 Y1.1900 
G01 X1.5075 Y1.1967 
G01 X1.5075 Y1.2033 
G01 X1.5085 Y1.2100 
G01 X1.5106 Y1.2163 
G01 X1.5137 Y1.2223 
G01 X1.5176 Y1.2277 
G01 X1.5223 Y1.2324 
G01 X1.5277 Y1.2363 
G01 X1.5337 Y1.2394 
G01 X1.5400 Y1.2415 
G01 X1.5467 Y1.2425 
G01 X1.5533 Y1.2425 
G01 X1.5600 Y1.2415 
G01 X1.5663 Y1.2394 
G01 X1.5723 Y1.2363 
G01 X1.5777 Y1.2324 
G01 X1.5824 Y1.2277 
G01 X1.5863 Y1.2223 
G01 X1.5894 Y1.2163 
G01 X1.5915 Y1.2100 
G01 X1.5925 Y1.2033 
G01 X1.5925 Y1.1967 
G01 X1.5915 Y1.1900 
G01 X1.5894 Y1.1837 
G01 X1.5863 Y1.1777 
G01 X1.5824 Y1.1723 
G01 X1.5777 Y1.1676 
G01 X1.5723 Y1.1637 
G01 X1.5663 Y1.1606 
G01 X1.5600 Y1.1585 
G01 X1.5533 Y1.1575 
G01 X1.5467 Y1.1575 
G01 X1.5400 Y1.1585 
G01 X1.5337 Y1.1606 
G01 X1.5277 Y1.1637 
G01 X1.5223 Y1.1676 
G00 Z0.1000 
G00 X1.5223 Y1.2676 
G01 Z-0.0070 F10.00 
G01 X1.5176 Y1.2723 F20.00 
G01 X1.5137 Y1.2777 
G01 X1.5106 Y1.2837 
G01 X1.5085 Y1.2900 
G01 X1.5075 Y1.2967 
G01 X1.5075 Y1.3033 
G01 X1.5085 Y1.3100 
G01 X1.5106 Y1.3163 
G01 X1.5137 Y1.3223 
G01 X1.5176 Y1.3277 
G01 X1.5223 Y1.3324 
G01 X1.5277 Y1.3363 
G01 X1.5337 Y1.3394 
G01 X1.5400 Y1.3415 
G01 X1.5467 Y1.3425 
G01 X1.5533 Y1.3425 
G01 X1.5600 Y1.3415 
G01 X1.5663 Y1.3394 
G01 X1.5723 Y1.3363 
G01 X1.5777 Y1.3324 
G01 X1.5824 Y1.3277 
G01 X1.5863 Y1.3223 
G01 X1.5894 Y1.3163 
G01 X1.5915 Y1.3100 
G01 X1.5925 Y1.3033 
G01 X1.5925 Y1.2967 
G01 X1.5915 Y1.2900 
G01 X1.5894 Y1.2837 
G01 X1.5863 Y1.2777 
G01 X1.5824 Y1.2723 
G01 X1.5777 Y1.2676 
G01 X1.5723 Y1.2637 
G01 X1.5663 Y1.2606 
G01 X1.5600 Y1.2585 
G01 X1.5533 Y1.2575 
G01 X1.5467 Y1.2575 
G01 X1.5400 Y1.2585 
G01 X1.5337 Y1.2606 
G01 X1.5277 Y1.2637 
G01 X1.5223 Y1.2676 
G00 Z0.1000 
G00 X1.5223 Y1.3676 
G01 Z-0.0070 F10.00 
G01 X1.5176 Y1.3723 F20.00 
G01 X1.5137 Y1.3777 
G01 X1.5106 Y1.3837 
G01 X1.5085 Y1.3900 
G01 X1.5075 Y1.3967 
G01 X1.5075 Y1.4033 
G01 X1.5085 Y1.4100 
G01 X1.5106 Y1.4163 
G01 X1.5137 Y1.4223 
G01 X1.5176 Y1.4277 
G01 X1.5223 Y1.4324 
G01 X1.5277 Y1.4363 
G01 X1.5337 Y1.4394 
G01 X1.5400 Y1.4415 
G01 X1.5467 Y1.4425 
G01 X1.5533 Y1.4425 
G01 X1.5600 Y1.4415 
G01 X1.5663 Y1.4394 
G01 X1.5723 Y1.4363 
G01 X1.5777 Y1.4324 
G01 X1.5824 Y1.4277 
G01 X1.5863 Y1.4223 
G01 X1.5894 Y1.4163 
G01 X1.5915 Y1.4100 
G01 X1.5925 Y1.4033 
G01 X1.5925 Y1.3967 
G01 X1.5915 Y1.3900 
G01 X1.5894 Y1.3837 
G01 X1.5863 Y1.3777 
G01 X1.5824 Y1.3723 
G01 X1.5777 Y1.3676 
G01 X1.5723 Y1.3637 
G01 X1.5663 Y1.3606 
G01 X1.5600 Y1.3585 
G01 X1.5533 Y1.3575 
G01 X1.5467 Y1.3575 
G01 X1.5400 Y1.3585 
G01 X1.5337 Y1.3606 
G01 X1.5277 Y1.3637 
G01 X1.5223 Y1.3676 
G00 Z0.1000 
G00 X1.5223 Y1.4676 
G01 Z-0.0070 F10.00 
G01 X1.5176 Y1.4723 F20.00 
G01 X1.5137 Y1.4777 
G01 X1.5106 Y1.4837 
G01 X1.5085 Y1.4900 
G01 X1.5075 Y1.4967 
G01 X1.5075 Y1.5033 
G01 X1.5085 Y1.5100 
G01 X1.5106 Y1.5163 
G01 X1.5137 Y1.5223 
G01 X1.5176 Y1.5277 
G01 X1.5223 Y1.5324 
G01 X1.5277 Y1.5363 
G01 X1.5337 Y1.5394 
G01 X1.5400 Y1.5415 
G01 X1.5467 Y1.5425 
G01 X1.5533 Y1.5425 
G01 X1.5600 Y1.5415 
G01 X1.5663 Y1.5394 
G01 X1.5723 Y1.5363 
G01 X1.5777 Y1.5324 
G01 X1.5824 Y1.5277 
G01 X1.5863 Y1.5223 
G01 X1.5894 Y1.5163 
G01 X1.5915 Y1.5100 
G01 X1.5925 Y1.5033 
G01 X1.5925 Y1.4967 
G01 X1.5915 Y1.4900 
G01 X1.5894 Y1.4837 
G01 X1.5863 Y1.4777 
G01 X1.5824 Y1.4723 
G01 X1.5777 Y1.4676 
G01 X1.5723 Y1.4637 
G01 X1.5663 Y1.4606 
G01 X1.5600 Y1.4585 
G01 X1.5533 Y1.4575 
G01 X1.5467 Y1.4575 
G01 X1.5400 Y1.4585 
G01 X1.5337 Y1.4606 
G01 X1.5277 Y1.4637 
G01 X1.5223 Y1.4676 
G00 Z0.1000 
G00 X1.5223 Y1.5676 
G01 Z-0.0070 F10.00 
G01 X1.5176 Y1.5723 F20.00 
G01 X1.5137 Y1.5777 
G01 X1.5106 Y1.5837 
G01 X1.5085 Y1.5900 
G01 X1.5075 Y1.5967 
G01 X1.5075 Y1.6033 
G01 X1.5085 Y1.6100 
G01 X1.5106 Y1.6163 
G01 X1.5137 Y1.6223 
G01 X1.5176 Y1.6277 
G01 X1.5223 Y1.6324 
G01 X1.5277 Y1.6363 
G01 X1.5337 Y1.6394 
G01 X1.5400 Y1.6415 
G01 X1.5467 Y1.6425 
G01 X1.5533 Y1.6425 
G01 X1.5600 Y1.6415 
G01 X1.5663 Y1.6394 
G01 X1.5723 Y1.6363 
G01 X1.5777 Y1.6324 
G01 X1.5824 Y1.6277 
G01 X1.5863 Y1.6223 
G01 X1.5894 Y1.6163 
G01 X1.5915 Y1.6100 
G01 X1.5925 Y1.6033 
G01 X1.5925 Y1.5967 
G01 X1.5915 Y1.5900 
G01 X1.5894 Y1.5837 
G01 X1.5863 Y1.5777 
G01 X1.5824 Y1.5723 
G01 X1.5777 Y1.5676 
G01 X1.5723 Y1.5637 
G01 X1.5663 Y1.5606 
G01 X1.5600 Y1.5585 
G01 X1.5533 Y1.5575 
G01 X1.5467 Y1.5575 
G01 X1.5400 Y1.5585 
G01 X1.5337 Y1.5606 
G01 X1.5277 Y1.5637 
G01 X1.5223 Y1.5676 
G00 Z0.1000 
G00 X1.5223 Y1.6676 
G01 Z-0.0070 F10.00 
G01 X1.5176 Y1.6723 F20.00 
G01 X1.5137 Y1.6777 
G01 X1.5106 Y1.6837 
G01 X1.5085 Y1.6900 
G01 X1.5075 Y1.6967 
G01 X1.5075 Y1.7033 
G01 X1.5085 Y1.7100 
G01 X1.5106 Y1.7163 
G01 X1.5137 Y1.7223 
G01 X1.5176 Y1.7277 
G01 X1.5223 Y1.7324 
G01 X1.5277 Y1.7363 
G01 X1.5337 Y1.7394 
G01 X1.5400 Y1.7415 
G01 X1.5467 Y1.7425 
G01 X1.5533 Y1.7425 
G01 X1.5600 Y1.7415 
G01 X1.5663 Y1.7394 
G01 X1.5723 Y1.7363 
G01 X1.5777 Y1.7324 
G01 X1.5824 Y1.7277 
G01 X1.5863 Y1.7223 
G01 X1.5894 Y1.7163 
G01 X1.5915 Y1.7100 
G01 X1.5925 Y1.7033 
G01 X1.5925 Y1.6967 
G01 X1.5915 Y1.6900 
G01 X1.5894 Y1.6837 
G01 X1.5863 Y1.6777 
G01 X1.5824 Y1.6723 
G01 X1.5777 Y1.6676 
G01 X1.5723 Y1.6637 
G01 X1.5663 Y1.6606 
G01 X1.5600 Y1.6585 
G01 X1.5533 Y1.6575 
G01 X1.5467 Y1.6575 
G01 X1.5400 Y1.6585 
G01 X1.5337 Y1.6606 
G01 X1.5277 Y1.6637 
G01 X1.5223 Y1.6676 
G00 Z0.1000 
G00 X1.5223 Y1.7676 
G01 Z-0.0070 F10.00 
G01 X1.5176 Y1.7723 F20.00 
G01 X1.5137 Y1.7777 
G01 X1.5106 Y1.7837 
G01 X1.5085 Y1.7900 
G01 X1.5075 Y1.7967 
G01 X1.5075 Y1.8033 
G01 X1.5085 Y1.8100 
G01 X1.5106 Y1.8163 
G01 X1.5137 Y1.8223 
G01 X1.5176 Y1.8277 
G01 X1.5223 Y1.8324 
G01 X1.5277 Y1.8363 
G01 X1.5337 Y1.8394 
G01 X1.5400 Y1.8415 
G01 X1.5467 Y1.8425 
G01 X1.5533 Y1.8425 
G01 X1.5600 Y1.8415 
G01 X1.5663 Y1.8394 
G01 X1.5723 Y1.8363 
G01 X1.5777 Y1.8324 
G01 X1.5824 Y1.8277 
G01 X1.5863 Y1.8223 
G01 X1.5894 Y1.8163 
G01 X1.5915 Y1.8100 
G01 X1.5925 Y1.8033 
G01 X1.5925 Y1.7967 
G01 X1.5915 Y1.7900 
G01 X1.5894 Y1.7837 
G01 X1.5863 Y1.7777 
G01 X1.5824 Y1.7723 
G01 X1.5777 Y1.7676 
G01 X1.5723 Y1.7637 
G01 X1.5663 Y1.7606 
G01 X1.5600 Y1.7585 
G01 X1.5533 Y1.7575 
G01 X1.5467 Y1.7575 
G01 X1.5400 Y1.7585 
G01 X1.5337 Y1.7606 
G01 X1.5277 Y1.7637 
G01 X1.5223 Y1.7676 
G00 Z0.1000 
G00 X1.5223 Y1.8676 
G01 Z-0.0070 F10.00 
G01 X1.5176 Y1.8723 F20.00 
G01 X1.5137 Y1.8777 
G01 X1.5106 Y1.8837 
G01 X1.5085 Y1.8900 
G01 X1.5075 Y1.8967 
G01 X1.5075 Y1.9033 
G01 X1.5085 Y1.9100 
G01 X1.5106 Y1.9163 
G01 X1.5137 Y1.9223 
G01 X1.5176 Y1.9277 
G01 X1.5223 Y1.9324 
G01 X1.5277 Y1.9363 
G01 X1.5337 Y1.9394 
G01 X1.5400 Y1.9415 
G01 X1.5467 Y1.9425 
G01 X1.5533 Y1.9425 
G01 X1.5600 Y1.9415 
G01 X1.5663 Y1.9394 
G01 X1.5723 Y1.9363 
G01 X1.5777 Y1.9324 
G01 X1.5824 Y1.9277 
G01 X1.5863 Y1.9223 
G01 X1.5894 Y1.9163 
G01 X1.5915 Y1.9100 
G01 X1.5925 Y1.9033 
G01 X1.5925 Y1.8967 
G01 X1.5915 Y1.8900 
G01 X1.5894 Y1.8837 
G01 X1.5863 Y1.8777 
G01 X1.5824 Y1.8723 
G01 X1.5777 Y1.8676 
G01 X1.5723 Y1.8637 
G01 X1.5663 Y1.8606 
G01 X1.5600 Y1.8585 
G01 X1.5533 Y1.8575 
G01 X1.5467 Y1.8575 
G01 X1.5400 Y1.8585 
G01 X1.5337 Y1.8606 
G01 X1.5277 Y1.8637 
G01 X1.5223 Y1.8676 
G00 Z0.1000 
G00 X1.5223 Y1.9676 
G01 Z-0.0070 F10.00 
G01 X1.5176 Y1.9723 F20.00 
G01 X1.5137 Y1.9777 
G01 X1.5106 Y1.9837 
G01 X1.5085 Y1.9900 
G01 X1.5075 Y1.9967 
G01 X1.5075 Y2.0033 
G01 X1.5085 Y2.0100 
G01 X1.5106 Y2.0163 
G01 X1.5137 Y2.0223 
G01 X1.5176 Y2.0277 
G01 X1.5223 Y2.0324 
G01 X1.5277 Y2.0363 
G01 X1.5337 Y2.0394 
G01 X1.5400 Y2.0415 
G01 X1.5467 Y2.0425 
G01 X1.5533 Y2.0425 
G01 X1.5600 Y2.0415 
G01 X1.5663 Y2.0394 
G01 X1.5723 Y2.0363 
G01 X1.5777 Y2.0324 
G01 X1.5824 Y2.0277 
G01 X1.5863 Y2.0223 
G01 X1.5894 Y2.0163 
G01 X1.5915 Y2.0100 
G01 X1.5925 Y2.0033 
G01 X1.5925 Y1.9967 
G01 X1.5915 Y1.9900 
G01 X1.5894 Y1.9837 
G01 X1.5863 Y1.9777 
G01 X1.5824 Y1.9723 
G01 X1.5777 Y1.9676 
G01 X1.5723 Y1.9637 
G01 X1.5663 Y1.9606 
G01 X1.5600 Y1.9585 
G01 X1.5533 Y1.9575 
G01 X1.5467 Y1.9575 
G01 X1.5400 Y1.9585 
G01 X1.5337 Y1.9606 
G01 X1.5277 Y1.9637 
G01 X1.5223 Y1.9676 
G00 Z0.1000 
G00 X1.5223 Y2.0676 
G01 Z-0.0070 F10.00 
G01 X1.5176 Y2.0723 F20.00 
G01 X1.5137 Y2.0777 
G01 X1.5106 Y2.0837 
G01 X1.5085 Y2.0900 
G01 X1.5075 Y2.0967 
G01 X1.5075 Y2.1033 
G01 X1.5085 Y2.1100 
G01 X1.5106 Y2.1163 
G01 X1.5137 Y2.1223 
G01 X1.5176 Y2.1277 
G01 X1.5223 Y2.1324 
G01 X1.5277 Y2.1363 
G01 X1.5337 Y2.1394 
G01 X1.5400 Y2.1415 
G01 X1.5467 Y2.1425 
G01 X1.5533 Y2.1425 
G01 X1.5600 Y2.1415 
G01 X1.5663 Y2.1394 
G01 X1.5723 Y2.1363 
G01 X1.5777 Y2.1324 
G01 X1.5824 Y2.1277 
G01 X1.5863 Y2.1223 
G01 X1.5894 Y2.1163 
G01 X1.5915 Y2.1100 
G01 X1.5925 Y2.1033 
G01 X1.5925 Y2.0967 
G01 X1.5915 Y2.0900 
G01 X1.5894 Y2.0837 
G01 X1.5863 Y2.0777 
G01 X1.5824 Y2.0723 
G01 X1.5777 Y2.0676 
G01 X1.5723 Y2.0637 
G01 X1.5663 Y2.0606 
G01 X1.5600 Y2.0585 
G01 X1.5533 Y2.0575 
G01 X1.5467 Y2.0575 
G01 X1.5400 Y2.0585 
G01 X1.5337 Y2.0606 
G01 X1.5277 Y2.0637 
G01 X1.5223 Y2.0676 
G00 Z0.1000 
G00 X1.5223 Y2.1676 
G01 Z-0.0070 F10.00 
G01 X1.5176 Y2.1723 F20.00 
G01 X1.5137 Y2.1777 
G01 X1.5106 Y2.1837 
G01 X1.5085 Y2.1900 
G01 X1.5075 Y2.1967 
G01 X1.5075 Y2.2033 
G01 X1.5085 Y2.2100 
G01 X1.5106 Y2.2163 
G01 X1.5137 Y2.2223 
G01 X1.5176 Y2.2277 
G01 X1.5223 Y2.2324 
G01 X1.5277 Y2.2363 
G01 X1.5337 Y2.2394 
G01 X1.5400 Y2.2415 
G01 X1.5467 Y2.2425 
G01 X1.5533 Y2.2425 
G01 X1.5600 Y2.2415 
G01 X1.5663 Y2.2394 
G01 X1.5723 Y2.2363 
G01 X1.5777 Y2.2324 
G01 X1.5824 Y2.2277 
G01 X1.5863 Y2.2223 
G01 X1.5894 Y2.2163 
G01 X1.5915 Y2.2100 
G01 X1.5925 Y2.2033 
G01 X1.5925 Y2.1967 
G01 X1.5915 Y2.1900 
G01 X1.5894 Y2.1837 
G01 X1.5863 Y2.1777 
G01 X1.5824 Y2.1723 
G01 X1.5777 Y2.1676 
G01 X1.5723 Y2.1637 
G01 X1.5663 Y2.1606 
G01 X1.5600 Y2.1585 
G01 X1.5533 Y2.1575 
G01 X1.5467 Y2.1575 
G01 X1.5400 Y2.1585 
G01 X1.5337 Y2.1606 
G01 X1.5277 Y2.1637 
G01 X1.5223 Y2.1676 
G00 Z0.1000 
G00 X1.5223 Y2.2676 
G01 Z-0.0070 F10.00 
G01 X1.5176 Y2.2723 F20.00 
G01 X1.5137 Y2.2777 
G01 X1.5106 Y2.2837 
G01 X1.5085 Y2.2900 
G01 X1.5075 Y2.2967 
G01 X1.5075 Y2.3033 
G01 X1.5085 Y2.3100 
G01 X1.5106 Y2.3163 
G01 X1.5137 Y2.3223 
G01 X1.5176 Y2.3277 
G01 X1.5223 Y2.3324 
G01 X1.5277 Y2.3363 
G01 X1.5337 Y2.3394 
G01 X1.5400 Y2.3415 
G01 X1.5467 Y2.3425 
G01 X1.5533 Y2.3425 
G01 X1.5600 Y2.3415 
G01 X1.5663 Y2.3394 
G01 X1.5723 Y2.3363 
G01 X1.5777 Y2.3324 
G01 X1.5824 Y2.3277 
G01 X1.5863 Y2.3223 
G01 X1.5894 Y2.3163 
G01 X1.5915 Y2.3100 
G01 X1.5925 Y2.3033 
G01 X1.5925 Y2.2967 
G01 X1.5915 Y2.2900 
G01 X1.5894 Y2.2837 
G01 X1.5863 Y2.2777 
G01 X1.5824 Y2.2723 
G01 X1.5777 Y2.2676 
G01 X1.5723 Y2.2637 
G01 X1.5663 Y2.2606 
G01 X1.5600 Y2.2585 
G01 X1.5533 Y2.2575 
G01 X1.5467 Y2.2575 
G01 X1.5400 Y2.2585 
G01 X1.5337 Y2.2606 
G01 X1.5277 Y2.2637 
G01 X1.5223 Y2.2676 
G00 Z0.1000 
G00 X1.5223 Y2.3676 
G01 Z-0.0070 F10.00 
G01 X1.5176 Y2.3723 F20.00 
G01 X1.5137 Y2.3777 
G01 X1.5106 Y2.3837 
G01 X1.5085 Y2.3900 
G01 X1.5075 Y2.3967 
G01 X1.5075 Y2.4033 
G01 X1.5085 Y2.4100 
G01 X1.5106 Y2.4163 
G01 X1.5137 Y2.4223 
G01 X1.5176 Y2.4277 
G01 X1.5223 Y2.4324 
G01 X1.5277 Y2.4363 
G01 X1.5337 Y2.4394 
G01 X1.5400 Y2.4415 
G01 X1.5467 Y2.4425 
G01 X1.5533 Y2.4425 
G01 X1.5600 Y2.4415 
G01 X1.5663 Y2.4394 
G01 X1.5723 Y2.4363 
G01 X1.5777 Y2.4324 
G01 X1.5824 Y2.4277 
G01 X1.5863 Y2.4223 
G01 X1.5894 Y2.4163 
G01 X1.5915 Y2.4100 
G01 X1.5925 Y2.4033 
G01 X1.5925 Y2.3967 
G01 X1.5915 Y2.3900 
G01 X1.5894 Y2.3837 
G01 X1.5863 Y2.3777 
G01 X1.5824 Y2.3723 
G01 X1.5777 Y2.3676 
G01 X1.5723 Y2.3637 
G01 X1.5663 Y2.3606 
G01 X1.5600 Y2.3585 
G01 X1.5533 Y2.3575 
G01 X1.5467 Y2.3575 
G01 X1.5400 Y2.3585 
G01 X1.5337 Y2.3606 
G01 X1.5277 Y2.3637 
G01 X1.5223 Y2.3676 
G00 Z0.1000 
G00 X1.5223 Y2.4676 
G01 Z-0.0070 F10.00 
G01 X1.5176 Y2.4723 F20.00 
G01 X1.5137 Y2.4777 
G01 X1.5106 Y2.4837 
G01 X1.5085 Y2.4900 
G01 X1.5075 Y2.4967 
G01 X1.5075 Y2.5033 
G01 X1.5085 Y2.5100 
G01 X1.5106 Y2.5163 
G01 X1.5137 Y2.5223 
G01 X1.5176 Y2.5277 
G01 X1.5223 Y2.5324 
G01 X1.5277 Y2.5363 
G01 X1.5337 Y2.5394 
G01 X1.5400 Y2.5415 
G01 X1.5467 Y2.5425 
G01 X1.5533 Y2.5425 
G01 X1.5600 Y2.5415 
G01 X1.5663 Y2.5394 
G01 X1.5723 Y2.5363 
G01 X1.5777 Y2.5324 
G01 X1.5824 Y2.5277 
G01 X1.5863 Y2.5223 
G01 X1.5894 Y2.5163 
G01 X1.5915 Y2.5100 
G01 X1.5925 Y2.5033 
G01 X1.5925 Y2.4967 
G01 X1.5915 Y2.4900 
G01 X1.5894 Y2.4837 
G01 X1.5863 Y2.4777 
G01 X1.5824 Y2.4723 
G01 X1.5777 Y2.4676 
G01 X1.5723 Y2.4637 
G01 X1.5663 Y2.4606 
G01 X1.5600 Y2.4585 
G01 X1.5533 Y2.4575 
G01 X1.5467 Y2.4575 
G01 X1.5400 Y2.4585 
G01 X1.5337 Y2.4606 
G01 X1.5277 Y2.4637 
G01 X1.5223 Y2.4676 
G00 Z0.1000 
G00 X1.5223 Y2.5676 
G01 Z-0.0070 F10.00 
G01 X1.5176 Y2.5723 F20.00 
G01 X1.5137 Y2.5777 
G01 X1.5106 Y2.5837 
G01 X1.5085 Y2.5900 
G01 X1.5075 Y2.5967 
G01 X1.5075 Y2.6033 
G01 X1.5085 Y2.6100 
G01 X1.5106 Y2.6163 
G01 X1.5137 Y2.6223 
G01 X1.5176 Y2.6277 
G01 X1.5223 Y2.6324 
G01 X1.5277 Y2.6363 
G01 X1.5337 Y2.6394 
G01 X1.5400 Y2.6415 
G01 X1.5467 Y2.6425 
G01 X1.5533 Y2.6425 
G01 X1.5600 Y2.6415 
G01 X1.5663 Y2.6394 
G01 X1.5723 Y2.6363 
G01 X1.5777 Y2.6324 
G01 X1.5824 Y2.6277 
G01 X1.5863 Y2.6223 
G01 X1.5894 Y2.6163 
G01 X1.5915 Y2.6100 
G01 X1.5925 Y2.6033 
G01 X1.5925 Y2.5967 
G01 X1.5915 Y2.5900 
G01 X1.5894 Y2.5837 
G01 X1.5863 Y2.5777 
G01 X1.5824 Y2.5723 
G01 X1.5777 Y2.5676 
G01 X1.5723 Y2.5637 
G01 X1.5663 Y2.5606 
G01 X1.5600 Y2.5585 
G01 X1.5533 Y2.5575 
G01 X1.5467 Y2.5575 
G01 X1.5400 Y2.5585 
G01 X1.5337 Y2.5606 
G01 X1.5277 Y2.5637 
G01 X1.5223 Y2.5676 
G00 Z0.1000 
G00 X1.3795 Y2.4829 
G01 Z-0.0070 F10.00 
G01 X1.3795 Y2.4171 F20.00 
G01 X1.3329 Y2.3705 
G01 X1.2671 Y2.3705 
G01 X1.2205 Y2.4171 
G01 X1.2205 Y2.4829 
G01 X1.2671 Y2.5295 
G01 X1.3329 Y2.5295 
G01 X1.3795 Y2.4829 
G00 Z0.1000 
G00 X1.3795 Y2.7171 
G01 Z-0.0070 F10.00 
G01 X1.3329 Y2.6705 F20.00 
G01 X1.2671 Y2.6705 
G01 X1.2205 Y2.7171 
G01 X1.2205 Y2.7829 
G01 X1.2671 Y2.8295 
G01 X1.3329 Y2.8295 
G01 X1.3795 Y2.7829 
G01 X1.3795 Y2.7171 
G00 Z0.1000 
G00 X1.1295 Y2.7171 
G01 Z-0.0070 F10.00 
G01 X1.0829 Y2.6705 F20.00 
G01 X1.0171 Y2.6705 
G01 X0.9705 Y2.7171 
G01 X0.9705 Y2.7829 
G01 X1.0171 Y2.8295 
G01 X1.0829 Y2.8295 
G01 X1.1295 Y2.7829 
G01 X1.1295 Y2.7171 
G00 Z0.1000 
G00 X1.1295 Y2.4829 
G01 Z-0.0070 F10.00 
G01 X1.1295 Y2.4171 F20.00 
G01 X1.0829 Y2.3705 
G01 X1.0171 Y2.3705 
G01 X0.9705 Y2.4171 
G01 X0.9705 Y2.4829 
G01 X1.0171 Y2.5295 
G01 X1.0829 Y2.5295 
G01 X1.1295 Y2.4829 
G00 Z0.1000 
G00 X0.8795 Y2.4829 
G01 Z-0.0070 F10.00 
G01 X0.8795 Y2.4171 F20.00 
G01 X0.8329 Y2.3705 
G01 X0.7671 Y2.3705 
G01 X0.7205 Y2.4171 
G01 X0.7205 Y2.4829 
G01 X0.7671 Y2.5295 
G01 X0.8329 Y2.5295 
G01 X0.8795 Y2.4829 
G00 Z0.1000 
G00 X0.8795 Y2.7171 
G01 Z-0.0070 F10.00 
G01 X0.8329 Y2.6705 F20.00 
G01 X0.7671 Y2.6705 
G01 X0.7205 Y2.7171 
G01 X0.7205 Y2.7829 
G01 X0.7671 Y2.8295 
G01 X0.8329 Y2.8295 
G01 X0.8795 Y2.7829 
G01 X0.8795 Y2.7171 
G00 Z0.1000 
G00 X0.6295 Y2.7171 
G01 Z-0.0070 F10.00 
G01 X0.5829 Y2.6705 F20.00 
G01 X0.5171 Y2.6705 
G01 X0.4705 Y2.7171 
G01 X0.4705 Y2.7829 
G01 X0.5171 Y2.8295 
G01 X0.5829 Y2.8295 
G01 X0.6295 Y2.7829 
G01 X0.6295 Y2.7171 
G00 Z0.1000 
G00 X0.6295 Y2.4829 
G01 Z-0.0070 F10.00 
G01 X0.6295 Y2.4171 F20.00 
G01 X0.5829 Y2.3705 
G01 X0.5171 Y2.3705 
G01 X0.4705 Y2.4171 
G01 X0.4705 Y2.4829 
G01 X0.5171 Y2.5295 
G01 X0.5829 Y2.5295 
G01 X0.6295 Y2.4829 
G00 Z0.1000 
G00 X0.6171 Y2.1295 
G01 Z-0.0070 F10.00 
G01 X0.6829 Y2.1295 F20.00 
G01 X0.7295 Y2.0829 
G01 X0.7295 Y2.0171 
G01 X0.6829 Y1.9705 
G01 X0.6171 Y1.9705 
G01 X0.5705 Y2.0171 
G01 X0.5705 Y2.0829 
G01 X0.6171 Y2.1295 
G00 Z0.1000 
G00 X0.4795 Y2.0829 
G01 Z-0.0070 F10.00 
G01 X0.4795 Y2.0171 F20.00 
G01 X0.4329 Y1.9705 
G01 X0.3671 Y1.9705 
G01 X0.3205 Y2.0171 
G01 X0.3205 Y2.0829 
G01 X0.3671 Y2.1295 
G01 X0.4329 Y2.1295 
G01 X0.4795 Y2.0829 
G00 Z0.1000 
G00 X0.4305 Y1.8626 
G01 Z-0.0070 F10.00 
G01 X0.4305 Y1.8374 F20.00 
G01 X0.4126 Y1.8195 
G01 X0.3874 Y1.8195 
G01 X0.3695 Y1.8374 
G01 X0.3695 Y1.8626 
G01 X0.3874 Y1.8805 
G01 X0.4126 Y1.8805 
G01 X0.4305 Y1.8626 
G00 Z0.1000 
G00 X0.6195 Y1.8626 
G01 Z-0.0070 F10.00 
G01 X0.6374 Y1.8805 F20.00 
G01 X0.6626 Y1.8805 
G01 X0.6805 Y1.8626 
G01 X0.6805 Y1.8374 
G01 X0.6626 Y1.8195 
G01 X0.6374 Y1.8195 
G01 X0.6195 Y1.8374 
G01 X0.6195 Y1.8626 
G00 Z0.1000 
G00 X0.8345 Y1.7875 
G01 Z-0.0070 F10.00 
G01 X0.8655 Y1.7875 F20.00 
G01 X0.8875 Y1.7655 
G01 X0.8875 Y1.7345 
G01 X0.8655 Y1.7125 
G01 X0.8345 Y1.7125 
G01 X0.8125 Y1.7345 
G01 X0.8125 Y1.7655 
G01 X0.8345 Y1.7875 
G00 Z0.1000 
G00 X1.0205 Y1.7671 
G01 Z-0.0070 F10.00 
G01 X1.0205 Y1.8329 F20.00 
G01 X1.0671 Y1.8795 
G01 X1.1329 Y1.8795 
G01 X1.1795 Y1.8329 
G01 X1.1795 Y1.7671 
G01 X1.1329 Y1.7205 
G01 X1.0671 Y1.7205 
G01 X1.0205 Y1.7671 
G00 Z0.1000 
G00 X1.0205 Y2.0171 
G01 Z-0.0070 F10.00 
G01 X1.0205 Y2.0829 F20.00 
G01 X1.0671 Y2.1295 
G01 X1.1329 Y2.1295 
G01 X1.1795 Y2.0829 
G01 X1.1795 Y2.0171 
G01 X1.1329 Y1.9705 
G01 X1.0671 Y1.9705 
G01 X1.0205 Y2.0171 
G00 Z0.1000 
G00 X0.2375 Y1.7655 
G01 Z-0.0070 F10.00 
G01 X0.2375 Y1.7345 F20.00 
G01 X0.2155 Y1.7125 
G01 X0.1845 Y1.7125 
G01 X0.1625 Y1.7345 
G01 X0.1625 Y1.7655 
G01 X0.1845 Y1.7875 
G01 X0.2155 Y1.7875 
G01 X0.2375 Y1.7655 
G00 Z0.1000 
G00 X0.4874 Y1.2305 
G01 Z-0.0070 F10.00 
G01 X0.5126 Y1.2305 F20.00 
G01 X0.5305 Y1.2126 
G01 X0.5305 Y1.1874 
G01 X0.5126 Y1.1695 
G01 X0.4874 Y1.1695 
G01 X0.4695 Y1.1874 
G01 X0.4695 Y1.2126 
G01 X0.4874 Y1.2305 
G00 Z0.1000 
G00 X0.4874 Y1.0805 
G01 Z-0.0070 F10.00 
G01 X0.5126 Y1.0805 F20.00 
G01 X0.5305 Y1.0626 
G01 X0.5305 Y1.0374 
G01 X0.5126 Y1.0195 
G01 X0.4874 Y1.0195 
G01 X0.4695 Y1.0374 
G01 X0.4695 Y1.0626 
G01 X0.4874 Y1.0805 
G00 Z0.1000 
G00 X0.4633 Y0.8875 
G01 Z-0.0070 F10.00 
G01 X0.5367 Y0.8875 F20.00 
G01 X0.5439 Y0.8861 
G01 X0.5508 Y0.8832 
G01 X0.5569 Y0.8791 
G01 X0.5621 Y0.8739 
G01 X0.5662 Y0.8678 
G01 X0.5691 Y0.8609 
G01 X0.5705 Y0.8537 
G01 X0.5705 Y0.8463 
G01 X0.5691 Y0.8391 
G01 X0.5662 Y0.8322 
G01 X0.5621 Y0.8261 
G01 X0.5569 Y0.8209 
G01 X0.5508 Y0.8168 
G01 X0.5439 Y0.8139 
G01 X0.5367 Y0.8125 
G01 X0.4633 Y0.8125 
G01 X0.4561 Y0.8139 
G01 X0.4492 Y0.8168 
G01 X0.4431 Y0.8209 
G01 X0.4379 Y0.8261 
G01 X0.4338 Y0.8322 
G01 X0.4309 Y0.8391 
G01 X0.4295 Y0.8463 
G01 X0.4295 Y0.8537 
G01 X0.4309 Y0.8609 
G01 X0.4338 Y0.8678 
G01 X0.4379 Y0.8739 
G01 X0.4431 Y0.8791 
G01 X0.4492 Y0.8832 
G01 X0.4561 Y0.8861 
G01 X0.4633 Y0.8875 
G00 Z0.1000 
G00 X0.4633 Y0.7875 
G01 Z-0.0070 F10.00 
G01 X0.5367 Y0.7875 F20.00 
G01 X0.5439 Y0.7861 
G01 X0.5508 Y0.7832 
G01 X0.5569 Y0.7791 
G01 X0.5621 Y0.7739 
G01 X0.5662 Y0.7678 
G01 X0.5691 Y0.7609 
G01 X0.5705 Y0.7537 
G01 X0.5705 Y0.7463 
G01 X0.5691 Y0.7391 
G01 X0.5662 Y0.7322 
G01 X0.5621 Y0.7261 
G01 X0.5569 Y0.7209 
G01 X0.5508 Y0.7168 
G01 X0.5439 Y0.7139 
G01 X0.5367 Y0.7125 
G01 X0.4633 Y0.7125 
G01 X0.4561 Y0.7139 
G01 X0.4492 Y0.7168 
G01 X0.4431 Y0.7209 
G01 X0.4379 Y0.7261 
G01 X0.4338 Y0.7322 
G01 X0.4309 Y0.7391 
G01 X0.4295 Y0.7463 
G01 X0.4295 Y0.7537 
G01 X0.4309 Y0.7609 
G01 X0.4338 Y0.7678 
G01 X0.4379 Y0.7739 
G01 X0.4431 Y0.7791 
G01 X0.4492 Y0.7832 
G01 X0.4561 Y0.7861 
G01 X0.4633 Y0.7875 
G00 Z0.1000 
G00 X0.4633 Y0.6875 
G01 Z-0.0070 F10.00 
G01 X0.5367 Y0.6875 F20.00 
G01 X0.5439 Y0.6861 
G01 X0.5508 Y0.6832 
G01 X0.5569 Y0.6791 
G01 X0.5621 Y0.6739 
G01 X0.5662 Y0.6678 
G01 X0.5691 Y0.6609 
G01 X0.5705 Y0.6537 
G01 X0.5705 Y0.6463 
G01 X0.5691 Y0.6391 
G01 X0.5662 Y0.6322 
G01 X0.5621 Y0.6261 
G01 X0.5569 Y0.6209 
G01 X0.5508 Y0.6168 
G01 X0.5439 Y0.6139 
G01 X0.5367 Y0.6125 
G01 X0.4633 Y0.6125 
G01 X0.4561 Y0.6139 
G01 X0.4492 Y0.6168 
G01 X0.4431 Y0.6209 
G01 X0.4379 Y0.6261 
G01 X0.4338 Y0.6322 
G01 X0.4309 Y0.6391 
G01 X0.4295 Y0.6463 
G01 X0.4295 Y0.6537 
G01 X0.4309 Y0.6609 
G01 X0.4338 Y0.6678 
G01 X0.4379 Y0.6739 
G01 X0.4431 Y0.6791 
G01 X0.4492 Y0.6832 
G01 X0.4561 Y0.6861 
G01 X0.4633 Y0.6875 
G00 Z0.1000 
G00 X0.7223 Y0.4824 
G01 Z-0.0070 F10.00 
G01 X0.7277 Y0.4863 F20.00 
G01 X0.7337 Y0.4894 
G01 X0.7400 Y0.4915 
G01 X0.7467 Y0.4925 
G01 X0.7533 Y0.4925 
G01 X0.7600 Y0.4915 
G01 X0.7663 Y0.4894 
G01 X0.7723 Y0.4863 
G01 X0.7777 Y0.4824 
G01 X0.7824 Y0.4777 
G01 X0.7863 Y0.4723 
G01 X0.7894 Y0.4663 
G01 X0.7915 Y0.4600 
G01 X0.7925 Y0.4533 
G01 X0.7925 Y0.4467 
G01 X0.7915 Y0.4400 
G01 X0.7894 Y0.4337 
G01 X0.7863 Y0.4277 
G01 X0.7824 Y0.4223 
G01 X0.7777 Y0.4176 
G01 X0.7723 Y0.4137 
G01 X0.7663 Y0.4106 
G01 X0.7600 Y0.4085 
G01 X0.7533 Y0.4075 
G01 X0.7467 Y0.4075 
G01 X0.7400 Y0.4085 
G01 X0.7337 Y0.4106 
G01 X0.7277 Y0.4137 
G01 X0.7223 Y0.4176 
G01 X0.7176 Y0.4223 
G01 X0.7137 Y0.4277 
G01 X0.7106 Y0.4337 
G01 X0.7085 Y0.4400 
G01 X0.7075 Y0.4467 
G01 X0.7075 Y0.4533 
G01 X0.7085 Y0.4600 
G01 X0.7106 Y0.4663 
G01 X0.7137 Y0.4723 
G01 X0.7176 Y0.4777 
G01 X0.7223 Y0.4824 
G00 Z0.1000 
G00 X1.1223 Y0.4824 
G01 Z-0.0070 F10.00 
G01 X1.1277 Y0.4863 F20.00 
G01 X1.1337 Y0.4894 
G01 X1.1400 Y0.4915 
G01 X1.1467 Y0.4925 
G01 X1.1533 Y0.4925 
G01 X1.1600 Y0.4915 
G01 X1.1663 Y0.4894 
G01 X1.1723 Y0.4863 
G01 X1.1777 Y0.4824 
G01 X1.1824 Y0.4777 
G01 X1.1863 Y0.4723 
G01 X1.1894 Y0.4663 
G01 X1.1915 Y0.4600 
G01 X1.1925 Y0.4533 
G01 X1.1925 Y0.4467 
G01 X1.1915 Y0.4400 
G01 X1.1894 Y0.4337 
G01 X1.1863 Y0.4277 
G01 X1.1824 Y0.4223 
G01 X1.1777 Y0.4176 
G01 X1.1723 Y0.4137 
G01 X1.1663 Y0.4106 
G01 X1.1600 Y0.4085 
G01 X1.1533 Y0.4075 
G01 X1.1467 Y0.4075 
G01 X1.1400 Y0.4085 
G01 X1.1337 Y0.4106 
G01 X1.1277 Y0.4137 
G01 X1.1223 Y0.4176 
G01 X1.1176 Y0.4223 
G01 X1.1137 Y0.4277 
G01 X1.1106 Y0.4337 
G01 X1.1085 Y0.4400 
G01 X1.1075 Y0.4467 
G01 X1.1075 Y0.4533 
G01 X1.1085 Y0.4600 
G01 X1.1106 Y0.4663 
G01 X1.1137 Y0.4723 
G01 X1.1176 Y0.4777 
G01 X1.1223 Y0.4824 
G00 Z0.1000 
G00 X1.1155 Y0.6625 
G01 Z-0.0070 F10.00 
G01 X1.0845 Y0.6625 F20.00 
G01 X1.0625 Y0.6845 
G01 X1.0625 Y0.7155 
G01 X1.0845 Y0.7375 
G01 X1.1155 Y0.7375 
G01 X1.1375 Y0.7155 
G01 X1.1375 Y0.6845 
G01 X1.1155 Y0.6625 
G00 Z0.1000 
G00 X1.2845 Y0.6375 
G01 Z-0.0070 F10.00 
G01 X1.3155 Y0.6375 F20.00 
G01 X1.3375 Y0.6155 
G01 X1.3375 Y0.5845 
G01 X1.3155 Y0.5625 
G01 X1.2845 Y0.5625 
G01 X1.2625 Y0.5845 
G01 X1.2625 Y0.6155 
G01 X1.2845 Y0.6375 
G00 Z0.1000 
G00 X1.4845 Y0.5875 
G01 Z-0.0070 F10.00 
G01 X1.5155 Y0.5875 F20.00 
G01 X1.5375 Y0.5655 
G01 X1.5375 Y0.5345 
G01 X1.5155 Y0.5125 
G01 X1.4845 Y0.5125 
G01 X1.4625 Y0.5345 
G01 X1.4625 Y0.5655 
G01 X1.4845 Y0.5875 
G00 Z0.1000 
G00 X1.7845 Y0.5875 
G01 Z-0.0070 F10.00 
G01 X1.8155 Y0.5875 F20.00 
G01 X1.8375 Y0.5655 
G01 X1.8375 Y0.5345 
G01 X1.8155 Y0.5125 
G01 X1.7845 Y0.5125 
G01 X1.7625 Y0.5345 
G01 X1.7625 Y0.5655 
G01 X1.7845 Y0.5875 
G00 Z0.1000 
G00 X1.7845 Y0.2875 
G01 Z-0.0070 F10.00 
G01 X1.8155 Y0.2875 F20.00 
G01 X1.8375 Y0.2655 
G01 X1.8375 Y0.2345 
G01 X1.8155 Y0.2125 
G01 X1.7845 Y0.2125 
G01 X1.7625 Y0.2345 
G01 X1.7625 Y0.2655 
G01 X1.7845 Y0.2875 
G00 Z0.1000 
G00 X1.5375 Y0.2655 
G01 Z-0.0070 F10.00 
G01 X1.5375 Y0.2345 F20.00 
G01 X1.5155 Y0.2125 
G01 X1.4845 Y0.2125 
G01 X1.4625 Y0.2345 
G01 X1.4625 Y0.2655 
G01 X1.4845 Y0.2875 
G01 X1.5155 Y0.2875 
G01 X1.5375 Y0.2655 
G00 Z0.1000 
G00 X2.0625 Y0.2655 
G01 Z-0.0070 F10.00 
G01 X2.0845 Y0.2875 F20.00 
G01 X2.1155 Y0.2875 
G01 X2.1375 Y0.2655 
G01 X2.1375 Y0.2345 
G01 X2.1155 Y0.2125 
G01 X2.0845 Y0.2125 
G01 X2.0625 Y0.2345 
G01 X2.0625 Y0.2655 
G00 Z0.1000 
G00 X2.0625 Y0.5345 
G01 Z-0.0070 F10.00 
G01 X2.0625 Y0.5655 F20.00 
G01 X2.0845 Y0.5875 
G01 X2.1155 Y0.5875 
G01 X2.1375 Y0.5655 
G01 X2.1375 Y0.5345 
G01 X2.1155 Y0.5125 
G01 X2.0845 Y0.5125 
G01 X2.0625 Y0.5345 
G00 Z0.1000 
G00 X2.4125 Y0.5345 
G01 Z-0.0070 F10.00 
G01 X2.4125 Y0.5655 F20.00 
G01 X2.4345 Y0.5875 
G01 X2.4655 Y0.5875 
G01 X2.4875 Y0.5655 
G01 X2.4875 Y0.5345 
G01 X2.4655 Y0.5125 
G01 X2.4345 Y0.5125 
G01 X2.4125 Y0.5345 
G00 Z0.1000 
G00 X2.8411 Y0.4673 
G01 Z-0.0070 F10.00 
G01 X2.8472 Y0.4714 F20.00 
G01 X2.8541 Y0.4742 
G01 X2.8613 Y0.4756 
G01 X2.8687 Y0.4756 
G01 X2.8759 Y0.4742 
G01 X2.8828 Y0.4714 
G01 X2.8889 Y0.4673 
G01 X2.8941 Y0.4620 
G01 X2.8982 Y0.4559 
G01 X2.9011 Y0.4491 
G01 X2.9025 Y0.4418 
G01 X2.9025 Y0.4344 
G01 X2.9011 Y0.4272 
G01 X2.8982 Y0.4204 
G01 X2.8941 Y0.4142 
G01 X2.8889 Y0.4090 
G01 X2.8828 Y0.4049 
G01 X2.8759 Y0.4021 
G01 X2.8687 Y0.4006 
G01 X2.8613 Y0.4006 
G01 X2.8541 Y0.4021 
G01 X2.8472 Y0.4049 
G01 X2.8411 Y0.4090 
G01 X2.8359 Y0.4142 
G01 X2.8318 Y0.4204 
G01 X2.8289 Y0.4272 
G01 X2.8275 Y0.4344 
G01 X2.8275 Y0.4418 
G01 X2.8289 Y0.4491 
G01 X2.8318 Y0.4559 
G01 X2.8359 Y0.4620 
G01 X2.8411 Y0.4673 
G00 Z0.1000 
G00 X2.9375 Y0.4537 
G01 Z-0.0070 F10.00 
G01 X2.9595 Y0.4756 F20.00 
G01 X2.9905 Y0.4756 
G01 X3.0125 Y0.4537 
G01 X3.0125 Y0.4226 
G01 X2.9905 Y0.4006 
G01 X2.9595 Y0.4006 
G01 X2.9375 Y0.4226 
G01 X2.9375 Y0.4537 
G00 Z0.1000 
G00 X2.9328 Y0.3951 
G01 Z-0.0070 F10.00 
G01 X2.9389 Y0.3910 F20.00 
G01 X2.9441 Y0.3858 
G01 X2.9482 Y0.3796 
G01 X2.9511 Y0.3728 
G01 X2.9525 Y0.3656 
G01 X2.9525 Y0.3582 
G01 X2.9511 Y0.3509 
G01 X2.9482 Y0.3441 
G01 X2.9441 Y0.3380 
G01 X2.9389 Y0.3327 
G01 X2.9328 Y0.3286 
G01 X2.9259 Y0.3258 
G01 X2.9187 Y0.3244 
G01 X2.9113 Y0.3244 
G01 X2.9041 Y0.3258 
G01 X2.8972 Y0.3286 
G01 X2.8911 Y0.3327 
G01 X2.8859 Y0.3380 
G01 X2.8818 Y0.3441 
G01 X2.8789 Y0.3509 
G01 X2.8775 Y0.3582 
G01 X2.8775 Y0.3656 
G01 X2.8789 Y0.3728 
G01 X2.8818 Y0.3796 
G01 X2.8859 Y0.3858 
G01 X2.8911 Y0.3910 
G01 X2.8972 Y0.3951 
G01 X2.9041 Y0.3979 
G01 X2.9113 Y0.3994 
G01 X2.9187 Y0.3994 
G01 X2.9259 Y0.3979 
G01 X2.9328 Y0.3951 
G00 Z0.1000 
G00 X3.0111 Y0.3910 
G01 Z-0.0070 F10.00 
G01 X3.0172 Y0.3951 F20.00 
G01 X3.0241 Y0.3979 
G01 X3.0313 Y0.3994 
G01 X3.0387 Y0.3994 
G01 X3.0459 Y0.3979 
G01 X3.0528 Y0.3951 
G01 X3.0589 Y0.3910 
G01 X3.0641 Y0.3858 
G01 X3.0682 Y0.3796 
G01 X3.0711 Y0.3728 
G01 X3.0725 Y0.3656 
G01 X3.0725 Y0.3582 
G01 X3.0711 Y0.3509 
G01 X3.0682 Y0.3441 
G01 X3.0641 Y0.3380 
G01 X3.0589 Y0.3327 
G01 X3.0528 Y0.3286 
G01 X3.0459 Y0.3258 
G01 X3.0387 Y0.3244 
G01 X3.0313 Y0.3244 
G01 X3.0241 Y0.3258 
G01 X3.0172 Y0.3286 
G01 X3.0111 Y0.3327 
G01 X3.0059 Y0.3380 
G01 X3.0018 Y0.3441 
G01 X2.9989 Y0.3509 
G01 X2.9975 Y0.3582 
G01 X2.9975 Y0.3656 
G01 X2.9989 Y0.3728 
G01 X3.0018 Y0.3796 
G01 X3.0059 Y0.3858 
G01 X3.0111 Y0.3910 
G00 Z0.1000 
G00 X3.3625 Y0.6845 
G01 Z-0.0070 F10.00 
G01 X3.3625 Y0.7155 F20.00 
G01 X3.3845 Y0.7375 
G01 X3.4155 Y0.7375 
G01 X3.4375 Y0.7155 
G01 X3.4375 Y0.6845 
G01 X3.4155 Y0.6625 
G01 X3.3845 Y0.6625 
G01 X3.3625 Y0.6845 
G00 Z0.1000 
G00 X3.5705 Y0.8671 
G01 Z-0.0070 F10.00 
G01 X3.5705 Y0.9329 F20.00 
G01 X3.6171 Y0.9795 
G01 X3.6829 Y0.9795 
G01 X3.7295 Y0.9329 
G01 X3.7295 Y0.8671 
G01 X3.6829 Y0.8205 
G01 X3.6171 Y0.8205 
G01 X3.5705 Y0.8671 
G00 Z0.1000 
G00 X3.4375 Y1.1845 
G01 Z-0.0070 F10.00 
G01 X3.4155 Y1.1625 F20.00 
G01 X3.3845 Y1.1625 
G01 X3.3625 Y1.1845 
G01 X3.3625 Y1.2155 
G01 X3.3845 Y1.2375 
G01 X3.4155 Y1.2375 
G01 X3.4375 Y1.2155 
G01 X3.4375 Y1.1845 
G00 Z0.1000 
G00 X3.1497 Y1.1694 
G01 Z-0.0070 F10.00 
G01 X3.1530 Y1.1644 F20.00 
G01 X3.1553 Y1.1589 
G01 X3.1565 Y1.1530 
G01 X3.1565 Y1.1470 
G01 X3.1553 Y1.1411 
G01 X3.1530 Y1.1356 
G01 X3.1497 Y1.1306 
G01 X3.1454 Y1.1263 
G01 X3.1404 Y1.1230 
G01 X3.1349 Y1.1207 
G01 X3.1290 Y1.1195 
G01 X3.0710 Y1.1195 
G01 X3.0651 Y1.1207 
G01 X3.0596 Y1.1230 
G01 X3.0546 Y1.1263 
G01 X3.0503 Y1.1306 
G01 X3.0470 Y1.1356 
G01 X3.0447 Y1.1411 
G01 X3.0435 Y1.1470 
G01 X3.0435 Y1.1530 
G01 X3.0447 Y1.1589 
G01 X3.0470 Y1.1644 
G01 X3.0503 Y1.1694 
G01 X3.0546 Y1.1737 
G01 X3.0596 Y1.1770 
G01 X3.0651 Y1.1793 
G01 X3.0710 Y1.1805 
G01 X3.1290 Y1.1805 
G01 X3.1349 Y1.1793 
G01 X3.1404 Y1.1770 
G01 X3.1454 Y1.1737 
G01 X3.1497 Y1.1694 
G00 Z0.1000 
G00 X3.1454 Y1.2263 
G01 Z-0.0070 F10.00 
G01 X3.1404 Y1.2230 F20.00 
G01 X3.1349 Y1.2207 
G01 X3.1290 Y1.2195 
G01 X3.0710 Y1.2195 
G01 X3.0651 Y1.2207 
G01 X3.0596 Y1.2230 
G01 X3.0546 Y1.2263 
G01 X3.0503 Y1.2306 
G01 X3.0470 Y1.2356 
G01 X3.0447 Y1.2411 
G01 X3.0435 Y1.2470 
G01 X3.0435 Y1.2530 
G01 X3.0447 Y1.2589 
G01 X3.0470 Y1.2644 
G01 X3.0503 Y1.2694 
G01 X3.0546 Y1.2737 
G01 X3.0596 Y1.2770 
G01 X3.0651 Y1.2793 
G01 X3.0710 Y1.2805 
G01 X3.1290 Y1.2805 
G01 X3.1349 Y1.2793 
G01 X3.1404 Y1.2770 
G01 X3.1454 Y1.2737 
G01 X3.1497 Y1.2694 
G01 X3.1530 Y1.2644 
G01 X3.1553 Y1.2589 
G01 X3.1565 Y1.2530 
G01 X3.1565 Y1.2470 
G01 X3.1553 Y1.2411 
G01 X3.1530 Y1.2356 
G01 X3.1497 Y1.2306 
G01 X3.1454 Y1.2263 
G00 Z0.1000 
G00 X3.1454 Y1.3263 
G01 Z-0.0070 F10.00 
G01 X3.1404 Y1.3230 F20.00 
G01 X3.1349 Y1.3207 
G01 X3.1290 Y1.3195 
G01 X3.0710 Y1.3195 
G01 X3.0651 Y1.3207 
G01 X3.0596 Y1.3230 
G01 X3.0546 Y1.3263 
G01 X3.0503 Y1.3306 
G01 X3.0470 Y1.3356 
G01 X3.0447 Y1.3411 
G01 X3.0435 Y1.3470 
G01 X3.0435 Y1.3530 
G01 X3.0447 Y1.3589 
G01 X3.0470 Y1.3644 
G01 X3.0503 Y1.3694 
G01 X3.0546 Y1.3737 
G01 X3.0596 Y1.3770 
G01 X3.0651 Y1.3793 
G01 X3.0710 Y1.3805 
G01 X3.1290 Y1.3805 
G01 X3.1349 Y1.3793 
G01 X3.1404 Y1.3770 
G01 X3.1454 Y1.3737 
G01 X3.1497 Y1.3694 
G01 X3.1530 Y1.3644 
G01 X3.1553 Y1.3589 
G01 X3.1565 Y1.3530 
G01 X3.1565 Y1.3470 
G01 X3.1553 Y1.3411 
G01 X3.1530 Y1.3356 
G01 X3.1497 Y1.3306 
G01 X3.1454 Y1.3263 
G00 Z0.1000 
G00 X3.1454 Y1.4263 
G01 Z-0.0070 F10.00 
G01 X3.1404 Y1.4230 F20.00 
G01 X3.1349 Y1.4207 
G01 X3.1290 Y1.4195 
G01 X3.0710 Y1.4195 
G01 X3.0651 Y1.4207 
G01 X3.0596 Y1.4230 
G01 X3.0546 Y1.4263 
G01 X3.0503 Y1.4306 
G01 X3.0470 Y1.4356 
G01 X3.0447 Y1.4411 
G01 X3.0435 Y1.4470 
G01 X3.0435 Y1.4530 
G01 X3.0447 Y1.4589 
G01 X3.0470 Y1.4644 
G01 X3.0503 Y1.4694 
G01 X3.0546 Y1.4737 
G01 X3.0596 Y1.4770 
G01 X3.0651 Y1.4793 
G01 X3.0710 Y1.4805 
G01 X3.1290 Y1.4805 
G01 X3.1349 Y1.4793 
G01 X3.1404 Y1.4770 
G01 X3.1454 Y1.4737 
G01 X3.1497 Y1.4694 
G01 X3.1530 Y1.4644 
G01 X3.1553 Y1.4589 
G01 X3.1565 Y1.4530 
G01 X3.1565 Y1.4470 
G01 X3.1553 Y1.4411 
G01 X3.1530 Y1.4356 
G01 X3.1497 Y1.4306 
G01 X3.1454 Y1.4263 
G00 Z0.1000 
G00 X3.1454 Y1.5263 
G01 Z-0.0070 F10.00 
G01 X3.1404 Y1.5230 F20.00 
G01 X3.1349 Y1.5207 
G01 X3.1290 Y1.5195 
G01 X3.0710 Y1.5195 
G01 X3.0651 Y1.5207 
G01 X3.0596 Y1.5230 
G01 X3.0546 Y1.5263 
G01 X3.0503 Y1.5306 
G01 X3.0470 Y1.5356 
G01 X3.0447 Y1.5411 
G01 X3.0435 Y1.5470 
G01 X3.0435 Y1.5530 
G01 X3.0447 Y1.5589 
G01 X3.0470 Y1.5644 
G01 X3.0503 Y1.5694 
G01 X3.0546 Y1.5737 
G01 X3.0596 Y1.5770 
G01 X3.0651 Y1.5793 
G01 X3.0710 Y1.5805 
G01 X3.1290 Y1.5805 
G01 X3.1349 Y1.5793 
G01 X3.1404 Y1.5770 
G01 X3.1454 Y1.5737 
G01 X3.1497 Y1.5694 
G01 X3.1530 Y1.5644 
G01 X3.1553 Y1.5589 
G01 X3.1565 Y1.5530 
G01 X3.1565 Y1.5470 
G01 X3.1553 Y1.5411 
G01 X3.1530 Y1.5356 
G01 X3.1497 Y1.5306 
G01 X3.1454 Y1.5263 
G00 Z0.1000 
G00 X3.1454 Y1.6263 
G01 Z-0.0070 F10.00 
G01 X3.1404 Y1.6230 F20.00 
G01 X3.1349 Y1.6207 
G01 X3.1290 Y1.6195 
G01 X3.0710 Y1.6195 
G01 X3.0651 Y1.6207 
G01 X3.0596 Y1.6230 
G01 X3.0546 Y1.6263 
G01 X3.0503 Y1.6306 
G01 X3.0470 Y1.6356 
G01 X3.0447 Y1.6411 
G01 X3.0435 Y1.6470 
G01 X3.0435 Y1.6530 
G01 X3.0447 Y1.6589 
G01 X3.0470 Y1.6644 
G01 X3.0503 Y1.6694 
G01 X3.0546 Y1.6737 
G01 X3.0596 Y1.6770 
G01 X3.0651 Y1.6793 
G01 X3.0710 Y1.6805 
G01 X3.1290 Y1.6805 
G01 X3.1349 Y1.6793 
G01 X3.1404 Y1.6770 
G01 X3.1454 Y1.6737 
G01 X3.1497 Y1.6694 
G01 X3.1530 Y1.6644 
G01 X3.1553 Y1.6589 
G01 X3.1565 Y1.6530 
G01 X3.1565 Y1.6470 
G01 X3.1553 Y1.6411 
G01 X3.1530 Y1.6356 
G01 X3.1497 Y1.6306 
G01 X3.1454 Y1.6263 
G00 Z0.1000 
G00 X3.1454 Y1.7263 
G01 Z-0.0070 F10.00 
G01 X3.1404 Y1.7230 F20.00 
G01 X3.1349 Y1.7207 
G01 X3.1290 Y1.7195 
G01 X3.0710 Y1.7195 
G01 X3.0651 Y1.7207 
G01 X3.0596 Y1.7230 
G01 X3.0546 Y1.7263 
G01 X3.0503 Y1.7306 
G01 X3.0470 Y1.7356 
G01 X3.0447 Y1.7411 
G01 X3.0435 Y1.7470 
G01 X3.0435 Y1.7530 
G01 X3.0447 Y1.7589 
G01 X3.0470 Y1.7644 
G01 X3.0503 Y1.7694 
G01 X3.0546 Y1.7737 
G01 X3.0596 Y1.7770 
G01 X3.0651 Y1.7793 
G01 X3.0710 Y1.7805 
G01 X3.1290 Y1.7805 
G01 X3.1349 Y1.7793 
G01 X3.1404 Y1.7770 
G01 X3.1454 Y1.7737 
G01 X3.1497 Y1.7694 
G01 X3.1530 Y1.7644 
G01 X3.1553 Y1.7589 
G01 X3.1565 Y1.7530 
G01 X3.1565 Y1.7470 
G01 X3.1553 Y1.7411 
G01 X3.1530 Y1.7356 
G01 X3.1497 Y1.7306 
G01 X3.1454 Y1.7263 
G00 Z0.1000 
G00 X3.1374 Y1.9195 
G01 Z-0.0070 F10.00 
G01 X3.1195 Y1.9374 F20.00 
G01 X3.1195 Y1.9626 
G01 X3.1374 Y1.9805 
G01 X3.1626 Y1.9805 
G01 X3.1805 Y1.9626 
G01 X3.1805 Y1.9374 
G01 X3.1626 Y1.9195 
G01 X3.1374 Y1.9195 
G00 Z0.1000 
G00 X2.7805 Y1.9374 
G01 Z-0.0070 F10.00 
G01 X2.7626 Y1.9195 F20.00 
G01 X2.7374 Y1.9195 
G01 X2.7195 Y1.9374 
G01 X2.7195 Y1.9626 
G01 X2.7374 Y1.9805 
G01 X2.7626 Y1.9805 
G01 X2.7805 Y1.9626 
G01 X2.7805 Y1.9374 
G00 Z0.1000 
G00 X2.7710 Y1.7805 
G01 Z-0.0070 F10.00 
G01 X2.8290 Y1.7805 F20.00 
G01 X2.8349 Y1.7793 
G01 X2.8404 Y1.7770 
G01 X2.8454 Y1.7737 
G01 X2.8497 Y1.7694 
G01 X2.8530 Y1.7644 
G01 X2.8553 Y1.7589 
G01 X2.8565 Y1.7530 
G01 X2.8565 Y1.7470 
G01 X2.8553 Y1.7411 
G01 X2.8530 Y1.7356 
G01 X2.8497 Y1.7306 
G01 X2.8454 Y1.7263 
G01 X2.8404 Y1.7230 
G01 X2.8349 Y1.7207 
G01 X2.8290 Y1.7195 
G01 X2.7710 Y1.7195 
G01 X2.7651 Y1.7207 
G01 X2.7596 Y1.7230 
G01 X2.7546 Y1.7263 
G01 X2.7503 Y1.7306 
G01 X2.7470 Y1.7356 
G01 X2.7447 Y1.7411 
G01 X2.7435 Y1.7470 
G01 X2.7435 Y1.7530 
G01 X2.7447 Y1.7589 
G01 X2.7470 Y1.7644 
G01 X2.7503 Y1.7694 
G01 X2.7546 Y1.7737 
G01 X2.7596 Y1.7770 
G01 X2.7651 Y1.7793 
G01 X2.7710 Y1.7805 
G00 Z0.1000 
G00 X2.7710 Y1.6805 
G01 Z-0.0070 F10.00 
G01 X2.8290 Y1.6805 F20.00 
G01 X2.8349 Y1.6793 
G01 X2.8404 Y1.6770 
G01 X2.8454 Y1.6737 
G01 X2.8497 Y1.6694 
G01 X2.8530 Y1.6644 
G01 X2.8553 Y1.6589 
G01 X2.8565 Y1.6530 
G01 X2.8565 Y1.6470 
G01 X2.8553 Y1.6411 
G01 X2.8530 Y1.6356 
G01 X2.8497 Y1.6306 
G01 X2.8454 Y1.6263 
G01 X2.8404 Y1.6230 
G01 X2.8349 Y1.6207 
G01 X2.8290 Y1.6195 
G01 X2.7710 Y1.6195 
G01 X2.7651 Y1.6207 
G01 X2.7596 Y1.6230 
G01 X2.7546 Y1.6263 
G01 X2.7503 Y1.6306 
G01 X2.7470 Y1.6356 
G01 X2.7447 Y1.6411 
G01 X2.7435 Y1.6470 
G01 X2.7435 Y1.6530 
G01 X2.7447 Y1.6589 
G01 X2.7470 Y1.6644 
G01 X2.7503 Y1.6694 
G01 X2.7546 Y1.6737 
G01 X2.7596 Y1.6770 
G01 X2.7651 Y1.6793 
G01 X2.7710 Y1.6805 
G00 Z0.1000 
G00 X2.7710 Y1.5805 
G01 Z-0.0070 F10.00 
G01 X2.8290 Y1.5805 F20.00 
G01 X2.8349 Y1.5793 
G01 X2.8404 Y1.5770 
G01 X2.8454 Y1.5737 
G01 X2.8497 Y1.5694 
G01 X2.8530 Y1.5644 
G01 X2.8553 Y1.5589 
G01 X2.8565 Y1.5530 
G01 X2.8565 Y1.5470 
G01 X2.8553 Y1.5411 
G01 X2.8530 Y1.5356 
G01 X2.8497 Y1.5306 
G01 X2.8454 Y1.5263 
G01 X2.8404 Y1.5230 
G01 X2.8349 Y1.5207 
G01 X2.8290 Y1.5195 
G01 X2.7710 Y1.5195 
G01 X2.7651 Y1.5207 
G01 X2.7596 Y1.5230 
G01 X2.7546 Y1.5263 
G01 X2.7503 Y1.5306 
G01 X2.7470 Y1.5356 
G01 X2.7447 Y1.5411 
G01 X2.7435 Y1.5470 
G01 X2.7435 Y1.5530 
G01 X2.7447 Y1.5589 
G01 X2.7470 Y1.5644 
G01 X2.7503 Y1.5694 
G01 X2.7546 Y1.5737 
G01 X2.7596 Y1.5770 
G01 X2.7651 Y1.5793 
G01 X2.7710 Y1.5805 
G00 Z0.1000 
G00 X2.7710 Y1.4805 
G01 Z-0.0070 F10.00 
G01 X2.8290 Y1.4805 F20.00 
G01 X2.8349 Y1.4793 
G01 X2.8404 Y1.4770 
G01 X2.8454 Y1.4737 
G01 X2.8497 Y1.4694 
G01 X2.8530 Y1.4644 
G01 X2.8553 Y1.4589 
G01 X2.8565 Y1.4530 
G01 X2.8565 Y1.4470 
G01 X2.8553 Y1.4411 
G01 X2.8530 Y1.4356 
G01 X2.8497 Y1.4306 
G01 X2.8454 Y1.4263 
G01 X2.8404 Y1.4230 
G01 X2.8349 Y1.4207 
G01 X2.8290 Y1.4195 
G01 X2.7710 Y1.4195 
G01 X2.7651 Y1.4207 
G01 X2.7596 Y1.4230 
G01 X2.7546 Y1.4263 
G01 X2.7503 Y1.4306 
G01 X2.7470 Y1.4356 
G01 X2.7447 Y1.4411 
G01 X2.7435 Y1.4470 
G01 X2.7435 Y1.4530 
G01 X2.7447 Y1.4589 
G01 X2.7470 Y1.4644 
G01 X2.7503 Y1.4694 
G01 X2.7546 Y1.4737 
G01 X2.7596 Y1.4770 
G01 X2.7651 Y1.4793 
G01 X2.7710 Y1.4805 
G00 Z0.1000 
G00 X2.7710 Y1.3805 
G01 Z-0.0070 F10.00 
G01 X2.8290 Y1.3805 F20.00 
G01 X2.8349 Y1.3793 
G01 X2.8404 Y1.3770 
G01 X2.8454 Y1.3737 
G01 X2.8497 Y1.3694 
G01 X2.8530 Y1.3644 
G01 X2.8553 Y1.3589 
G01 X2.8565 Y1.3530 
G01 X2.8565 Y1.3470 
G01 X2.8553 Y1.3411 
G01 X2.8530 Y1.3356 
G01 X2.8497 Y1.3306 
G01 X2.8454 Y1.3263 
G01 X2.8404 Y1.3230 
G01 X2.8349 Y1.3207 
G01 X2.8290 Y1.3195 
G01 X2.7710 Y1.3195 
G01 X2.7651 Y1.3207 
G01 X2.7596 Y1.3230 
G01 X2.7546 Y1.3263 
G01 X2.7503 Y1.3306 
G01 X2.7470 Y1.3356 
G01 X2.7447 Y1.3411 
G01 X2.7435 Y1.3470 
G01 X2.7435 Y1.3530 
G01 X2.7447 Y1.3589 
G01 X2.7470 Y1.3644 
G01 X2.7503 Y1.3694 
G01 X2.7546 Y1.3737 
G01 X2.7596 Y1.3770 
G01 X2.7651 Y1.3793 
G01 X2.7710 Y1.3805 
G00 Z0.1000 
G00 X2.7710 Y1.2805 
G01 Z-0.0070 F10.00 
G01 X2.8290 Y1.2805 F20.00 
G01 X2.8349 Y1.2793 
G01 X2.8404 Y1.2770 
G01 X2.8454 Y1.2737 
G01 X2.8497 Y1.2694 
G01 X2.8530 Y1.2644 
G01 X2.8553 Y1.2589 
G01 X2.8565 Y1.2530 
G01 X2.8565 Y1.2470 
G01 X2.8553 Y1.2411 
G01 X2.8530 Y1.2356 
G01 X2.8497 Y1.2306 
G01 X2.8454 Y1.2263 
G01 X2.8404 Y1.2230 
G01 X2.8349 Y1.2207 
G01 X2.8290 Y1.2195 
G01 X2.7710 Y1.2195 
G01 X2.7651 Y1.2207 
G01 X2.7596 Y1.2230 
G01 X2.7546 Y1.2263 
G01 X2.7503 Y1.2306 
G01 X2.7470 Y1.2356 
G01 X2.7447 Y1.2411 
G01 X2.7435 Y1.2470 
G01 X2.7435 Y1.2530 
G01 X2.7447 Y1.2589 
G01 X2.7470 Y1.2644 
G01 X2.7503 Y1.2694 
G01 X2.7546 Y1.2737 
G01 X2.7596 Y1.2770 
G01 X2.7651 Y1.2793 
G01 X2.7710 Y1.2805 
G00 Z0.1000 
G00 X2.7710 Y1.1805 
G01 Z-0.0070 F10.00 
G01 X2.8290 Y1.1805 F20.00 
G01 X2.8349 Y1.1793 
G01 X2.8404 Y1.1770 
G01 X2.8454 Y1.1737 
G01 X2.8497 Y1.1694 
G01 X2.8530 Y1.1644 
G01 X2.8553 Y1.1589 
G01 X2.8565 Y1.1530 
G01 X2.8565 Y1.1470 
G01 X2.8553 Y1.1411 
G01 X2.8530 Y1.1356 
G01 X2.8497 Y1.1306 
G01 X2.8454 Y1.1263 
G01 X2.8404 Y1.1230 
G01 X2.8349 Y1.1207 
G01 X2.8290 Y1.1195 
G01 X2.7710 Y1.1195 
G01 X2.7651 Y1.1207 
G01 X2.7596 Y1.1230 
G01 X2.7546 Y1.1263 
G01 X2.7503 Y1.1306 
G01 X2.7470 Y1.1356 
G01 X2.7447 Y1.1411 
G01 X2.7435 Y1.1470 
G01 X2.7435 Y1.1530 
G01 X2.7447 Y1.1589 
G01 X2.7470 Y1.1644 
G01 X2.7503 Y1.1694 
G01 X2.7546 Y1.1737 
G01 X2.7596 Y1.1770 
G01 X2.7651 Y1.1793 
G01 X2.7710 Y1.1805 
G00 Z0.1000 
G00 X2.7710 Y1.0805 
G01 Z-0.0070 F10.00 
G01 X2.8290 Y1.0805 F20.00 
G01 X2.8349 Y1.0793 
G01 X2.8404 Y1.0770 
G01 X2.8454 Y1.0737 
G01 X2.8497 Y1.0694 
G01 X2.8530 Y1.0644 
G01 X2.8553 Y1.0589 
G01 X2.8565 Y1.0530 
G01 X2.8565 Y1.0470 
G01 X2.8553 Y1.0411 
G01 X2.8530 Y1.0356 
G01 X2.8497 Y1.0306 
G01 X2.8454 Y1.0263 
G01 X2.8404 Y1.0230 
G01 X2.8349 Y1.0207 
G01 X2.8290 Y1.0195 
G01 X2.7710 Y1.0195 
G01 X2.7651 Y1.0207 
G01 X2.7596 Y1.0230 
G01 X2.7546 Y1.0263 
G01 X2.7503 Y1.0306 
G01 X2.7470 Y1.0356 
G01 X2.7447 Y1.0411 
G01 X2.7435 Y1.0470 
G01 X2.7435 Y1.0530 
G01 X2.7447 Y1.0589 
G01 X2.7470 Y1.0644 
G01 X2.7503 Y1.0694 
G01 X2.7546 Y1.0737 
G01 X2.7596 Y1.0770 
G01 X2.7651 Y1.0793 
G01 X2.7710 Y1.0805 
G00 Z0.1000 
G00 X3.0546 Y1.0737 
G01 Z-0.0070 F10.00 
G01 X3.0596 Y1.0770 F20.00 
G01 X3.0651 Y1.0793 
G01 X3.0710 Y1.0805 
G01 X3.1290 Y1.0805 
G01 X3.1349 Y1.0793 
G01 X3.1404 Y1.0770 
G01 X3.1454 Y1.0737 
G01 X3.1497 Y1.0694 
G01 X3.1530 Y1.0644 
G01 X3.1553 Y1.0589 
G01 X3.1565 Y1.0530 
G01 X3.1565 Y1.0470 
G01 X3.1553 Y1.0411 
G01 X3.1530 Y1.0356 
G01 X3.1497 Y1.0306 
G01 X3.1454 Y1.0263 
G01 X3.1404 Y1.0230 
G01 X3.1349 Y1.0207 
G01 X3.1290 Y1.0195 
G01 X3.0710 Y1.0195 
G01 X3.0651 Y1.0207 
G01 X3.0596 Y1.0230 
G01 X3.0546 Y1.0263 
G01 X3.0503 Y1.0306 
G01 X3.0470 Y1.0356 
G01 X3.0447 Y1.0411 
G01 X3.0435 Y1.0470 
G01 X3.0435 Y1.0530 
G01 X3.0447 Y1.0589 
G01 X3.0470 Y1.0644 
G01 X3.0503 Y1.0694 
G01 X3.0546 Y1.0737 
G00 Z0.1000 
G00 X2.4875 Y1.0655 
G01 Z-0.0070 F10.00 
G01 X2.4875 Y1.0345 F20.00 
G01 X2.4655 Y1.0125 
G01 X2.4345 Y1.0125 
G01 X2.4125 Y1.0345 
G01 X2.4125 Y1.0655 
G01 X2.4345 Y1.0875 
G01 X2.4655 Y1.0875 
G01 X2.4875 Y1.0655 
G00 Z0.1000 
G00 X2.1777 Y1.0676 
G01 Z-0.0070 F10.00 
G01 X2.1723 Y1.0637 F20.00 
G01 X2.1663 Y1.0606 
G01 X2.1600 Y1.0585 
G01 X2.1533 Y1.0575 
G01 X2.1467 Y1.0575 
G01 X2.1400 Y1.0585 
G01 X2.1337 Y1.0606 
G01 X2.1277 Y1.0637 
G01 X2.1223 Y1.0676 
G01 X2.1176 Y1.0723 
G01 X2.1137 Y1.0777 
G01 X2.1106 Y1.0837 
G01 X2.1085 Y1.0900 
G01 X2.1075 Y1.0967 
G01 X2.1075 Y1.1033 
G01 X2.1085 Y1.1100 
G01 X2.1106 Y1.1163 
G01 X2.1137 Y1.1223 
G01 X2.1176 Y1.1277 
G01 X2.1223 Y1.1324 
G01 X2.1277 Y1.1363 
G01 X2.1337 Y1.1394 
G01 X2.1400 Y1.1415 
G01 X2.1467 Y1.1425 
G01 X2.1533 Y1.1425 
G01 X2.1600 Y1.1415 
G01 X2.1663 Y1.1394 
G01 X2.1723 Y1.1363 
G01 X2.1777 Y1.1324 
G01 X2.1824 Y1.1277 
G01 X2.1863 Y1.1223 
G01 X2.1894 Y1.1163 
G01 X2.1915 Y1.1100 
G01 X2.1925 Y1.1033 
G01 X2.1925 Y1.0967 
G01 X2.1915 Y1.0900 
G01 X2.1894 Y1.0837 
G01 X2.1863 Y1.0777 
G01 X2.1824 Y1.0723 
G01 X2.1777 Y1.0676 
G00 Z0.1000 
G00 X2.1777 Y1.0324 
G01 Z-0.0070 F10.00 
G01 X2.1824 Y1.0277 F20.00 
G01 X2.1863 Y1.0223 
G01 X2.1894 Y1.0163 
G01 X2.1915 Y1.0100 
G01 X2.1925 Y1.0033 
G01 X2.1925 Y0.9967 
G01 X2.1915 Y0.9900 
G01 X2.1894 Y0.9837 
G01 X2.1863 Y0.9777 
G01 X2.1824 Y0.9723 
G01 X2.1777 Y0.9676 
G01 X2.1723 Y0.9637 
G01 X2.1663 Y0.9606 
G01 X2.1600 Y0.9585 
G01 X2.1533 Y0.9575 
G01 X2.1467 Y0.9575 
G01 X2.1400 Y0.9585 
G01 X2.1337 Y0.9606 
G01 X2.1277 Y0.9637 
G01 X2.1223 Y0.9676 
G01 X2.1176 Y0.9723 
G01 X2.1137 Y0.9777 
G01 X2.1106 Y0.9837 
G01 X2.1085 Y0.9900 
G01 X2.1075 Y0.9967 
G01 X2.1075 Y1.0033 
G01 X2.1085 Y1.0100 
G01 X2.1106 Y1.0163 
G01 X2.1137 Y1.0223 
G01 X2.1176 Y1.0277 
G01 X2.1223 Y1.0324 
G01 X2.1277 Y1.0363 
G01 X2.1337 Y1.0394 
G01 X2.1400 Y1.0415 
G01 X2.1467 Y1.0425 
G01 X2.1533 Y1.0425 
G01 X2.1600 Y1.0415 
G01 X2.1663 Y1.0394 
G01 X2.1723 Y1.0363 
G01 X2.1777 Y1.0324 
G00 Z0.1000 
G00 X2.1777 Y1.1676 
G01 Z-0.0070 F10.00 
G01 X2.1723 Y1.1637 F20.00 
G01 X2.1663 Y1.1606 
G01 X2.1600 Y1.1585 
G01 X2.1533 Y1.1575 
G01 X2.1467 Y1.1575 
G01 X2.1400 Y1.1585 
G01 X2.1337 Y1.1606 
G01 X2.1277 Y1.1637 
G01 X2.1223 Y1.1676 
G01 X2.1176 Y1.1723 
G01 X2.1137 Y1.1777 
G01 X2.1106 Y1.1837 
G01 X2.1085 Y1.1900 
G01 X2.1075 Y1.1967 
G01 X2.1075 Y1.2033 
G01 X2.1085 Y1.2100 
G01 X2.1106 Y1.2163 
G01 X2.1137 Y1.2223 
G01 X2.1176 Y1.2277 
G01 X2.1223 Y1.2324 
G01 X2.1277 Y1.2363 
G01 X2.1337 Y1.2394 
G01 X2.1400 Y1.2415 
G01 X2.1467 Y1.2425 
G01 X2.1533 Y1.2425 
G01 X2.1600 Y1.2415 
G01 X2.1663 Y1.2394 
G01 X2.1723 Y1.2363 
G01 X2.1777 Y1.2324 
G01 X2.1824 Y1.2277 
G01 X2.1863 Y1.2223 
G01 X2.1894 Y1.2163 
G01 X2.1915 Y1.2100 
G01 X2.1925 Y1.2033 
G01 X2.1925 Y1.1967 
G01 X2.1915 Y1.1900 
G01 X2.1894 Y1.1837 
G01 X2.1863 Y1.1777 
G01 X2.1824 Y1.1723 
G01 X2.1777 Y1.1676 
G00 Z0.1000 
G00 X2.1777 Y1.2676 
G01 Z-0.0070 F10.00 
G01 X2.1723 Y1.2637 F20.00 
G01 X2.1663 Y1.2606 
G01 X2.1600 Y1.2585 
G01 X2.1533 Y1.2575 
G01 X2.1467 Y1.2575 
G01 X2.1400 Y1.2585 
G01 X2.1337 Y1.2606 
G01 X2.1277 Y1.2637 
G01 X2.1223 Y1.2676 
G01 X2.1176 Y1.2723 
G01 X2.1137 Y1.2777 
G01 X2.1106 Y1.2837 
G01 X2.1085 Y1.2900 
G01 X2.1075 Y1.2967 
G01 X2.1075 Y1.3033 
G01 X2.1085 Y1.3100 
G01 X2.1106 Y1.3163 
G01 X2.1137 Y1.3223 
G01 X2.1176 Y1.3277 
G01 X2.1223 Y1.3324 
G01 X2.1277 Y1.3363 
G01 X2.1337 Y1.3394 
G01 X2.1400 Y1.3415 
G01 X2.1467 Y1.3425 
G01 X2.1533 Y1.3425 
G01 X2.1600 Y1.3415 
G01 X2.1663 Y1.3394 
G01 X2.1723 Y1.3363 
G01 X2.1777 Y1.3324 
G01 X2.1824 Y1.3277 
G01 X2.1863 Y1.3223 
G01 X2.1894 Y1.3163 
G01 X2.1915 Y1.3100 
G01 X2.1925 Y1.3033 
G01 X2.1925 Y1.2967 
G01 X2.1915 Y1.2900 
G01 X2.1894 Y1.2837 
G01 X2.1863 Y1.2777 
G01 X2.1824 Y1.2723 
G01 X2.1777 Y1.2676 
G00 Z0.1000 
G00 X2.1777 Y1.3676 
G01 Z-0.0070 F10.00 
G01 X2.1723 Y1.3637 F20.00 
G01 X2.1663 Y1.3606 
G01 X2.1600 Y1.3585 
G01 X2.1533 Y1.3575 
G01 X2.1467 Y1.3575 
G01 X2.1400 Y1.3585 
G01 X2.1337 Y1.3606 
G01 X2.1277 Y1.3637 
G01 X2.1223 Y1.3676 
G01 X2.1176 Y1.3723 
G01 X2.1137 Y1.3777 
G01 X2.1106 Y1.3837 
G01 X2.1085 Y1.3900 
G01 X2.1075 Y1.3967 
G01 X2.1075 Y1.4033 
G01 X2.1085 Y1.4100 
G01 X2.1106 Y1.4163 
G01 X2.1137 Y1.4223 
G01 X2.1176 Y1.4277 
G01 X2.1223 Y1.4324 
G01 X2.1277 Y1.4363 
G01 X2.1337 Y1.4394 
G01 X2.1400 Y1.4415 
G01 X2.1467 Y1.4425 
G01 X2.1533 Y1.4425 
G01 X2.1600 Y1.4415 
G01 X2.1663 Y1.4394 
G01 X2.1723 Y1.4363 
G01 X2.1777 Y1.4324 
G01 X2.1824 Y1.4277 
G01 X2.1863 Y1.4223 
G01 X2.1894 Y1.4163 
G01 X2.1915 Y1.4100 
G01 X2.1925 Y1.4033 
G01 X2.1925 Y1.3967 
G01 X2.1915 Y1.3900 
G01 X2.1894 Y1.3837 
G01 X2.1863 Y1.3777 
G01 X2.1824 Y1.3723 
G01 X2.1777 Y1.3676 
G00 Z0.1000 
G00 X2.1777 Y1.4676 
G01 Z-0.0070 F10.00 
G01 X2.1723 Y1.4637 F20.00 
G01 X2.1663 Y1.4606 
G01 X2.1600 Y1.4585 
G01 X2.1533 Y1.4575 
G01 X2.1467 Y1.4575 
G01 X2.1400 Y1.4585 
G01 X2.1337 Y1.4606 
G01 X2.1277 Y1.4637 
G01 X2.1223 Y1.4676 
G01 X2.1176 Y1.4723 
G01 X2.1137 Y1.4777 
G01 X2.1106 Y1.4837 
G01 X2.1085 Y1.4900 
G01 X2.1075 Y1.4967 
G01 X2.1075 Y1.5033 
G01 X2.1085 Y1.5100 
G01 X2.1106 Y1.5163 
G01 X2.1137 Y1.5223 
G01 X2.1176 Y1.5277 
G01 X2.1223 Y1.5324 
G01 X2.1277 Y1.5363 
G01 X2.1337 Y1.5394 
G01 X2.1400 Y1.5415 
G01 X2.1467 Y1.5425 
G01 X2.1533 Y1.5425 
G01 X2.1600 Y1.5415 
G01 X2.1663 Y1.5394 
G01 X2.1723 Y1.5363 
G01 X2.1777 Y1.5324 
G01 X2.1824 Y1.5277 
G01 X2.1863 Y1.5223 
G01 X2.1894 Y1.5163 
G01 X2.1915 Y1.5100 
G01 X2.1925 Y1.5033 
G01 X2.1925 Y1.4967 
G01 X2.1915 Y1.4900 
G01 X2.1894 Y1.4837 
G01 X2.1863 Y1.4777 
G01 X2.1824 Y1.4723 
G01 X2.1777 Y1.4676 
G00 Z0.1000 
G00 X2.1777 Y1.5676 
G01 Z-0.0070 F10.00 
G01 X2.1723 Y1.5637 F20.00 
G01 X2.1663 Y1.5606 
G01 X2.1600 Y1.5585 
G01 X2.1533 Y1.5575 
G01 X2.1467 Y1.5575 
G01 X2.1400 Y1.5585 
G01 X2.1337 Y1.5606 
G01 X2.1277 Y1.5637 
G01 X2.1223 Y1.5676 
G01 X2.1176 Y1.5723 
G01 X2.1137 Y1.5777 
G01 X2.1106 Y1.5837 
G01 X2.1085 Y1.5900 
G01 X2.1075 Y1.5967 
G01 X2.1075 Y1.6033 
G01 X2.1085 Y1.6100 
G01 X2.1106 Y1.6163 
G01 X2.1137 Y1.6223 
G01 X2.1176 Y1.6277 
G01 X2.1223 Y1.6324 
G01 X2.1277 Y1.6363 
G01 X2.1337 Y1.6394 
G01 X2.1400 Y1.6415 
G01 X2.1467 Y1.6425 
G01 X2.1533 Y1.6425 
G01 X2.1600 Y1.6415 
G01 X2.1663 Y1.6394 
G01 X2.1723 Y1.6363 
G01 X2.1777 Y1.6324 
G01 X2.1824 Y1.6277 
G01 X2.1863 Y1.6223 
G01 X2.1894 Y1.6163 
G01 X2.1915 Y1.6100 
G01 X2.1925 Y1.6033 
G01 X2.1925 Y1.5967 
G01 X2.1915 Y1.5900 
G01 X2.1894 Y1.5837 
G01 X2.1863 Y1.5777 
G01 X2.1824 Y1.5723 
G01 X2.1777 Y1.5676 
G00 Z0.1000 
G00 X2.1777 Y1.6676 
G01 Z-0.0070 F10.00 
G01 X2.1723 Y1.6637 F20.00 
G01 X2.1663 Y1.6606 
G01 X2.1600 Y1.6585 
G01 X2.1533 Y1.6575 
G01 X2.1467 Y1.6575 
G01 X2.1400 Y1.6585 
G01 X2.1337 Y1.6606 
G01 X2.1277 Y1.6637 
G01 X2.1223 Y1.6676 
G01 X2.1176 Y1.6723 
G01 X2.1137 Y1.6777 
G01 X2.1106 Y1.6837 
G01 X2.1085 Y1.6900 
G01 X2.1075 Y1.6967 
G01 X2.1075 Y1.7033 
G01 X2.1085 Y1.7100 
G01 X2.1106 Y1.7163 
G01 X2.1137 Y1.7223 
G01 X2.1176 Y1.7277 
G01 X2.1223 Y1.7324 
G01 X2.1277 Y1.7363 
G01 X2.1337 Y1.7394 
G01 X2.1400 Y1.7415 
G01 X2.1467 Y1.7425 
G01 X2.1533 Y1.7425 
G01 X2.1600 Y1.7415 
G01 X2.1663 Y1.7394 
G01 X2.1723 Y1.7363 
G01 X2.1777 Y1.7324 
G01 X2.1824 Y1.7277 
G01 X2.1863 Y1.7223 
G01 X2.1894 Y1.7163 
G01 X2.1915 Y1.7100 
G01 X2.1925 Y1.7033 
G01 X2.1925 Y1.6967 
G01 X2.1915 Y1.6900 
G01 X2.1894 Y1.6837 
G01 X2.1863 Y1.6777 
G01 X2.1824 Y1.6723 
G01 X2.1777 Y1.6676 
G00 Z0.1000 
G00 X2.1777 Y1.7676 
G01 Z-0.0070 F10.00 
G01 X2.1723 Y1.7637 F20.00 
G01 X2.1663 Y1.7606 
G01 X2.1600 Y1.7585 
G01 X2.1533 Y1.7575 
G01 X2.1467 Y1.7575 
G01 X2.1400 Y1.7585 
G01 X2.1337 Y1.7606 
G01 X2.1277 Y1.7637 
G01 X2.1223 Y1.7676 
G01 X2.1176 Y1.7723 
G01 X2.1137 Y1.7777 
G01 X2.1106 Y1.7837 
G01 X2.1085 Y1.7900 
G01 X2.1075 Y1.7967 
G01 X2.1075 Y1.8033 
G01 X2.1085 Y1.8100 
G01 X2.1106 Y1.8163 
G01 X2.1137 Y1.8223 
G01 X2.1176 Y1.8277 
G01 X2.1223 Y1.8324 
G01 X2.1277 Y1.8363 
G01 X2.1337 Y1.8394 
G01 X2.1400 Y1.8415 
G01 X2.1467 Y1.8425 
G01 X2.1533 Y1.8425 
G01 X2.1600 Y1.8415 
G01 X2.1663 Y1.8394 
G01 X2.1723 Y1.8363 
G01 X2.1777 Y1.8324 
G01 X2.1824 Y1.8277 
G01 X2.1863 Y1.8223 
G01 X2.1894 Y1.8163 
G01 X2.1915 Y1.8100 
G01 X2.1925 Y1.8033 
G01 X2.1925 Y1.7967 
G01 X2.1915 Y1.7900 
G01 X2.1894 Y1.7837 
G01 X2.1863 Y1.7777 
G01 X2.1824 Y1.7723 
G01 X2.1777 Y1.7676 
G00 Z0.1000 
G00 X2.1777 Y1.8676 
G01 Z-0.0070 F10.00 
G01 X2.1723 Y1.8637 F20.00 
G01 X2.1663 Y1.8606 
G01 X2.1600 Y1.8585 
G01 X2.1533 Y1.8575 
G01 X2.1467 Y1.8575 
G01 X2.1400 Y1.8585 
G01 X2.1337 Y1.8606 
G01 X2.1277 Y1.8637 
G01 X2.1223 Y1.8676 
G01 X2.1176 Y1.8723 
G01 X2.1137 Y1.8777 
G01 X2.1106 Y1.8837 
G01 X2.1085 Y1.8900 
G01 X2.1075 Y1.8967 
G01 X2.1075 Y1.9033 
G01 X2.1085 Y1.9100 
G01 X2.1106 Y1.9163 
G01 X2.1137 Y1.9223 
G01 X2.1176 Y1.9277 
G01 X2.1223 Y1.9324 
G01 X2.1277 Y1.9363 
G01 X2.1337 Y1.9394 
G01 X2.1400 Y1.9415 
G01 X2.1467 Y1.9425 
G01 X2.1533 Y1.9425 
G01 X2.1600 Y1.9415 
G01 X2.1663 Y1.9394 
G01 X2.1723 Y1.9363 
G01 X2.1777 Y1.9324 
G01 X2.1824 Y1.9277 
G01 X2.1863 Y1.9223 
G01 X2.1894 Y1.9163 
G01 X2.1915 Y1.9100 
G01 X2.1925 Y1.9033 
G01 X2.1925 Y1.8967 
G01 X2.1915 Y1.8900 
G01 X2.1894 Y1.8837 
G01 X2.1863 Y1.8777 
G01 X2.1824 Y1.8723 
G01 X2.1777 Y1.8676 
G00 Z0.1000 
G00 X2.1777 Y1.9676 
G01 Z-0.0070 F10.00 
G01 X2.1723 Y1.9637 F20.00 
G01 X2.1663 Y1.9606 
G01 X2.1600 Y1.9585 
G01 X2.1533 Y1.9575 
G01 X2.1467 Y1.9575 
G01 X2.1400 Y1.9585 
G01 X2.1337 Y1.9606 
G01 X2.1277 Y1.9637 
G01 X2.1223 Y1.9676 
G01 X2.1176 Y1.9723 
G01 X2.1137 Y1.9777 
G01 X2.1106 Y1.9837 
G01 X2.1085 Y1.9900 
G01 X2.1075 Y1.9967 
G01 X2.1075 Y2.0033 
G01 X2.1085 Y2.0100 
G01 X2.1106 Y2.0163 
G01 X2.1137 Y2.0223 
G01 X2.1176 Y2.0277 
G01 X2.1223 Y2.0324 
G01 X2.1277 Y2.0363 
G01 X2.1337 Y2.0394 
G01 X2.1400 Y2.0415 
G01 X2.1467 Y2.0425 
G01 X2.1533 Y2.0425 
G01 X2.1600 Y2.0415 
G01 X2.1663 Y2.0394 
G01 X2.1723 Y2.0363 
G01 X2.1777 Y2.0324 
G01 X2.1824 Y2.0277 
G01 X2.1863 Y2.0223 
G01 X2.1894 Y2.0163 
G01 X2.1915 Y2.0100 
G01 X2.1925 Y2.0033 
G01 X2.1925 Y1.9967 
G01 X2.1915 Y1.9900 
G01 X2.1894 Y1.9837 
G01 X2.1863 Y1.9777 
G01 X2.1824 Y1.9723 
G01 X2.1777 Y1.9676 
G00 Z0.1000 
G00 X2.1777 Y2.0676 
G01 Z-0.0070 F10.00 
G01 X2.1723 Y2.0637 F20.00 
G01 X2.1663 Y2.0606 
G01 X2.1600 Y2.0585 
G01 X2.1533 Y2.0575 
G01 X2.1467 Y2.0575 
G01 X2.1400 Y2.0585 
G01 X2.1337 Y2.0606 
G01 X2.1277 Y2.0637 
G01 X2.1223 Y2.0676 
G01 X2.1176 Y2.0723 
G01 X2.1137 Y2.0777 
G01 X2.1106 Y2.0837 
G01 X2.1085 Y2.0900 
G01 X2.1075 Y2.0967 
G01 X2.1075 Y2.1033 
G01 X2.1085 Y2.1100 
G01 X2.1106 Y2.1163 
G01 X2.1137 Y2.1223 
G01 X2.1176 Y2.1277 
G01 X2.1223 Y2.1324 
G01 X2.1277 Y2.1363 
G01 X2.1337 Y2.1394 
G01 X2.1400 Y2.1415 
G01 X2.1467 Y2.1425 
G01 X2.1533 Y2.1425 
G01 X2.1600 Y2.1415 
G01 X2.1663 Y2.1394 
G01 X2.1723 Y2.1363 
G01 X2.1777 Y2.1324 
G01 X2.1824 Y2.1277 
G01 X2.1863 Y2.1223 
G01 X2.1894 Y2.1163 
G01 X2.1915 Y2.1100 
G01 X2.1925 Y2.1033 
G01 X2.1925 Y2.0967 
G01 X2.1915 Y2.0900 
G01 X2.1894 Y2.0837 
G01 X2.1863 Y2.0777 
G01 X2.1824 Y2.0723 
G01 X2.1777 Y2.0676 
G00 Z0.1000 
G00 X2.1777 Y2.1676 
G01 Z-0.0070 F10.00 
G01 X2.1723 Y2.1637 F20.00 
G01 X2.1663 Y2.1606 
G01 X2.1600 Y2.1585 
G01 X2.1533 Y2.1575 
G01 X2.1467 Y2.1575 
G01 X2.1400 Y2.1585 
G01 X2.1337 Y2.1606 
G01 X2.1277 Y2.1637 
G01 X2.1223 Y2.1676 
G01 X2.1176 Y2.1723 
G01 X2.1137 Y2.1777 
G01 X2.1106 Y2.1837 
G01 X2.1085 Y2.1900 
G01 X2.1075 Y2.1967 
G01 X2.1075 Y2.2033 
G01 X2.1085 Y2.2100 
G01 X2.1106 Y2.2163 
G01 X2.1137 Y2.2223 
G01 X2.1176 Y2.2277 
G01 X2.1223 Y2.2324 
G01 X2.1277 Y2.2363 
G01 X2.1337 Y2.2394 
G01 X2.1400 Y2.2415 
G01 X2.1467 Y2.2425 
G01 X2.1533 Y2.2425 
G01 X2.1600 Y2.2415 
G01 X2.1663 Y2.2394 
G01 X2.1723 Y2.2363 
G01 X2.1777 Y2.2324 
G01 X2.1824 Y2.2277 
G01 X2.1863 Y2.2223 
G01 X2.1894 Y2.2163 
G01 X2.1915 Y2.2100 
G01 X2.1925 Y2.2033 
G01 X2.1925 Y2.1967 
G01 X2.1915 Y2.1900 
G01 X2.1894 Y2.1837 
G01 X2.1863 Y2.1777 
G01 X2.1824 Y2.1723 
G01 X2.1777 Y2.1676 
G00 Z0.1000 
G00 X2.1777 Y2.2676 
G01 Z-0.0070 F10.00 
G01 X2.1723 Y2.2637 F20.00 
G01 X2.1663 Y2.2606 
G01 X2.1600 Y2.2585 
G01 X2.1533 Y2.2575 
G01 X2.1467 Y2.2575 
G01 X2.1400 Y2.2585 
G01 X2.1337 Y2.2606 
G01 X2.1277 Y2.2637 
G01 X2.1223 Y2.2676 
G01 X2.1176 Y2.2723 
G01 X2.1137 Y2.2777 
G01 X2.1106 Y2.2837 
G01 X2.1085 Y2.2900 
G01 X2.1075 Y2.2967 
G01 X2.1075 Y2.3033 
G01 X2.1085 Y2.3100 
G01 X2.1106 Y2.3163 
G01 X2.1137 Y2.3223 
G01 X2.1176 Y2.3277 
G01 X2.1223 Y2.3324 
G01 X2.1277 Y2.3363 
G01 X2.1337 Y2.3394 
G01 X2.1400 Y2.3415 
G01 X2.1467 Y2.3425 
G01 X2.1533 Y2.3425 
G01 X2.1600 Y2.3415 
G01 X2.1663 Y2.3394 
G01 X2.1723 Y2.3363 
G01 X2.1777 Y2.3324 
G01 X2.1824 Y2.3277 
G01 X2.1863 Y2.3223 
G01 X2.1894 Y2.3163 
G01 X2.1915 Y2.3100 
G01 X2.1925 Y2.3033 
G01 X2.1925 Y2.2967 
G01 X2.1915 Y2.2900 
G01 X2.1894 Y2.2837 
G01 X2.1863 Y2.2777 
G01 X2.1824 Y2.2723 
G01 X2.1777 Y2.2676 
G00 Z0.1000 
G00 X2.1777 Y2.3676 
G01 Z-0.0070 F10.00 
G01 X2.1723 Y2.3637 F20.00 
G01 X2.1663 Y2.3606 
G01 X2.1600 Y2.3585 
G01 X2.1533 Y2.3575 
G01 X2.1467 Y2.3575 
G01 X2.1400 Y2.3585 
G01 X2.1337 Y2.3606 
G01 X2.1277 Y2.3637 
G01 X2.1223 Y2.3676 
G01 X2.1176 Y2.3723 
G01 X2.1137 Y2.3777 
G01 X2.1106 Y2.3837 
G01 X2.1085 Y2.3900 
G01 X2.1075 Y2.3967 
G01 X2.1075 Y2.4033 
G01 X2.1085 Y2.4100 
G01 X2.1106 Y2.4163 
G01 X2.1137 Y2.4223 
G01 X2.1176 Y2.4277 
G01 X2.1223 Y2.4324 
G01 X2.1277 Y2.4363 
G01 X2.1337 Y2.4394 
G01 X2.1400 Y2.4415 
G01 X2.1467 Y2.4425 
G01 X2.1533 Y2.4425 
G01 X2.1600 Y2.4415 
G01 X2.1663 Y2.4394 
G01 X2.1723 Y2.4363 
G01 X2.1777 Y2.4324 
G01 X2.1824 Y2.4277 
G01 X2.1863 Y2.4223 
G01 X2.1894 Y2.4163 
G01 X2.1915 Y2.4100 
G01 X2.1925 Y2.4033 
G01 X2.1925 Y2.3967 
G01 X2.1915 Y2.3900 
G01 X2.1894 Y2.3837 
G01 X2.1863 Y2.3777 
G01 X2.1824 Y2.3723 
G01 X2.1777 Y2.3676 
G00 Z0.1000 
G00 X2.1777 Y2.4676 
G01 Z-0.0070 F10.00 
G01 X2.1723 Y2.4637 F20.00 
G01 X2.1663 Y2.4606 
G01 X2.1600 Y2.4585 
G01 X2.1533 Y2.4575 
G01 X2.1467 Y2.4575 
G01 X2.1400 Y2.4585 
G01 X2.1337 Y2.4606 
G01 X2.1277 Y2.4637 
G01 X2.1223 Y2.4676 
G01 X2.1176 Y2.4723 
G01 X2.1137 Y2.4777 
G01 X2.1106 Y2.4837 
G01 X2.1085 Y2.4900 
G01 X2.1075 Y2.4967 
G01 X2.1075 Y2.5033 
G01 X2.1085 Y2.5100 
G01 X2.1106 Y2.5163 
G01 X2.1137 Y2.5223 
G01 X2.1176 Y2.5277 
G01 X2.1223 Y2.5324 
G01 X2.1277 Y2.5363 
G01 X2.1337 Y2.5394 
G01 X2.1400 Y2.5415 
G01 X2.1467 Y2.5425 
G01 X2.1533 Y2.5425 
G01 X2.1600 Y2.5415 
G01 X2.1663 Y2.5394 
G01 X2.1723 Y2.5363 
G01 X2.1777 Y2.5324 
G01 X2.1824 Y2.5277 
G01 X2.1863 Y2.5223 
G01 X2.1894 Y2.5163 
G01 X2.1915 Y2.5100 
G01 X2.1925 Y2.5033 
G01 X2.1925 Y2.4967 
G01 X2.1915 Y2.4900 
G01 X2.1894 Y2.4837 
G01 X2.1863 Y2.4777 
G01 X2.1824 Y2.4723 
G01 X2.1777 Y2.4676 
G00 Z0.1000 
G00 X2.1777 Y2.5676 
G01 Z-0.0070 F10.00 
G01 X2.1723 Y2.5637 F20.00 
G01 X2.1663 Y2.5606 
G01 X2.1600 Y2.5585 
G01 X2.1533 Y2.5575 
G01 X2.1467 Y2.5575 
G01 X2.1400 Y2.5585 
G01 X2.1337 Y2.5606 
G01 X2.1277 Y2.5637 
G01 X2.1223 Y2.5676 
G01 X2.1176 Y2.5723 
G01 X2.1137 Y2.5777 
G01 X2.1106 Y2.5837 
G01 X2.1085 Y2.5900 
G01 X2.1075 Y2.5967 
G01 X2.1075 Y2.6033 
G01 X2.1085 Y2.6100 
G01 X2.1106 Y2.6163 
G01 X2.1137 Y2.6223 
G01 X2.1176 Y2.6277 
G01 X2.1223 Y2.6324 
G01 X2.1277 Y2.6363 
G01 X2.1337 Y2.6394 
G01 X2.1400 Y2.6415 
G01 X2.1467 Y2.6425 
G01 X2.1533 Y2.6425 
G01 X2.1600 Y2.6415 
G01 X2.1663 Y2.6394 
G01 X2.1723 Y2.6363 
G01 X2.1777 Y2.6324 
G01 X2.1824 Y2.6277 
G01 X2.1863 Y2.6223 
G01 X2.1894 Y2.6163 
G01 X2.1915 Y2.6100 
G01 X2.1925 Y2.6033 
G01 X2.1925 Y2.5967 
G01 X2.1915 Y2.5900 
G01 X2.1894 Y2.5837 
G01 X2.1863 Y2.5777 
G01 X2.1824 Y2.5723 
G01 X2.1777 Y2.5676 
G00 Z0.1000 
G00 X2.3195 Y2.6874 
G01 Z-0.0070 F10.00 
G01 X2.3195 Y2.7126 F20.00 
G01 X2.3374 Y2.7305 
G01 X2.3626 Y2.7305 
G01 X2.3805 Y2.7126 
G01 X2.3805 Y2.6874 
G01 X2.3626 Y2.6695 
G01 X2.3374 Y2.6695 
G01 X2.3195 Y2.6874 
G00 Z0.1000 
G00 X2.5374 Y2.5305 
G01 Z-0.0070 F10.00 
G01 X2.5626 Y2.5305 F20.00 
G01 X2.5805 Y2.5126 
G01 X2.5805 Y2.4874 
G01 X2.5626 Y2.4695 
G01 X2.5374 Y2.4695 
G01 X2.5195 Y2.4874 
G01 X2.5195 Y2.5126 
G01 X2.5374 Y2.5305 
G00 Z0.1000 
G00 X2.3805 Y2.3126 
G01 Z-0.0070 F10.00 
G01 X2.3805 Y2.2874 F20.00 
G01 X2.3626 Y2.2695 
G01 X2.3374 Y2.2695 
G01 X2.3195 Y2.2874 
G01 X2.3195 Y2.3126 
G01 X2.3374 Y2.3305 
G01 X2.3626 Y2.3305 
G01 X2.3805 Y2.3126 
G00 Z0.1000 
G00 X2.3829 Y2.1295 
G01 Z-0.0070 F10.00 
G01 X2.4295 Y2.0829 F20.00 
G01 X2.4295 Y2.0171 
G01 X2.3829 Y1.9705 
G01 X2.3171 Y1.9705 
G01 X2.2705 Y2.0171 
G01 X2.2705 Y2.0829 
G01 X2.3171 Y2.1295 
G01 X2.3829 Y2.1295 
G00 Z0.1000 
G00 X2.7263 Y2.2046 
G01 Z-0.0070 F10.00 
G01 X2.7230 Y2.2096 F20.00 
G01 X2.7207 Y2.2151 
G01 X2.7195 Y2.2210 
G01 X2.7195 Y2.2790 
G01 X2.7207 Y2.2849 
G01 X2.7230 Y2.2904 
G01 X2.7263 Y2.2954 
G01 X2.7306 Y2.2997 
G01 X2.7356 Y2.3030 
G01 X2.7411 Y2.3053 
G01 X2.7470 Y2.3065 
G01 X2.7530 Y2.3065 
G01 X2.7589 Y2.3053 
G01 X2.7644 Y2.3030 
G01 X2.7694 Y2.2997 
G01 X2.7737 Y2.2954 
G01 X2.7770 Y2.2904 
G01 X2.7793 Y2.2849 
G01 X2.7805 Y2.2790 
G01 X2.7805 Y2.2210 
G01 X2.7793 Y2.2151 
G01 X2.7770 Y2.2096 
G01 X2.7737 Y2.2046 
G01 X2.7694 Y2.2003 
G01 X2.7644 Y2.1970 
G01 X2.7589 Y2.1947 
G01 X2.7530 Y2.1935 
G01 X2.7470 Y2.1935 
G01 X2.7411 Y2.1947 
G01 X2.7356 Y2.1970 
G01 X2.7306 Y2.2003 
G01 X2.7263 Y2.2046 
G00 Z0.1000 
G00 X2.8263 Y2.2046 
G01 Z-0.0070 F10.00 
G01 X2.8230 Y2.2096 F20.00 
G01 X2.8207 Y2.2151 
G01 X2.8195 Y2.2210 
G01 X2.8195 Y2.2790 
G01 X2.8207 Y2.2849 
G01 X2.8230 Y2.2904 
G01 X2.8263 Y2.2954 
G01 X2.8306 Y2.2997 
G01 X2.8356 Y2.3030 
G01 X2.8411 Y2.3053 
G01 X2.8470 Y2.3065 
G01 X2.8530 Y2.3065 
G01 X2.8589 Y2.3053 
G01 X2.8644 Y2.3030 
G01 X2.8694 Y2.2997 
G01 X2.8737 Y2.2954 
G01 X2.8770 Y2.2904 
G01 X2.8793 Y2.2849 
G01 X2.8805 Y2.2790 
G01 X2.8805 Y2.2210 
G01 X2.8793 Y2.2151 
G01 X2.8770 Y2.2096 
G01 X2.8737 Y2.2046 
G01 X2.8694 Y2.2003 
G01 X2.8644 Y2.1970 
G01 X2.8589 Y2.1947 
G01 X2.8530 Y2.1935 
G01 X2.8470 Y2.1935 
G01 X2.8411 Y2.1947 
G01 X2.8356 Y2.1970 
G01 X2.8306 Y2.2003 
G01 X2.8263 Y2.2046 
G00 Z0.1000 
G00 X2.9263 Y2.2046 
G01 Z-0.0070 F10.00 
G01 X2.9230 Y2.2096 F20.00 
G01 X2.9207 Y2.2151 
G01 X2.9195 Y2.2210 
G01 X2.9195 Y2.2790 
G01 X2.9207 Y2.2849 
G01 X2.9230 Y2.2904 
G01 X2.9263 Y2.2954 
G01 X2.9306 Y2.2997 
G01 X2.9356 Y2.3030 
G01 X2.9411 Y2.3053 
G01 X2.9470 Y2.3065 
G01 X2.9530 Y2.3065 
G01 X2.9589 Y2.3053 
G01 X2.9644 Y2.3030 
G01 X2.9694 Y2.2997 
G01 X2.9737 Y2.2954 
G01 X2.9770 Y2.2904 
G01 X2.9793 Y2.2849 
G01 X2.9805 Y2.2790 
G01 X2.9805 Y2.2210 
G01 X2.9793 Y2.2151 
G01 X2.9770 Y2.2096 
G01 X2.9737 Y2.2046 
G01 X2.9694 Y2.2003 
G01 X2.9644 Y2.1970 
G01 X2.9589 Y2.1947 
G01 X2.9530 Y2.1935 
G01 X2.9470 Y2.1935 
G01 X2.9411 Y2.1947 
G01 X2.9356 Y2.1970 
G01 X2.9306 Y2.2003 
G01 X2.9263 Y2.2046 
G00 Z0.1000 
G00 X2.9374 Y2.4695 
G01 Z-0.0070 F10.00 
G01 X2.9195 Y2.4874 F20.00 
G01 X2.9195 Y2.5126 
G01 X2.9374 Y2.5305 
G01 X2.9626 Y2.5305 
G01 X2.9805 Y2.5126 
G01 X2.9805 Y2.4874 
G01 X2.9626 Y2.4695 
G01 X2.9374 Y2.4695 
G00 Z0.1000 
G00 X3.6171 Y1.6295 
G01 Z-0.0070 F10.00 
G01 X3.6829 Y1.6295 F20.00 
G01 X3.7295 Y1.5829 
G01 X3.7295 Y1.5171 
G01 X3.6829 Y1.4705 
G01 X3.6171 Y1.4705 
G01 X3.5705 Y1.5171 
G01 X3.5705 Y1.5829 
G01 X3.6171 Y1.6295 
G00 Z0.1000 
G00 X1.5824 Y1.0277 
G01 Z-0.0070 F10.00 
G01 X1.5863 Y1.0223 F20.00 
G01 X1.5894 Y1.0163 
G01 X1.5915 Y1.0100 
G01 X1.5925 Y1.0033 
G01 X1.5925 Y0.9967 
G01 X1.5915 Y0.9900 
G01 X1.5894 Y0.9837 
G01 X1.5863 Y0.9777 
G01 X1.5824 Y0.9723 
G01 X1.5777 Y0.9676 
G01 X1.5723 Y0.9637 
G01 X1.5663 Y0.9606 
G01 X1.5600 Y0.9585 
G01 X1.5533 Y0.9575 
G01 X1.5467 Y0.9575 
G01 X1.5400 Y0.9585 
G01 X1.5337 Y0.9606 
G01 X1.5277 Y0.9637 
G01 X1.5223 Y0.9676 
G01 X1.5176 Y0.9723 
G01 X1.5137 Y0.9777 
G01 X1.5106 Y0.9837 
G01 X1.5085 Y0.9900 
G01 X1.5075 Y0.9967 
G01 X1.5075 Y1.0033 
G01 X1.5085 Y1.0100 
G01 X1.5106 Y1.0163 
G01 X1.5137 Y1.0223 
G01 X1.5176 Y1.0277 
G01 X1.5223 Y1.0324 
G01 X1.5277 Y1.0363 
G01 X1.5337 Y1.0394 
G01 X1.5400 Y1.0415 
G01 X1.5467 Y1.0425 
G01 X1.5533 Y1.0425 
G01 X1.5600 Y1.0415 
G01 X1.5663 Y1.0394 
G01 X1.5723 Y1.0363 
G01 X1.5777 Y1.0324 
G01 X1.5824 Y1.0277 
G00 Z0.1000 
G00 X0.1155 Y0.5150 
G01 Z-0.0070 F10.00 
G01 X0.1155 Y0.5850 F20.00 
G01 X0.1650 Y0.6345 
G01 X0.2350 Y0.6345 
G01 X0.2845 Y0.5850 
G01 X0.2845 Y0.5150 
G01 X0.2350 Y0.4655 
G01 X0.1650 Y0.4655 
G01 X0.1155 Y0.5150 
G00 Z0.1000 
G00 X0.1155 Y0.8150 
G01 Z-0.0070 F10.00 
G01 X0.1155 Y0.8850 F20.00 
G01 X0.1650 Y0.9345 
G01 X0.2350 Y0.9345 
G01 X0.2845 Y0.8850 
G01 X0.2845 Y0.8150 
G01 X0.2350 Y0.7655 
G01 X0.1650 Y0.7655 
G01 X0.1155 Y0.8150 
G00 Z0.1000 
G00 X0.1399 Y1.0025 
G01 Z-0.0070 F10.00 
G01 X0.0601 Y1.0025 F20.00 
G01 X0.0566 Y1.0039 
G01 X0.0539 Y1.0066 
G01 X0.0525 Y1.0101 
G01 X0.0525 Y1.0899 
G01 X0.0539 Y1.0934 
G01 X0.0566 Y1.0961 
G01 X0.0601 Y1.0975 
G01 X0.1399 Y1.0975 
G01 X0.1434 Y1.0961 
G01 X0.1461 Y1.0934 
G01 X0.1475 Y1.0899 
G01 X0.1475 Y1.0101 
G01 X0.1461 Y1.0066 
G01 X0.1434 Y1.0039 
G01 X0.1399 Y1.0025 
G00 Z0.1000 
G00 X0.1399 Y1.1525 
G01 Z-0.0070 F10.00 
G01 X0.0601 Y1.1525 F20.00 
G01 X0.0566 Y1.1539 
G01 X0.0539 Y1.1566 
G01 X0.0525 Y1.1601 
G01 X0.0525 Y1.2399 
G01 X0.0539 Y1.2434 
G01 X0.0566 Y1.2461 
G01 X0.0601 Y1.2475 
G01 X0.1399 Y1.2475 
G01 X0.1434 Y1.2461 
G01 X0.1461 Y1.2434 
G01 X0.1475 Y1.2399 
G01 X0.1475 Y1.1601 
G01 X0.1461 Y1.1566 
G01 X0.1434 Y1.1539 
G01 X0.1399 Y1.1525 
G00 Z0.1000 
G00 X0.1575 Y1.4324 
G01 Z-0.0070 F10.00 
G01 X0.1575 Y1.4676 F20.00 
G01 X0.1824 Y1.4925 
G01 X0.2176 Y1.4925 
G01 X0.2425 Y1.4676 
G01 X0.2425 Y1.4324 
G01 X0.2176 Y1.4075 
G01 X0.1824 Y1.4075 
G01 X0.1575 Y1.4324 
G00 Z0.1000 
G00 X0.3645 Y1.4353 
G01 Z-0.0070 F10.00 
G01 X0.3645 Y1.4647 F20.00 
G01 X0.3853 Y1.4855 
G01 X0.4147 Y1.4855 
G01 X0.4355 Y1.4647 
G01 X0.4355 Y1.4353 
G01 X0.4147 Y1.4145 
G01 X0.3853 Y1.4145 
G01 X0.3645 Y1.4353 
G00 Z0.1000 
G00 X0.6145 Y1.4353 
G01 Z-0.0070 F10.00 
G01 X0.6145 Y1.4647 F20.00 
G01 X0.6353 Y1.4855 
G01 X0.6647 Y1.4855 
G01 X0.6855 Y1.4647 
G01 X0.6855 Y1.4353 
G01 X0.6647 Y1.4145 
G01 X0.6353 Y1.4145 
G01 X0.6145 Y1.4353 
G00 Z0.1000 
G00 X0.8075 Y1.4324 
G01 Z-0.0070 F10.00 
G01 X0.8075 Y1.4676 F20.00 
G01 X0.8324 Y1.4925 
G01 X0.8676 Y1.4925 
G01 X0.8925 Y1.4676 
G01 X0.8925 Y1.4324 
G01 X0.8676 Y1.4075 
G01 X0.8324 Y1.4075 
G01 X0.8075 Y1.4324 
G00 Z0.1000 
G00 X0.8853 Y1.2355 
G01 Z-0.0070 F10.00 
G01 X0.9147 Y1.2355 F20.00 
G01 X0.9355 Y1.2147 
G01 X0.9355 Y1.1853 
G01 X0.9147 Y1.1645 
G01 X0.8853 Y1.1645 
G01 X0.8645 Y1.1853 
G01 X0.8645 Y1.2147 
G01 X0.8853 Y1.2355 
G00 Z0.1000 
G00 X0.8853 Y1.0855 
G01 Z-0.0070 F10.00 
G01 X0.9147 Y1.0855 F20.00 
G01 X0.9355 Y1.0647 
G01 X0.9355 Y1.0353 
G01 X0.9147 Y1.0145 
G01 X0.8853 Y1.0145 
G01 X0.8645 Y1.0353 
G01 X0.8645 Y1.0647 
G01 X0.8853 Y1.0855 
G00 Z0.1000 
G00 X1.0575 Y1.1824 
G01 Z-0.0070 F10.00 
G01 X1.0575 Y1.2176 F20.00 
G01 X1.0824 Y1.2425 
G01 X1.1176 Y1.2425 
G01 X1.1425 Y1.2176 
G01 X1.1425 Y1.1824 
G01 X1.1176 Y1.1575 
G01 X1.0824 Y1.1575 
G01 X1.0575 Y1.1824 
G00 Z0.1000 
G00 X1.2824 Y1.1425 
G01 Z-0.0070 F10.00 
G01 X1.3176 Y1.1425 F20.00 
G01 X1.3425 Y1.1176 
G01 X1.3425 Y1.0824 
G01 X1.3176 Y1.0575 
G01 X1.2824 Y1.0575 
G01 X1.2575 Y1.0824 
G01 X1.2575 Y1.1176 
G01 X1.2824 Y1.1425 
G00 Z0.1000 
G00 X1.5191 Y1.1362 
G01 Z-0.0070 F10.00 
G01 X1.5251 Y1.1406 F20.00 
G01 X1.5318 Y1.1440 
G01 X1.5389 Y1.1463 
G01 X1.5463 Y1.1475 
G01 X1.5537 Y1.1475 
G01 X1.5611 Y1.1463 
G01 X1.5682 Y1.1440 
G01 X1.5749 Y1.1406 
G01 X1.5809 Y1.1362 
G01 X1.5862 Y1.1309 
G01 X1.5906 Y1.1249 
G01 X1.5940 Y1.1182 
G01 X1.5963 Y1.1111 
G01 X1.5975 Y1.1037 
G01 X1.5975 Y1.0963 
G01 X1.5963 Y1.0889 
G01 X1.5940 Y1.0818 
G01 X1.5906 Y1.0751 
G01 X1.5862 Y1.0691 
G01 X1.5809 Y1.0638 
G01 X1.5749 Y1.0594 
G01 X1.5682 Y1.0560 
G01 X1.5611 Y1.0537 
G01 X1.5537 Y1.0525 
G01 X1.5463 Y1.0525 
G01 X1.5389 Y1.0537 
G01 X1.5318 Y1.0560 
G01 X1.5251 Y1.0594 
G01 X1.5191 Y1.0638 
G01 X1.5138 Y1.0691 
G01 X1.5094 Y1.0751 
G01 X1.5060 Y1.0818 
G01 X1.5037 Y1.0889 
G01 X1.5025 Y1.0963 
G01 X1.5025 Y1.1037 
G01 X1.5037 Y1.1111 
G01 X1.5060 Y1.1182 
G01 X1.5094 Y1.1249 
G01 X1.5138 Y1.1309 
G01 X1.5191 Y1.1362 
G00 Z0.1000 
G00 X1.5191 Y1.1638 
G01 Z-0.0070 F10.00 
G01 X1.5138 Y1.1691 F20.00 
G01 X1.5094 Y1.1751 
G01 X1.5060 Y1.1818 
G01 X1.5037 Y1.1889 
G01 X1.5025 Y1.1963 
G01 X1.5025 Y1.2037 
G01 X1.5037 Y1.2111 
G01 X1.5060 Y1.2182 
G01 X1.5094 Y1.2249 
G01 X1.5138 Y1.2309 
G01 X1.5191 Y1.2362 
G01 X1.5251 Y1.2406 
G01 X1.5318 Y1.2440 
G01 X1.5389 Y1.2463 
G01 X1.5463 Y1.2475 
G01 X1.5537 Y1.2475 
G01 X1.5611 Y1.2463 
G01 X1.5682 Y1.2440 
G01 X1.5749 Y1.2406 
G01 X1.5809 Y1.2362 
G01 X1.5862 Y1.2309 
G01 X1.5906 Y1.2249 
G01 X1.5940 Y1.2182 
G01 X1.5963 Y1.2111 
G01 X1.5975 Y1.2037 
G01 X1.5975 Y1.1963 
G01 X1.5963 Y1.1889 
G01 X1.5940 Y1.1818 
G01 X1.5906 Y1.1751 
G01 X1.5862 Y1.1691 
G01 X1.5809 Y1.1638 
G01 X1.5749 Y1.1594 
G01 X1.5682 Y1.1560 
G01 X1.5611 Y1.1537 
G01 X1.5537 Y1.1525 
G01 X1.5463 Y1.1525 
G01 X1.5389 Y1.1537 
G01 X1.5318 Y1.1560 
G01 X1.5251 Y1.1594 
G01 X1.5191 Y1.1638 
G00 Z0.1000 
G00 X1.5191 Y1.2638 
G01 Z-0.0070 F10.00 
G01 X1.5138 Y1.2691 F20.00 
G01 X1.5094 Y1.2751 
G01 X1.5060 Y1.2818 
G01 X1.5037 Y1.2889 
G01 X1.5025 Y1.2963 
G01 X1.5025 Y1.3037 
G01 X1.5037 Y1.3111 
G01 X1.5060 Y1.3182 
G01 X1.5094 Y1.3249 
G01 X1.5138 Y1.3309 
G01 X1.5191 Y1.3362 
G01 X1.5251 Y1.3406 
G01 X1.5318 Y1.3440 
G01 X1.5389 Y1.3463 
G01 X1.5463 Y1.3475 
G01 X1.5537 Y1.3475 
G01 X1.5611 Y1.3463 
G01 X1.5682 Y1.3440 
G01 X1.5749 Y1.3406 
G01 X1.5809 Y1.3362 
G01 X1.5862 Y1.3309 
G01 X1.5906 Y1.3249 
G01 X1.5940 Y1.3182 
G01 X1.5963 Y1.3111 
G01 X1.5975 Y1.3037 
G01 X1.5975 Y1.2963 
G01 X1.5963 Y1.2889 
G01 X1.5940 Y1.2818 
G01 X1.5906 Y1.2751 
G01 X1.5862 Y1.2691 
G01 X1.5809 Y1.2638 
G01 X1.5749 Y1.2594 
G01 X1.5682 Y1.2560 
G01 X1.5611 Y1.2537 
G01 X1.5537 Y1.2525 
G01 X1.5463 Y1.2525 
G01 X1.5389 Y1.2537 
G01 X1.5318 Y1.2560 
G01 X1.5251 Y1.2594 
G01 X1.5191 Y1.2638 
G00 Z0.1000 
G00 X1.5191 Y1.3638 
G01 Z-0.0070 F10.00 
G01 X1.5138 Y1.3691 F20.00 
G01 X1.5094 Y1.3751 
G01 X1.5060 Y1.3818 
G01 X1.5037 Y1.3889 
G01 X1.5025 Y1.3963 
G01 X1.5025 Y1.4037 
G01 X1.5037 Y1.4111 
G01 X1.5060 Y1.4182 
G01 X1.5094 Y1.4249 
G01 X1.5138 Y1.4309 
G01 X1.5191 Y1.4362 
G01 X1.5251 Y1.4406 
G01 X1.5318 Y1.4440 
G01 X1.5389 Y1.4463 
G01 X1.5463 Y1.4475 
G01 X1.5537 Y1.4475 
G01 X1.5611 Y1.4463 
G01 X1.5682 Y1.4440 
G01 X1.5749 Y1.4406 
G01 X1.5809 Y1.4362 
G01 X1.5862 Y1.4309 
G01 X1.5906 Y1.4249 
G01 X1.5940 Y1.4182 
G01 X1.5963 Y1.4111 
G01 X1.5975 Y1.4037 
G01 X1.5975 Y1.3963 
G01 X1.5963 Y1.3889 
G01 X1.5940 Y1.3818 
G01 X1.5906 Y1.3751 
G01 X1.5862 Y1.3691 
G01 X1.5809 Y1.3638 
G01 X1.5749 Y1.3594 
G01 X1.5682 Y1.3560 
G01 X1.5611 Y1.3537 
G01 X1.5537 Y1.3525 
G01 X1.5463 Y1.3525 
G01 X1.5389 Y1.3537 
G01 X1.5318 Y1.3560 
G01 X1.5251 Y1.3594 
G01 X1.5191 Y1.3638 
G00 Z0.1000 
G00 X1.5191 Y1.4638 
G01 Z-0.0070 F10.00 
G01 X1.5138 Y1.4691 F20.00 
G01 X1.5094 Y1.4751 
G01 X1.5060 Y1.4818 
G01 X1.5037 Y1.4889 
G01 X1.5025 Y1.4963 
G01 X1.5025 Y1.5037 
G01 X1.5037 Y1.5111 
G01 X1.5060 Y1.5182 
G01 X1.5094 Y1.5249 
G01 X1.5138 Y1.5309 
G01 X1.5191 Y1.5362 
G01 X1.5251 Y1.5406 
G01 X1.5318 Y1.5440 
G01 X1.5389 Y1.5463 
G01 X1.5463 Y1.5475 
G01 X1.5537 Y1.5475 
G01 X1.5611 Y1.5463 
G01 X1.5682 Y1.5440 
G01 X1.5749 Y1.5406 
G01 X1.5809 Y1.5362 
G01 X1.5862 Y1.5309 
G01 X1.5906 Y1.5249 
G01 X1.5940 Y1.5182 
G01 X1.5963 Y1.5111 
G01 X1.5975 Y1.5037 
G01 X1.5975 Y1.4963 
G01 X1.5963 Y1.4889 
G01 X1.5940 Y1.4818 
G01 X1.5906 Y1.4751 
G01 X1.5862 Y1.4691 
G01 X1.5809 Y1.4638 
G01 X1.5749 Y1.4594 
G01 X1.5682 Y1.4560 
G01 X1.5611 Y1.4537 
G01 X1.5537 Y1.4525 
G01 X1.5463 Y1.4525 
G01 X1.5389 Y1.4537 
G01 X1.5318 Y1.4560 
G01 X1.5251 Y1.4594 
G01 X1.5191 Y1.4638 
G00 Z0.1000 
G00 X1.5191 Y1.5638 
G01 Z-0.0070 F10.00 
G01 X1.5138 Y1.5691 F20.00 
G01 X1.5094 Y1.5751 
G01 X1.5060 Y1.5818 
G01 X1.5037 Y1.5889 
G01 X1.5025 Y1.5963 
G01 X1.5025 Y1.6037 
G01 X1.5037 Y1.6111 
G01 X1.5060 Y1.6182 
G01 X1.5094 Y1.6249 
G01 X1.5138 Y1.6309 
G01 X1.5191 Y1.6362 
G01 X1.5251 Y1.6406 
G01 X1.5318 Y1.6440 
G01 X1.5389 Y1.6463 
G01 X1.5463 Y1.6475 
G01 X1.5537 Y1.6475 
G01 X1.5611 Y1.6463 
G01 X1.5682 Y1.6440 
G01 X1.5749 Y1.6406 
G01 X1.5809 Y1.6362 
G01 X1.5862 Y1.6309 
G01 X1.5906 Y1.6249 
G01 X1.5940 Y1.6182 
G01 X1.5963 Y1.6111 
G01 X1.5975 Y1.6037 
G01 X1.5975 Y1.5963 
G01 X1.5963 Y1.5889 
G01 X1.5940 Y1.5818 
G01 X1.5906 Y1.5751 
G01 X1.5862 Y1.5691 
G01 X1.5809 Y1.5638 
G01 X1.5749 Y1.5594 
G01 X1.5682 Y1.5560 
G01 X1.5611 Y1.5537 
G01 X1.5537 Y1.5525 
G01 X1.5463 Y1.5525 
G01 X1.5389 Y1.5537 
G01 X1.5318 Y1.5560 
G01 X1.5251 Y1.5594 
G01 X1.5191 Y1.5638 
G00 Z0.1000 
G00 X1.5191 Y1.6638 
G01 Z-0.0070 F10.00 
G01 X1.5138 Y1.6691 F20.00 
G01 X1.5094 Y1.6751 
G01 X1.5060 Y1.6818 
G01 X1.5037 Y1.6889 
G01 X1.5025 Y1.6963 
G01 X1.5025 Y1.7037 
G01 X1.5037 Y1.7111 
G01 X1.5060 Y1.7182 
G01 X1.5094 Y1.7249 
G01 X1.5138 Y1.7309 
G01 X1.5191 Y1.7362 
G01 X1.5251 Y1.7406 
G01 X1.5318 Y1.7440 
G01 X1.5389 Y1.7463 
G01 X1.5463 Y1.7475 
G01 X1.5537 Y1.7475 
G01 X1.5611 Y1.7463 
G01 X1.5682 Y1.7440 
G01 X1.5749 Y1.7406 
G01 X1.5809 Y1.7362 
G01 X1.5862 Y1.7309 
G01 X1.5906 Y1.7249 
G01 X1.5940 Y1.7182 
G01 X1.5963 Y1.7111 
G01 X1.5975 Y1.7037 
G01 X1.5975 Y1.6963 
G01 X1.5963 Y1.6889 
G01 X1.5940 Y1.6818 
G01 X1.5906 Y1.6751 
G01 X1.5862 Y1.6691 
G01 X1.5809 Y1.6638 
G01 X1.5749 Y1.6594 
G01 X1.5682 Y1.6560 
G01 X1.5611 Y1.6537 
G01 X1.5537 Y1.6525 
G01 X1.5463 Y1.6525 
G01 X1.5389 Y1.6537 
G01 X1.5318 Y1.6560 
G01 X1.5251 Y1.6594 
G01 X1.5191 Y1.6638 
G00 Z0.1000 
G00 X1.5191 Y1.7638 
G01 Z-0.0070 F10.00 
G01 X1.5138 Y1.7691 F20.00 
G01 X1.5094 Y1.7751 
G01 X1.5060 Y1.7818 
G01 X1.5037 Y1.7889 
G01 X1.5025 Y1.7963 
G01 X1.5025 Y1.8037 
G01 X1.5037 Y1.8111 
G01 X1.5060 Y1.8182 
G01 X1.5094 Y1.8249 
G01 X1.5138 Y1.8309 
G01 X1.5191 Y1.8362 
G01 X1.5251 Y1.8406 
G01 X1.5318 Y1.8440 
G01 X1.5389 Y1.8463 
G01 X1.5463 Y1.8475 
G01 X1.5537 Y1.8475 
G01 X1.5611 Y1.8463 
G01 X1.5682 Y1.8440 
G01 X1.5749 Y1.8406 
G01 X1.5809 Y1.8362 
G01 X1.5862 Y1.8309 
G01 X1.5906 Y1.8249 
G01 X1.5940 Y1.8182 
G01 X1.5963 Y1.8111 
G01 X1.5975 Y1.8037 
G01 X1.5975 Y1.7963 
G01 X1.5963 Y1.7889 
G01 X1.5940 Y1.7818 
G01 X1.5906 Y1.7751 
G01 X1.5862 Y1.7691 
G01 X1.5809 Y1.7638 
G01 X1.5749 Y1.7594 
G01 X1.5682 Y1.7560 
G01 X1.5611 Y1.7537 
G01 X1.5537 Y1.7525 
G01 X1.5463 Y1.7525 
G01 X1.5389 Y1.7537 
G01 X1.5318 Y1.7560 
G01 X1.5251 Y1.7594 
G01 X1.5191 Y1.7638 
G00 Z0.1000 
G00 X1.5191 Y1.8638 
G01 Z-0.0070 F10.00 
G01 X1.5138 Y1.8691 F20.00 
G01 X1.5094 Y1.8751 
G01 X1.5060 Y1.8818 
G01 X1.5037 Y1.8889 
G01 X1.5025 Y1.8963 
G01 X1.5025 Y1.9037 
G01 X1.5037 Y1.9111 
G01 X1.5060 Y1.9182 
G01 X1.5094 Y1.9249 
G01 X1.5138 Y1.9309 
G01 X1.5191 Y1.9362 
G01 X1.5251 Y1.9406 
G01 X1.5318 Y1.9440 
G01 X1.5389 Y1.9463 
G01 X1.5463 Y1.9475 
G01 X1.5537 Y1.9475 
G01 X1.5611 Y1.9463 
G01 X1.5682 Y1.9440 
G01 X1.5749 Y1.9406 
G01 X1.5809 Y1.9362 
G01 X1.5862 Y1.9309 
G01 X1.5906 Y1.9249 
G01 X1.5940 Y1.9182 
G01 X1.5963 Y1.9111 
G01 X1.5975 Y1.9037 
G01 X1.5975 Y1.8963 
G01 X1.5963 Y1.8889 
G01 X1.5940 Y1.8818 
G01 X1.5906 Y1.8751 
G01 X1.5862 Y1.8691 
G01 X1.5809 Y1.8638 
G01 X1.5749 Y1.8594 
G01 X1.5682 Y1.8560 
G01 X1.5611 Y1.8537 
G01 X1.5537 Y1.8525 
G01 X1.5463 Y1.8525 
G01 X1.5389 Y1.8537 
G01 X1.5318 Y1.8560 
G01 X1.5251 Y1.8594 
G01 X1.5191 Y1.8638 
G00 Z0.1000 
G00 X1.5191 Y1.9638 
G01 Z-0.0070 F10.00 
G01 X1.5138 Y1.9691 F20.00 
G01 X1.5094 Y1.9751 
G01 X1.5060 Y1.9818 
G01 X1.5037 Y1.9889 
G01 X1.5025 Y1.9963 
G01 X1.5025 Y2.0037 
G01 X1.5037 Y2.0111 
G01 X1.5060 Y2.0182 
G01 X1.5094 Y2.0249 
G01 X1.5138 Y2.0309 
G01 X1.5191 Y2.0362 
G01 X1.5251 Y2.0406 
G01 X1.5318 Y2.0440 
G01 X1.5389 Y2.0463 
G01 X1.5463 Y2.0475 
G01 X1.5537 Y2.0475 
G01 X1.5611 Y2.0463 
G01 X1.5682 Y2.0440 
G01 X1.5749 Y2.0406 
G01 X1.5809 Y2.0362 
G01 X1.5862 Y2.0309 
G01 X1.5906 Y2.0249 
G01 X1.5940 Y2.0182 
G01 X1.5963 Y2.0111 
G01 X1.5975 Y2.0037 
G01 X1.5975 Y1.9963 
G01 X1.5963 Y1.9889 
G01 X1.5940 Y1.9818 
G01 X1.5906 Y1.9751 
G01 X1.5862 Y1.9691 
G01 X1.5809 Y1.9638 
G01 X1.5749 Y1.9594 
G01 X1.5682 Y1.9560 
G01 X1.5611 Y1.9537 
G01 X1.5537 Y1.9525 
G01 X1.5463 Y1.9525 
G01 X1.5389 Y1.9537 
G01 X1.5318 Y1.9560 
G01 X1.5251 Y1.9594 
G01 X1.5191 Y1.9638 
G00 Z0.1000 
G00 X1.5191 Y2.0638 
G01 Z-0.0070 F10.00 
G01 X1.5138 Y2.0691 F20.00 
G01 X1.5094 Y2.0751 
G01 X1.5060 Y2.0818 
G01 X1.5037 Y2.0889 
G01 X1.5025 Y2.0963 
G01 X1.5025 Y2.1037 
G01 X1.5037 Y2.1111 
G01 X1.5060 Y2.1182 
G01 X1.5094 Y2.1249 
G01 X1.5138 Y2.1309 
G01 X1.5191 Y2.1362 
G01 X1.5251 Y2.1406 
G01 X1.5318 Y2.1440 
G01 X1.5389 Y2.1463 
G01 X1.5463 Y2.1475 
G01 X1.5537 Y2.1475 
G01 X1.5611 Y2.1463 
G01 X1.5682 Y2.1440 
G01 X1.5749 Y2.1406 
G01 X1.5809 Y2.1362 
G01 X1.5862 Y2.1309 
G01 X1.5906 Y2.1249 
G01 X1.5940 Y2.1182 
G01 X1.5963 Y2.1111 
G01 X1.5975 Y2.1037 
G01 X1.5975 Y2.0963 
G01 X1.5963 Y2.0889 
G01 X1.5940 Y2.0818 
G01 X1.5906 Y2.0751 
G01 X1.5862 Y2.0691 
G01 X1.5809 Y2.0638 
G01 X1.5749 Y2.0594 
G01 X1.5682 Y2.0560 
G01 X1.5611 Y2.0537 
G01 X1.5537 Y2.0525 
G01 X1.5463 Y2.0525 
G01 X1.5389 Y2.0537 
G01 X1.5318 Y2.0560 
G01 X1.5251 Y2.0594 
G01 X1.5191 Y2.0638 
G00 Z0.1000 
G00 X1.5191 Y2.1638 
G01 Z-0.0070 F10.00 
G01 X1.5138 Y2.1691 F20.00 
G01 X1.5094 Y2.1751 
G01 X1.5060 Y2.1818 
G01 X1.5037 Y2.1889 
G01 X1.5025 Y2.1963 
G01 X1.5025 Y2.2037 
G01 X1.5037 Y2.2111 
G01 X1.5060 Y2.2182 
G01 X1.5094 Y2.2249 
G01 X1.5138 Y2.2309 
G01 X1.5191 Y2.2362 
G01 X1.5251 Y2.2406 
G01 X1.5318 Y2.2440 
G01 X1.5389 Y2.2463 
G01 X1.5463 Y2.2475 
G01 X1.5537 Y2.2475 
G01 X1.5611 Y2.2463 
G01 X1.5682 Y2.2440 
G01 X1.5749 Y2.2406 
G01 X1.5809 Y2.2362 
G01 X1.5862 Y2.2309 
G01 X1.5906 Y2.2249 
G01 X1.5940 Y2.2182 
G01 X1.5963 Y2.2111 
G01 X1.5975 Y2.2037 
G01 X1.5975 Y2.1963 
G01 X1.5963 Y2.1889 
G01 X1.5940 Y2.1818 
G01 X1.5906 Y2.1751 
G01 X1.5862 Y2.1691 
G01 X1.5809 Y2.1638 
G01 X1.5749 Y2.1594 
G01 X1.5682 Y2.1560 
G01 X1.5611 Y2.1537 
G01 X1.5537 Y2.1525 
G01 X1.5463 Y2.1525 
G01 X1.5389 Y2.1537 
G01 X1.5318 Y2.1560 
G01 X1.5251 Y2.1594 
G01 X1.5191 Y2.1638 
G00 Z0.1000 
G00 X1.5191 Y2.2638 
G01 Z-0.0070 F10.00 
G01 X1.5138 Y2.2691 F20.00 
G01 X1.5094 Y2.2751 
G01 X1.5060 Y2.2818 
G01 X1.5037 Y2.2889 
G01 X1.5025 Y2.2963 
G01 X1.5025 Y2.3037 
G01 X1.5037 Y2.3111 
G01 X1.5060 Y2.3182 
G01 X1.5094 Y2.3249 
G01 X1.5138 Y2.3309 
G01 X1.5191 Y2.3362 
G01 X1.5251 Y2.3406 
G01 X1.5318 Y2.3440 
G01 X1.5389 Y2.3463 
G01 X1.5463 Y2.3475 
G01 X1.5537 Y2.3475 
G01 X1.5611 Y2.3463 
G01 X1.5682 Y2.3440 
G01 X1.5749 Y2.3406 
G01 X1.5809 Y2.3362 
G01 X1.5862 Y2.3309 
G01 X1.5906 Y2.3249 
G01 X1.5940 Y2.3182 
G01 X1.5963 Y2.3111 
G01 X1.5975 Y2.3037 
G01 X1.5975 Y2.2963 
G01 X1.5963 Y2.2889 
G01 X1.5940 Y2.2818 
G01 X1.5906 Y2.2751 
G01 X1.5862 Y2.2691 
G01 X1.5809 Y2.2638 
G01 X1.5749 Y2.2594 
G01 X1.5682 Y2.2560 
G01 X1.5611 Y2.2537 
G01 X1.5537 Y2.2525 
G01 X1.5463 Y2.2525 
G01 X1.5389 Y2.2537 
G01 X1.5318 Y2.2560 
G01 X1.5251 Y2.2594 
G01 X1.5191 Y2.2638 
G00 Z0.1000 
G00 X1.5191 Y2.3638 
G01 Z-0.0070 F10.00 
G01 X1.5138 Y2.3691 F20.00 
G01 X1.5094 Y2.3751 
G01 X1.5060 Y2.3818 
G01 X1.5037 Y2.3889 
G01 X1.5025 Y2.3963 
G01 X1.5025 Y2.4037 
G01 X1.5037 Y2.4111 
G01 X1.5060 Y2.4182 
G01 X1.5094 Y2.4249 
G01 X1.5138 Y2.4309 
G01 X1.5191 Y2.4362 
G01 X1.5251 Y2.4406 
G01 X1.5318 Y2.4440 
G01 X1.5389 Y2.4463 
G01 X1.5463 Y2.4475 
G01 X1.5537 Y2.4475 
G01 X1.5611 Y2.4463 
G01 X1.5682 Y2.4440 
G01 X1.5749 Y2.4406 
G01 X1.5809 Y2.4362 
G01 X1.5862 Y2.4309 
G01 X1.5906 Y2.4249 
G01 X1.5940 Y2.4182 
G01 X1.5963 Y2.4111 
G01 X1.5975 Y2.4037 
G01 X1.5975 Y2.3963 
G01 X1.5963 Y2.3889 
G01 X1.5940 Y2.3818 
G01 X1.5906 Y2.3751 
G01 X1.5862 Y2.3691 
G01 X1.5809 Y2.3638 
G01 X1.5749 Y2.3594 
G01 X1.5682 Y2.3560 
G01 X1.5611 Y2.3537 
G01 X1.5537 Y2.3525 
G01 X1.5463 Y2.3525 
G01 X1.5389 Y2.3537 
G01 X1.5318 Y2.3560 
G01 X1.5251 Y2.3594 
G01 X1.5191 Y2.3638 
G00 Z0.1000 
G00 X1.5191 Y2.4638 
G01 Z-0.0070 F10.00 
G01 X1.5138 Y2.4691 F20.00 
G01 X1.5094 Y2.4751 
G01 X1.5060 Y2.4818 
G01 X1.5037 Y2.4889 
G01 X1.5025 Y2.4963 
G01 X1.5025 Y2.5037 
G01 X1.5037 Y2.5111 
G01 X1.5060 Y2.5182 
G01 X1.5094 Y2.5249 
G01 X1.5138 Y2.5309 
G01 X1.5191 Y2.5362 
G01 X1.5251 Y2.5406 
G01 X1.5318 Y2.5440 
G01 X1.5389 Y2.5463 
G01 X1.5463 Y2.5475 
G01 X1.5537 Y2.5475 
G01 X1.5611 Y2.5463 
G01 X1.5682 Y2.5440 
G01 X1.5749 Y2.5406 
G01 X1.5809 Y2.5362 
G01 X1.5862 Y2.5309 
G01 X1.5906 Y2.5249 
G01 X1.5940 Y2.5182 
G01 X1.5963 Y2.5111 
G01 X1.5975 Y2.5037 
G01 X1.5975 Y2.4963 
G01 X1.5963 Y2.4889 
G01 X1.5940 Y2.4818 
G01 X1.5906 Y2.4751 
G01 X1.5862 Y2.4691 
G01 X1.5809 Y2.4638 
G01 X1.5749 Y2.4594 
G01 X1.5682 Y2.4560 
G01 X1.5611 Y2.4537 
G01 X1.5537 Y2.4525 
G01 X1.5463 Y2.4525 
G01 X1.5389 Y2.4537 
G01 X1.5318 Y2.4560 
G01 X1.5251 Y2.4594 
G01 X1.5191 Y2.4638 
G00 Z0.1000 
G00 X1.5191 Y2.5638 
G01 Z-0.0070 F10.00 
G01 X1.5138 Y2.5691 F20.00 
G01 X1.5094 Y2.5751 
G01 X1.5060 Y2.5818 
G01 X1.5037 Y2.5889 
G01 X1.5025 Y2.5963 
G01 X1.5025 Y2.6037 
G01 X1.5037 Y2.6111 
G01 X1.5060 Y2.6182 
G01 X1.5094 Y2.6249 
G01 X1.5138 Y2.6309 
G01 X1.5191 Y2.6362 
G01 X1.5251 Y2.6406 
G01 X1.5318 Y2.6440 
G01 X1.5389 Y2.6463 
G01 X1.5463 Y2.6475 
G01 X1.5537 Y2.6475 
G01 X1.5611 Y2.6463 
G01 X1.5682 Y2.6440 
G01 X1.5749 Y2.6406 
G01 X1.5809 Y2.6362 
G01 X1.5862 Y2.6309 
G01 X1.5906 Y2.6249 
G01 X1.5940 Y2.6182 
G01 X1.5963 Y2.6111 
G01 X1.5975 Y2.6037 
G01 X1.5975 Y2.5963 
G01 X1.5963 Y2.5889 
G01 X1.5940 Y2.5818 
G01 X1.5906 Y2.5751 
G01 X1.5862 Y2.5691 
G01 X1.5809 Y2.5638 
G01 X1.5749 Y2.5594 
G01 X1.5682 Y2.5560 
G01 X1.5611 Y2.5537 
G01 X1.5537 Y2.5525 
G01 X1.5463 Y2.5525 
G01 X1.5389 Y2.5537 
G01 X1.5318 Y2.5560 
G01 X1.5251 Y2.5594 
G01 X1.5191 Y2.5638 
G00 Z0.1000 
G00 X1.3845 Y2.4850 
G01 Z-0.0070 F10.00 
G01 X1.3845 Y2.4150 F20.00 
G01 X1.3350 Y2.3655 
G01 X1.2650 Y2.3655 
G01 X1.2155 Y2.4150 
G01 X1.2155 Y2.4850 
G01 X1.2650 Y2.5345 
G01 X1.3350 Y2.5345 
G01 X1.3845 Y2.4850 
G00 Z0.1000 
G00 X1.3845 Y2.7150 
G01 Z-0.0070 F10.00 
G01 X1.3350 Y2.6655 F20.00 
G01 X1.2650 Y2.6655 
G01 X1.2155 Y2.7150 
G01 X1.2155 Y2.7850 
G01 X1.2650 Y2.8345 
G01 X1.3350 Y2.8345 
G01 X1.3845 Y2.7850 
G01 X1.3845 Y2.7150 
G00 Z0.1000 
G00 X1.1345 Y2.7150 
G01 Z-0.0070 F10.00 
G01 X1.0850 Y2.6655 F20.00 
G01 X1.0150 Y2.6655 
G01 X0.9655 Y2.7150 
G01 X0.9655 Y2.7850 
G01 X1.0150 Y2.8345 
G01 X1.0850 Y2.8345 
G01 X1.1345 Y2.7850 
G01 X1.1345 Y2.7150 
G00 Z0.1000 
G00 X1.1345 Y2.4850 
G01 Z-0.0070 F10.00 
G01 X1.1345 Y2.4150 F20.00 
G01 X1.0850 Y2.3655 
G01 X1.0150 Y2.3655 
G01 X0.9655 Y2.4150 
G01 X0.9655 Y2.4850 
G01 X1.0150 Y2.5345 
G01 X1.0850 Y2.5345 
G01 X1.1345 Y2.4850 
G00 Z0.1000 
G00 X0.8845 Y2.4850 
G01 Z-0.0070 F10.00 
G01 X0.8845 Y2.4150 F20.00 
G01 X0.8350 Y2.3655 
G01 X0.7650 Y2.3655 
G01 X0.7155 Y2.4150 
G01 X0.7155 Y2.4850 
G01 X0.7650 Y2.5345 
G01 X0.8350 Y2.5345 
G01 X0.8845 Y2.4850 
G00 Z0.1000 
G00 X0.8845 Y2.7150 
G01 Z-0.0070 F10.00 
G01 X0.8350 Y2.6655 F20.00 
G01 X0.7650 Y2.6655 
G01 X0.7155 Y2.7150 
G01 X0.7155 Y2.7850 
G01 X0.7650 Y2.8345 
G01 X0.8350 Y2.8345 
G01 X0.8845 Y2.7850 
G01 X0.8845 Y2.7150 
G00 Z0.1000 
G00 X0.6345 Y2.7150 
G01 Z-0.0070 F10.00 
G01 X0.5850 Y2.6655 F20.00 
G01 X0.5150 Y2.6655 
G01 X0.4655 Y2.7150 
G01 X0.4655 Y2.7850 
G01 X0.5150 Y2.8345 
G01 X0.5850 Y2.8345 
G01 X0.6345 Y2.7850 
G01 X0.6345 Y2.7150 
G00 Z0.1000 
G00 X0.6345 Y2.4850 
G01 Z-0.0070 F10.00 
G01 X0.6345 Y2.4150 F20.00 
G01 X0.5850 Y2.3655 
G01 X0.5150 Y2.3655 
G01 X0.4655 Y2.4150 
G01 X0.4655 Y2.4850 
G01 X0.5150 Y2.5345 
G01 X0.5850 Y2.5345 
G01 X0.6345 Y2.4850 
G00 Z0.1000 
G00 X0.6150 Y2.1345 
G01 Z-0.0070 F10.00 
G01 X0.6850 Y2.1345 F20.00 
G01 X0.7345 Y2.0850 
G01 X0.7345 Y2.0150 
G01 X0.6850 Y1.9655 
G01 X0.6150 Y1.9655 
G01 X0.5655 Y2.0150 
G01 X0.5655 Y2.0850 
G01 X0.6150 Y2.1345 
G00 Z0.1000 
G00 X0.4845 Y2.0850 
G01 Z-0.0070 F10.00 
G01 X0.4845 Y2.0150 F20.00 
G01 X0.4350 Y1.9655 
G01 X0.3650 Y1.9655 
G01 X0.3155 Y2.0150 
G01 X0.3155 Y2.0850 
G01 X0.3650 Y2.1345 
G01 X0.4350 Y2.1345 
G01 X0.4845 Y2.0850 
G00 Z0.1000 
G00 X0.4355 Y1.8647 
G01 Z-0.0070 F10.00 
G01 X0.4355 Y1.8353 F20.00 
G01 X0.4147 Y1.8145 
G01 X0.3853 Y1.8145 
G01 X0.3645 Y1.8353 
G01 X0.3645 Y1.8647 
G01 X0.3853 Y1.8855 
G01 X0.4147 Y1.8855 
G01 X0.4355 Y1.8647 
G00 Z0.1000 
G00 X0.6145 Y1.8647 
G01 Z-0.0070 F10.00 
G01 X0.6353 Y1.8855 F20.00 
G01 X0.6647 Y1.8855 
G01 X0.6855 Y1.8647 
G01 X0.6855 Y1.8353 
G01 X0.6647 Y1.8145 
G01 X0.6353 Y1.8145 
G01 X0.6145 Y1.8353 
G01 X0.6145 Y1.8647 
G00 Z0.1000 
G00 X0.8324 Y1.7925 
G01 Z-0.0070 F10.00 
G01 X0.8676 Y1.7925 F20.00 
G01 X0.8925 Y1.7676 
G01 X0.8925 Y1.7324 
G01 X0.8676 Y1.7075 
G01 X0.8324 Y1.7075 
G01 X0.8075 Y1.7324 
G01 X0.8075 Y1.7676 
G01 X0.8324 Y1.7925 
G00 Z0.1000 
G00 X1.0155 Y1.7650 
G01 Z-0.0070 F10.00 
G01 X1.0155 Y1.8350 F20.00 
G01 X1.0650 Y1.8845 
G01 X1.1350 Y1.8845 
G01 X1.1845 Y1.8350 
G01 X1.1845 Y1.7650 
G01 X1.1350 Y1.7155 
G01 X1.0650 Y1.7155 
G01 X1.0155 Y1.7650 
G00 Z0.1000 
G00 X1.0155 Y2.0150 
G01 Z-0.0070 F10.00 
G01 X1.0155 Y2.0850 F20.00 
G01 X1.0650 Y2.1345 
G01 X1.1350 Y2.1345 
G01 X1.1845 Y2.0850 
G01 X1.1845 Y2.0150 
G01 X1.1350 Y1.9655 
G01 X1.0650 Y1.9655 
G01 X1.0155 Y2.0150 
G00 Z0.1000 
G00 X0.2425 Y1.7676 
G01 Z-0.0070 F10.00 
G01 X0.2425 Y1.7324 F20.00 
G01 X0.2176 Y1.7075 
G01 X0.1824 Y1.7075 
G01 X0.1575 Y1.7324 
G01 X0.1575 Y1.7676 
G01 X0.1824 Y1.7925 
G01 X0.2176 Y1.7925 
G01 X0.2425 Y1.7676 
G00 Z0.1000 
G00 X0.4853 Y1.2355 
G01 Z-0.0070 F10.00 
G01 X0.5147 Y1.2355 F20.00 
G01 X0.5355 Y1.2147 
G01 X0.5355 Y1.1853 
G01 X0.5147 Y1.1645 
G01 X0.4853 Y1.1645 
G01 X0.4645 Y1.1853 
G01 X0.4645 Y1.2147 
G01 X0.4853 Y1.2355 
G00 Z0.1000 
G00 X0.4853 Y1.0855 
G01 Z-0.0070 F10.00 
G01 X0.5147 Y1.0855 F20.00 
G01 X0.5355 Y1.0647 
G01 X0.5355 Y1.0353 
G01 X0.5147 Y1.0145 
G01 X0.4853 Y1.0145 
G01 X0.4645 Y1.0353 
G01 X0.4645 Y1.0647 
G01 X0.4853 Y1.0855 
G00 Z0.1000 
G00 X0.4637 Y0.8925 
G01 Z-0.0070 F10.00 
G01 X0.5363 Y0.8925 F20.00 
G01 X0.5430 Y0.8915 
G01 X0.5493 Y0.8894 
G01 X0.5553 Y0.8863 
G01 X0.5607 Y0.8824 
G01 X0.5654 Y0.8777 
G01 X0.5693 Y0.8723 
G01 X0.5724 Y0.8663 
G01 X0.5745 Y0.8600 
G01 X0.5755 Y0.8533 
G01 X0.5755 Y0.8467 
G01 X0.5745 Y0.8400 
G01 X0.5724 Y0.8337 
G01 X0.5693 Y0.8277 
G01 X0.5654 Y0.8223 
G01 X0.5607 Y0.8176 
G01 X0.5553 Y0.8137 
G01 X0.5493 Y0.8106 
G01 X0.5430 Y0.8085 
G01 X0.5363 Y0.8075 
G01 X0.4637 Y0.8075 
G01 X0.4570 Y0.8085 
G01 X0.4507 Y0.8106 
G01 X0.4447 Y0.8137 
G01 X0.4393 Y0.8176 
G01 X0.4346 Y0.8223 
G01 X0.4307 Y0.8277 
G01 X0.4276 Y0.8337 
G01 X0.4255 Y0.8400 
G01 X0.4245 Y0.8467 
G01 X0.4245 Y0.8533 
G01 X0.4255 Y0.8600 
G01 X0.4276 Y0.8663 
G01 X0.4307 Y0.8723 
G01 X0.4346 Y0.8777 
G01 X0.4393 Y0.8824 
G01 X0.4447 Y0.8863 
G01 X0.4507 Y0.8894 
G01 X0.4570 Y0.8915 
G01 X0.4637 Y0.8925 
G00 Z0.1000 
G00 X0.4637 Y0.7925 
G01 Z-0.0070 F10.00 
G01 X0.5363 Y0.7925 F20.00 
G01 X0.5430 Y0.7915 
G01 X0.5493 Y0.7894 
G01 X0.5553 Y0.7863 
G01 X0.5607 Y0.7824 
G01 X0.5654 Y0.7777 
G01 X0.5693 Y0.7723 
G01 X0.5724 Y0.7663 
G01 X0.5745 Y0.7600 
G01 X0.5755 Y0.7533 
G01 X0.5755 Y0.7467 
G01 X0.5745 Y0.7400 
G01 X0.5724 Y0.7337 
G01 X0.5693 Y0.7277 
G01 X0.5654 Y0.7223 
G01 X0.5607 Y0.7176 
G01 X0.5553 Y0.7137 
G01 X0.5493 Y0.7106 
G01 X0.5430 Y0.7085 
G01 X0.5363 Y0.7075 
G01 X0.4637 Y0.7075 
G01 X0.4570 Y0.7085 
G01 X0.4507 Y0.7106 
G01 X0.4447 Y0.7137 
G01 X0.4393 Y0.7176 
G01 X0.4346 Y0.7223 
G01 X0.4307 Y0.7277 
G01 X0.4276 Y0.7337 
G01 X0.4255 Y0.7400 
G01 X0.4245 Y0.7467 
G01 X0.4245 Y0.7533 
G01 X0.4255 Y0.7600 
G01 X0.4276 Y0.7663 
G01 X0.4307 Y0.7723 
G01 X0.4346 Y0.7777 
G01 X0.4393 Y0.7824 
G01 X0.4447 Y0.7863 
G01 X0.4507 Y0.7894 
G01 X0.4570 Y0.7915 
G01 X0.4637 Y0.7925 
G00 Z0.1000 
G00 X0.4637 Y0.6925 
G01 Z-0.0070 F10.00 
G01 X0.5363 Y0.6925 F20.00 
G01 X0.5430 Y0.6915 
G01 X0.5493 Y0.6894 
G01 X0.5553 Y0.6863 
G01 X0.5607 Y0.6824 
G01 X0.5654 Y0.6777 
G01 X0.5693 Y0.6723 
G01 X0.5724 Y0.6663 
G01 X0.5745 Y0.6600 
G01 X0.5755 Y0.6533 
G01 X0.5755 Y0.6467 
G01 X0.5745 Y0.6400 
G01 X0.5724 Y0.6337 
G01 X0.5693 Y0.6277 
G01 X0.5654 Y0.6223 
G01 X0.5607 Y0.6176 
G01 X0.5553 Y0.6137 
G01 X0.5493 Y0.6106 
G01 X0.5430 Y0.6085 
G01 X0.5363 Y0.6075 
G01 X0.4637 Y0.6075 
G01 X0.4570 Y0.6085 
G01 X0.4507 Y0.6106 
G01 X0.4447 Y0.6137 
G01 X0.4393 Y0.6176 
G01 X0.4346 Y0.6223 
G01 X0.4307 Y0.6277 
G01 X0.4276 Y0.6337 
G01 X0.4255 Y0.6400 
G01 X0.4245 Y0.6467 
G01 X0.4245 Y0.6533 
G01 X0.4255 Y0.6600 
G01 X0.4276 Y0.6663 
G01 X0.4307 Y0.6723 
G01 X0.4346 Y0.6777 
G01 X0.4393 Y0.6824 
G01 X0.4447 Y0.6863 
G01 X0.4507 Y0.6894 
G01 X0.4570 Y0.6915 
G01 X0.4637 Y0.6925 
G00 Z0.1000 
G00 X0.7191 Y0.4862 
G01 Z-0.0070 F10.00 
G01 X0.7251 Y0.4906 F20.00 
G01 X0.7318 Y0.4940 
G01 X0.7389 Y0.4963 
G01 X0.7463 Y0.4975 
G01 X0.7537 Y0.4975 
G01 X0.7611 Y0.4963 
G01 X0.7682 Y0.4940 
G01 X0.7749 Y0.4906 
G01 X0.7809 Y0.4862 
G01 X0.7862 Y0.4809 
G01 X0.7906 Y0.4749 
G01 X0.7940 Y0.4682 
G01 X0.7963 Y0.4611 
G01 X0.7975 Y0.4537 
G01 X0.7975 Y0.4463 
G01 X0.7963 Y0.4389 
G01 X0.7940 Y0.4318 
G01 X0.7906 Y0.4251 
G01 X0.7862 Y0.4191 
G01 X0.7809 Y0.4138 
G01 X0.7749 Y0.4094 
G01 X0.7682 Y0.4060 
G01 X0.7611 Y0.4037 
G01 X0.7537 Y0.4025 
G01 X0.7463 Y0.4025 
G01 X0.7389 Y0.4037 
G01 X0.7318 Y0.4060 
G01 X0.7251 Y0.4094 
G01 X0.7191 Y0.4138 
G01 X0.7138 Y0.4191 
G01 X0.7094 Y0.4251 
G01 X0.7060 Y0.4318 
G01 X0.7037 Y0.4389 
G01 X0.7025 Y0.4463 
G01 X0.7025 Y0.4537 
G01 X0.7037 Y0.4611 
G01 X0.7060 Y0.4682 
G01 X0.7094 Y0.4749 
G01 X0.7138 Y0.4809 
G01 X0.7191 Y0.4862 
G00 Z0.1000 
G00 X1.1191 Y0.4862 
G01 Z-0.0070 F10.00 
G01 X1.1251 Y0.4906 F20.00 
G01 X1.1318 Y0.4940 
G01 X1.1389 Y0.4963 
G01 X1.1463 Y0.4975 
G01 X1.1537 Y0.4975 
G01 X1.1611 Y0.4963 
G01 X1.1682 Y0.4940 
G01 X1.1749 Y0.4906 
G01 X1.1809 Y0.4862 
G01 X1.1862 Y0.4809 
G01 X1.1906 Y0.4749 
G01 X1.1940 Y0.4682 
G01 X1.1963 Y0.4611 
G01 X1.1975 Y0.4537 
G01 X1.1975 Y0.4463 
G01 X1.1963 Y0.4389 
G01 X1.1940 Y0.4318 
G01 X1.1906 Y0.4251 
G01 X1.1862 Y0.4191 
G01 X1.1809 Y0.4138 
G01 X1.1749 Y0.4094 
G01 X1.1682 Y0.4060 
G01 X1.1611 Y0.4037 
G01 X1.1537 Y0.4025 
G01 X1.1463 Y0.4025 
G01 X1.1389 Y0.4037 
G01 X1.1318 Y0.4060 
G01 X1.1251 Y0.4094 
G01 X1.1191 Y0.4138 
G01 X1.1138 Y0.4191 
G01 X1.1094 Y0.4251 
G01 X1.1060 Y0.4318 
G01 X1.1037 Y0.4389 
G01 X1.1025 Y0.4463 
G01 X1.1025 Y0.4537 
G01 X1.1037 Y0.4611 
G01 X1.1060 Y0.4682 
G01 X1.1094 Y0.4749 
G01 X1.1138 Y0.4809 
G01 X1.1191 Y0.4862 
G00 Z0.1000 
G00 X1.1176 Y0.6575 
G01 Z-0.0070 F10.00 
G01 X1.0824 Y0.6575 F20.00 
G01 X1.0575 Y0.6824 
G01 X1.0575 Y0.7176 
G01 X1.0824 Y0.7425 
G01 X1.1176 Y0.7425 
G01 X1.1425 Y0.7176 
G01 X1.1425 Y0.6824 
G01 X1.1176 Y0.6575 
G00 Z0.1000 
G00 X1.2824 Y0.6425 
G01 Z-0.0070 F10.00 
G01 X1.3176 Y0.6425 F20.00 
G01 X1.3425 Y0.6176 
G01 X1.3425 Y0.5824 
G01 X1.3176 Y0.5575 
G01 X1.2824 Y0.5575 
G01 X1.2575 Y0.5824 
G01 X1.2575 Y0.6176 
G01 X1.2824 Y0.6425 
G00 Z0.1000 
G00 X1.4824 Y0.5925 
G01 Z-0.0070 F10.00 
G01 X1.5176 Y0.5925 F20.00 
G01 X1.5425 Y0.5676 
G01 X1.5425 Y0.5324 
G01 X1.5176 Y0.5075 
G01 X1.4824 Y0.5075 
G01 X1.4575 Y0.5324 
G01 X1.4575 Y0.5676 
G01 X1.4824 Y0.5925 
G00 Z0.1000 
G00 X1.7824 Y0.5925 
G01 Z-0.0070 F10.00 
G01 X1.8176 Y0.5925 F20.00 
G01 X1.8425 Y0.5676 
G01 X1.8425 Y0.5324 
G01 X1.8176 Y0.5075 
G01 X1.7824 Y0.5075 
G01 X1.7575 Y0.5324 
G01 X1.7575 Y0.5676 
G01 X1.7824 Y0.5925 
G00 Z0.1000 
G00 X1.7824 Y0.2925 
G01 Z-0.0070 F10.00 
G01 X1.8176 Y0.2925 F20.00 
G01 X1.8425 Y0.2676 
G01 X1.8425 Y0.2324 
G01 X1.8176 Y0.2075 
G01 X1.7824 Y0.2075 
G01 X1.7575 Y0.2324 
G01 X1.7575 Y0.2676 
G01 X1.7824 Y0.2925 
G00 Z0.1000 
G00 X1.5425 Y0.2676 
G01 Z-0.0070 F10.00 
G01 X1.5425 Y0.2324 F20.00 
G01 X1.5176 Y0.2075 
G01 X1.4824 Y0.2075 
G01 X1.4575 Y0.2324 
G01 X1.4575 Y0.2676 
G01 X1.4824 Y0.2925 
G01 X1.5176 Y0.2925 
G01 X1.5425 Y0.2676 
G00 Z0.1000 
G00 X2.0575 Y0.2676 
G01 Z-0.0070 F10.00 
G01 X2.0824 Y0.2925 F20.00 
G01 X2.1176 Y0.2925 
G01 X2.1425 Y0.2676 
G01 X2.1425 Y0.2324 
G01 X2.1176 Y0.2075 
G01 X2.0824 Y0.2075 
G01 X2.0575 Y0.2324 
G01 X2.0575 Y0.2676 
G00 Z0.1000 
G00 X2.0575 Y0.5324 
G01 Z-0.0070 F10.00 
G01 X2.0575 Y0.5676 F20.00 
G01 X2.0824 Y0.5925 
G01 X2.1176 Y0.5925 
G01 X2.1425 Y0.5676 
G01 X2.1425 Y0.5324 
G01 X2.1176 Y0.5075 
G01 X2.0824 Y0.5075 
G01 X2.0575 Y0.5324 
G00 Z0.1000 
G00 X2.4075 Y0.5324 
G01 Z-0.0070 F10.00 
G01 X2.4075 Y0.5676 F20.00 
G01 X2.4324 Y0.5925 
G01 X2.4676 Y0.5925 
G01 X2.4925 Y0.5676 
G01 X2.4925 Y0.5324 
G01 X2.4676 Y0.5075 
G01 X2.4324 Y0.5075 
G01 X2.4075 Y0.5324 
G00 Z0.1000 
G00 X2.8373 Y0.4705 
G01 Z-0.0070 F10.00 
G01 X2.8427 Y0.4745 F20.00 
G01 X2.8487 Y0.4775 
G01 X2.8550 Y0.4796 
G01 X2.8617 Y0.4806 
G01 X2.8683 Y0.4806 
G01 X2.8750 Y0.4796 
G01 X2.8813 Y0.4775 
G01 X2.8873 Y0.4745 
G01 X2.8927 Y0.4705 
G01 X2.8974 Y0.4658 
G01 X2.9013 Y0.4604 
G01 X2.9044 Y0.4544 
G01 X2.9065 Y0.4481 
G01 X2.9075 Y0.4415 
G01 X2.9075 Y0.4348 
G01 X2.9065 Y0.4282 
G01 X2.9044 Y0.4218 
G01 X2.9013 Y0.4159 
G01 X2.8974 Y0.4104 
G01 X2.8927 Y0.4057 
G01 X2.8873 Y0.4018 
G01 X2.8813 Y0.3987 
G01 X2.8750 Y0.3967 
G01 X2.8683 Y0.3956 
G01 X2.8617 Y0.3956 
G01 X2.8550 Y0.3967 
G01 X2.8487 Y0.3987 
G01 X2.8427 Y0.4018 
G01 X2.8373 Y0.4057 
G01 X2.8326 Y0.4104 
G01 X2.8287 Y0.4159 
G01 X2.8256 Y0.4218 
G01 X2.8235 Y0.4282 
G01 X2.8225 Y0.4348 
G01 X2.8225 Y0.4415 
G01 X2.8235 Y0.4481 
G01 X2.8256 Y0.4544 
G01 X2.8287 Y0.4604 
G01 X2.8326 Y0.4658 
G01 X2.8373 Y0.4705 
G00 Z0.1000 
G00 X2.9325 Y0.4557 
G01 Z-0.0070 F10.00 
G01 X2.9574 Y0.4806 F20.00 
G01 X2.9926 Y0.4806 
G01 X3.0175 Y0.4557 
G01 X3.0175 Y0.4205 
G01 X2.9926 Y0.3956 
G01 X2.9574 Y0.3956 
G01 X2.9325 Y0.4205 
G01 X2.9325 Y0.4557 
G00 Z0.1000 
G00 X2.9313 Y0.4013 
G01 Z-0.0070 F10.00 
G01 X2.9373 Y0.3982 F20.00 
G01 X2.9427 Y0.3943 
G01 X2.9474 Y0.3896 
G01 X2.9513 Y0.3841 
G01 X2.9544 Y0.3782 
G01 X2.9565 Y0.3718 
G01 X2.9575 Y0.3652 
G01 X2.9575 Y0.3585 
G01 X2.9565 Y0.3519 
G01 X2.9544 Y0.3456 
G01 X2.9513 Y0.3396 
G01 X2.9474 Y0.3342 
G01 X2.9427 Y0.3295 
G01 X2.9373 Y0.3255 
G01 X2.9313 Y0.3225 
G01 X2.9250 Y0.3204 
G01 X2.9183 Y0.3194 
G01 X2.9117 Y0.3194 
G01 X2.9050 Y0.3204 
G01 X2.8987 Y0.3225 
G01 X2.8927 Y0.3255 
G01 X2.8873 Y0.3295 
G01 X2.8826 Y0.3342 
G01 X2.8787 Y0.3396 
G01 X2.8756 Y0.3456 
G01 X2.8735 Y0.3519 
G01 X2.8725 Y0.3585 
G01 X2.8725 Y0.3652 
G01 X2.8735 Y0.3718 
G01 X2.8756 Y0.3782 
G01 X2.8787 Y0.3841 
G01 X2.8826 Y0.3896 
G01 X2.8873 Y0.3943 
G01 X2.8927 Y0.3982 
G01 X2.8987 Y0.4013 
G01 X2.9050 Y0.4033 
G01 X2.9117 Y0.4044 
G01 X2.9183 Y0.4044 
G01 X2.9250 Y0.4033 
G01 X2.9313 Y0.4013 
G00 Z0.1000 
G00 X3.0073 Y0.3943 
G01 Z-0.0070 F10.00 
G01 X3.0127 Y0.3982 F20.00 
G01 X3.0187 Y0.4013 
G01 X3.0250 Y0.4033 
G01 X3.0317 Y0.4044 
G01 X3.0383 Y0.4044 
G01 X3.0450 Y0.4033 
G01 X3.0513 Y0.4013 
G01 X3.0573 Y0.3982 
G01 X3.0627 Y0.3943 
G01 X3.0674 Y0.3896 
G01 X3.0713 Y0.3841 
G01 X3.0744 Y0.3782 
G01 X3.0765 Y0.3718 
G01 X3.0775 Y0.3652 
G01 X3.0775 Y0.3585 
G01 X3.0765 Y0.3519 
G01 X3.0744 Y0.3456 
G01 X3.0713 Y0.3396 
G01 X3.0674 Y0.3342 
G01 X3.0627 Y0.3295 
G01 X3.0573 Y0.3255 
G01 X3.0513 Y0.3225 
G01 X3.0450 Y0.3204 
G01 X3.0383 Y0.3194 
G01 X3.0317 Y0.3194 
G01 X3.0250 Y0.3204 
G01 X3.0187 Y0.3225 
G01 X3.0127 Y0.3255 
G01 X3.0073 Y0.3295 
G01 X3.0026 Y0.3342 
G01 X2.9987 Y0.3396 
G01 X2.9956 Y0.3456 
G01 X2.9935 Y0.3519 
G01 X2.9925 Y0.3585 
G01 X2.9925 Y0.3652 
G01 X2.9935 Y0.3718 
G01 X2.9956 Y0.3782 
G01 X2.9987 Y0.3841 
G01 X3.0026 Y0.3896 
G01 X3.0073 Y0.3943 
G00 Z0.1000 
G00 X3.3575 Y0.6824 
G01 Z-0.0070 F10.00 
G01 X3.3575 Y0.7176 F20.00 
G01 X3.3824 Y0.7425 
G01 X3.4176 Y0.7425 
G01 X3.4425 Y0.7176 
G01 X3.4425 Y0.6824 
G01 X3.4176 Y0.6575 
G01 X3.3824 Y0.6575 
G01 X3.3575 Y0.6824 
G00 Z0.1000 
G00 X3.5655 Y0.8650 
G01 Z-0.0070 F10.00 
G01 X3.5655 Y0.9350 F20.00 
G01 X3.6150 Y0.9845 
G01 X3.6850 Y0.9845 
G01 X3.7345 Y0.9350 
G01 X3.7345 Y0.8650 
G01 X3.6850 Y0.8155 
G01 X3.6150 Y0.8155 
G01 X3.5655 Y0.8650 
G00 Z0.1000 
G00 X3.4425 Y1.1824 
G01 Z-0.0070 F10.00 
G01 X3.4176 Y1.1575 F20.00 
G01 X3.3824 Y1.1575 
G01 X3.3575 Y1.1824 
G01 X3.3575 Y1.2176 
G01 X3.3824 Y1.2425 
G01 X3.4176 Y1.2425 
G01 X3.4425 Y1.2176 
G01 X3.4425 Y1.1824 
G00 Z0.1000 
G00 X3.1536 Y1.1726 
G01 Z-0.0070 F10.00 
G01 X3.1575 Y1.1668 F20.00 
G01 X3.1601 Y1.1604 
G01 X3.1615 Y1.1535 
G01 X3.1615 Y1.1465 
G01 X3.1601 Y1.1396 
G01 X3.1575 Y1.1332 
G01 X3.1536 Y1.1274 
G01 X3.1486 Y1.1224 
G01 X3.1428 Y1.1185 
G01 X3.1364 Y1.1159 
G01 X3.1295 Y1.1145 
G01 X3.0705 Y1.1145 
G01 X3.0636 Y1.1159 
G01 X3.0572 Y1.1185 
G01 X3.0514 Y1.1224 
G01 X3.0464 Y1.1274 
G01 X3.0425 Y1.1332 
G01 X3.0399 Y1.1396 
G01 X3.0385 Y1.1465 
G01 X3.0385 Y1.1535 
G01 X3.0399 Y1.1604 
G01 X3.0425 Y1.1668 
G01 X3.0464 Y1.1726 
G01 X3.0514 Y1.1776 
G01 X3.0572 Y1.1815 
G01 X3.0636 Y1.1841 
G01 X3.0705 Y1.1855 
G01 X3.1295 Y1.1855 
G01 X3.1364 Y1.1841 
G01 X3.1428 Y1.1815 
G01 X3.1486 Y1.1776 
G01 X3.1536 Y1.1726 
G00 Z0.1000 
G00 X3.1486 Y1.2224 
G01 Z-0.0070 F10.00 
G01 X3.1428 Y1.2185 F20.00 
G01 X3.1364 Y1.2159 
G01 X3.1295 Y1.2145 
G01 X3.0705 Y1.2145 
G01 X3.0636 Y1.2159 
G01 X3.0572 Y1.2185 
G01 X3.0514 Y1.2224 
G01 X3.0464 Y1.2274 
G01 X3.0425 Y1.2332 
G01 X3.0399 Y1.2396 
G01 X3.0385 Y1.2465 
G01 X3.0385 Y1.2535 
G01 X3.0399 Y1.2604 
G01 X3.0425 Y1.2668 
G01 X3.0464 Y1.2726 
G01 X3.0514 Y1.2776 
G01 X3.0572 Y1.2815 
G01 X3.0636 Y1.2841 
G01 X3.0705 Y1.2855 
G01 X3.1295 Y1.2855 
G01 X3.1364 Y1.2841 
G01 X3.1428 Y1.2815 
G01 X3.1486 Y1.2776 
G01 X3.1536 Y1.2726 
G01 X3.1575 Y1.2668 
G01 X3.1601 Y1.2604 
G01 X3.1615 Y1.2535 
G01 X3.1615 Y1.2465 
G01 X3.1601 Y1.2396 
G01 X3.1575 Y1.2332 
G01 X3.1536 Y1.2274 
G01 X3.1486 Y1.2224 
G00 Z0.1000 
G00 X3.1486 Y1.3224 
G01 Z-0.0070 F10.00 
G01 X3.1428 Y1.3185 F20.00 
G01 X3.1364 Y1.3159 
G01 X3.1295 Y1.3145 
G01 X3.0705 Y1.3145 
G01 X3.0636 Y1.3159 
G01 X3.0572 Y1.3185 
G01 X3.0514 Y1.3224 
G01 X3.0464 Y1.3274 
G01 X3.0425 Y1.3332 
G01 X3.0399 Y1.3396 
G01 X3.0385 Y1.3465 
G01 X3.0385 Y1.3535 
G01 X3.0399 Y1.3604 
G01 X3.0425 Y1.3668 
G01 X3.0464 Y1.3726 
G01 X3.0514 Y1.3776 
G01 X3.0572 Y1.3815 
G01 X3.0636 Y1.3841 
G01 X3.0705 Y1.3855 
G01 X3.1295 Y1.3855 
G01 X3.1364 Y1.3841 
G01 X3.1428 Y1.3815 
G01 X3.1486 Y1.3776 
G01 X3.1536 Y1.3726 
G01 X3.1575 Y1.3668 
G01 X3.1601 Y1.3604 
G01 X3.1615 Y1.3535 
G01 X3.1615 Y1.3465 
G01 X3.1601 Y1.3396 
G01 X3.1575 Y1.3332 
G01 X3.1536 Y1.3274 
G01 X3.1486 Y1.3224 
G00 Z0.1000 
G00 X3.1486 Y1.4224 
G01 Z-0.0070 F10.00 
G01 X3.1428 Y1.4185 F20.00 
G01 X3.1364 Y1.4159 
G01 X3.1295 Y1.4145 
G01 X3.0705 Y1.4145 
G01 X3.0636 Y1.4159 
G01 X3.0572 Y1.4185 
G01 X3.0514 Y1.4224 
G01 X3.0464 Y1.4274 
G01 X3.0425 Y1.4332 
G01 X3.0399 Y1.4396 
G01 X3.0385 Y1.4465 
G01 X3.0385 Y1.4535 
G01 X3.0399 Y1.4604 
G01 X3.0425 Y1.4668 
G01 X3.0464 Y1.4726 
G01 X3.0514 Y1.4776 
G01 X3.0572 Y1.4815 
G01 X3.0636 Y1.4841 
G01 X3.0705 Y1.4855 
G01 X3.1295 Y1.4855 
G01 X3.1364 Y1.4841 
G01 X3.1428 Y1.4815 
G01 X3.1486 Y1.4776 
G01 X3.1536 Y1.4726 
G01 X3.1575 Y1.4668 
G01 X3.1601 Y1.4604 
G01 X3.1615 Y1.4535 
G01 X3.1615 Y1.4465 
G01 X3.1601 Y1.4396 
G01 X3.1575 Y1.4332 
G01 X3.1536 Y1.4274 
G01 X3.1486 Y1.4224 
G00 Z0.1000 
G00 X3.1486 Y1.5224 
G01 Z-0.0070 F10.00 
G01 X3.1428 Y1.5185 F20.00 
G01 X3.1364 Y1.5159 
G01 X3.1295 Y1.5145 
G01 X3.0705 Y1.5145 
G01 X3.0636 Y1.5159 
G01 X3.0572 Y1.5185 
G01 X3.0514 Y1.5224 
G01 X3.0464 Y1.5274 
G01 X3.0425 Y1.5332 
G01 X3.0399 Y1.5396 
G01 X3.0385 Y1.5465 
G01 X3.0385 Y1.5535 
G01 X3.0399 Y1.5604 
G01 X3.0425 Y1.5668 
G01 X3.0464 Y1.5726 
G01 X3.0514 Y1.5776 
G01 X3.0572 Y1.5815 
G01 X3.0636 Y1.5841 
G01 X3.0705 Y1.5855 
G01 X3.1295 Y1.5855 
G01 X3.1364 Y1.5841 
G01 X3.1428 Y1.5815 
G01 X3.1486 Y1.5776 
G01 X3.1536 Y1.5726 
G01 X3.1575 Y1.5668 
G01 X3.1601 Y1.5604 
G01 X3.1615 Y1.5535 
G01 X3.1615 Y1.5465 
G01 X3.1601 Y1.5396 
G01 X3.1575 Y1.5332 
G01 X3.1536 Y1.5274 
G01 X3.1486 Y1.5224 
G00 Z0.1000 
G00 X3.1486 Y1.6224 
G01 Z-0.0070 F10.00 
G01 X3.1428 Y1.6185 F20.00 
G01 X3.1364 Y1.6159 
G01 X3.1295 Y1.6145 
G01 X3.0705 Y1.6145 
G01 X3.0636 Y1.6159 
G01 X3.0572 Y1.6185 
G01 X3.0514 Y1.6224 
G01 X3.0464 Y1.6274 
G01 X3.0425 Y1.6332 
G01 X3.0399 Y1.6396 
G01 X3.0385 Y1.6465 
G01 X3.0385 Y1.6535 
G01 X3.0399 Y1.6604 
G01 X3.0425 Y1.6668 
G01 X3.0464 Y1.6726 
G01 X3.0514 Y1.6776 
G01 X3.0572 Y1.6815 
G01 X3.0636 Y1.6841 
