(.../pcb-gcode-3.6.2.4/pcb-gcode.ulp)
(Copyright 2005 - 2012 by John Johnson)
(See readme.txt for licensing terms.)
(This file generated from the board:)
(.../CNC/3D-Printer/Cooler-7805.brd)
(Current profile is .../pcb-gcode-3.6.2.4/profiles/emc.pp  )
(This file generated 7/15/2017 3:24 PM)
(Settings from pcb-machine.h)
(spindle on time = 3.0000)
(spindle speed = 20000.0000)
(tool change at 0.0000 0.0000 1.0000 )
(feed rate xy = F0.00  )
(feed rate z  = F20.00 )
(Z Axis Settings)
(  High     Up        Down     Drill)
(0.5000 	0.1000 	-0.0070 	-0.0320 )
(Settings from pcb-defaults.h)
(isolate min = 0.0010)
(isolate max = 0.0200)
(isolate step = 0.0050)
(Generated top outlines, top drill, bottom outlines, bottom drill, )
(Unit of measure: inch)
( Tool|       Size       |  Min Sub |  Max Sub |   Count )
( T01 | 0.600mm 0.0236in | 0.0000in | 0.0000in |       0 )
( T02 | 0.800mm 0.0315in | 0.0000in | 0.0000in |       0 )
( T03 | 0.813mm 0.0320in | 0.0000in | 0.0000in |       0 )
( T04 | 1.100mm 0.0433in | 0.0000in | 0.0000in |       0 )
( T05 | 1.118mm 0.0440in | 0.0000in | 0.0000in |       0 )
( T06 | 1.397mm 0.0550in | 0.0000in | 0.0000in |       0 )
( T07 | 3.302mm 0.1300in | 0.0000in | 0.0000in |       0 )
(Inch Mode)
G20
(Absolute Coordinates)
G90
S20000
G00 Z0.5000 
G00 X0.0000 Y0.0000 
M03
G04 P3.000000
M05
G00 Z1.0000 
M06 T01 (0.0236 )
G01 Z0.0000 F20.00 
M06 
G00 Z0.1000 
M03
G04 P3.000000
G82 X0.1000 Y1.0500 Z-0.0320 F20.00 R0.1000 P1.000000
G82 X0.1000 Y1.2000 
M05
G00 Z1.0000 
G00 X0.0000 Y0.0000 
M06 T02 (0.0315 )
G01 Z0.0000 F20.00 
M06 
G00 Z0.1000 
M03
G04 P3.000000
G82 X2.8650 Y0.4381 Z-0.0320 F20.00 R0.1000 P1.000000
G82 X2.9150 Y0.3619 
G82 X2.9750 Y0.4381 
G82 X3.0350 Y0.3619 
M05
G00 Z1.0000 
G00 X0.0000 Y0.0000 
M06 T03 (0.0320 )
G01 Z0.0000 F20.00 
M06 
G00 Z0.1000 
M03
G04 P3.000000
G82 X0.4000 Y1.4500 Z-0.0320 F20.00 R0.1000 P1.000000
G82 X0.6500 Y1.4500 
G82 X0.5000 Y1.2000 
G82 X0.5000 Y1.0500 
G82 X0.9000 Y1.0500 
G82 X0.9000 Y1.2000 
G82 X1.1000 Y1.2000 
G82 X1.3000 Y1.1000 
G82 X1.1000 Y0.7000 
G82 X1.3000 Y0.6000 
G82 X2.4500 Y0.5500 
G82 X2.4500 Y1.0500 
G82 X2.8000 Y1.0500 
G82 X2.8000 Y1.1500 
G82 X2.8000 Y1.2500 
G82 X2.8000 Y1.3500 
G82 X2.8000 Y1.4500 
G82 X2.8000 Y1.5500 
G82 X2.8000 Y1.6500 
G82 X2.8000 Y1.7500 
G82 X2.7500 Y1.9500 
G82 X2.7500 Y2.2500 
G82 X2.8500 Y2.2500 
G82 X2.9500 Y2.2500 
G82 X2.9500 Y2.5000 
G82 X2.5500 Y2.5000 
G82 X2.3500 Y2.3000 
G82 X2.3500 Y2.7000 
G82 X3.1500 Y1.9500 
G82 X3.1000 Y1.7500 
G82 X3.1000 Y1.6500 
G82 X3.1000 Y1.5500 
G82 X3.1000 Y1.4500 
G82 X3.1000 Y1.3500 
G82 X3.1000 Y1.2500 
G82 X3.1000 Y1.1500 
G82 X3.1000 Y1.0500 
G82 X3.4000 Y1.2000 
G82 X3.4000 Y0.7000 
G82 X0.6500 Y1.8500 
G82 X0.4000 Y1.8500 
M05
G00 Z1.0000 
G00 X0.0000 Y0.0000 
M06 T04 (0.0433 )
G01 Z0.0000 F20.00 
M06 
G00 Z0.1000 
M03
G04 P3.000000
G82 X1.5500 Y1.0000 Z-0.0320 F20.00 R0.1000 P1.000000
G82 X1.5500 Y1.1000 
G82 X1.5500 Y1.2000 
G82 X1.5500 Y1.3000 
G82 X1.5500 Y1.4000 
G82 X1.5500 Y1.5000 
G82 X1.5500 Y1.6000 
G82 X1.5500 Y1.7000 
G82 X1.5500 Y1.8000 
G82 X1.5500 Y1.9000 
G82 X1.5500 Y2.0000 
G82 X1.5500 Y2.1000 
G82 X1.5500 Y2.2000 
G82 X1.5500 Y2.3000 
G82 X1.5500 Y2.4000 
G82 X1.5500 Y2.5000 
G82 X1.5500 Y2.6000 
G82 X2.1500 Y2.6000 
G82 X2.1500 Y2.5000 
G82 X2.1500 Y2.4000 
G82 X2.1500 Y2.3000 
G82 X2.1500 Y2.2000 
G82 X2.1500 Y2.1000 
G82 X2.1500 Y2.0000 
G82 X2.1500 Y1.9000 
G82 X2.1500 Y1.8000 
G82 X2.1500 Y1.7000 
G82 X2.1500 Y1.6000 
G82 X2.1500 Y1.5000 
G82 X2.1500 Y1.4000 
G82 X2.1500 Y1.3000 
G82 X2.1500 Y1.2000 
G82 X2.1500 Y1.1000 
G82 X2.1500 Y1.0000 
M05
G00 Z1.0000 
G00 X0.0000 Y0.0000 
M06 T05 (0.0440 )
G01 Z0.0000 F20.00 
M06 
G00 Z0.1000 
M03
G04 P3.000000
G82 X0.2000 Y1.4500 Z-0.0320 F20.00 R0.1000 P1.000000
G82 X0.2000 Y1.7500 
G82 X0.8500 Y1.7500 
G82 X0.8500 Y1.4500 
G82 X0.5000 Y0.8500 
G82 X0.5000 Y0.7500 
G82 X0.5000 Y0.6500 
G82 X0.7500 Y0.4500 
G82 X1.1500 Y0.4500 
G82 X1.5000 Y0.5500 
G82 X1.5000 Y0.2500 
G82 X1.8000 Y0.2500 
G82 X1.8000 Y0.5500 
G82 X2.1000 Y0.5500 
G82 X2.1000 Y0.2500 
M05
G00 Z1.0000 
G00 X0.0000 Y0.0000 
M06 T06 (0.0550 )
G01 Z0.0000 F20.00 
M06 
G00 Z0.1000 
M03
G04 P3.000000
G82 X0.2000 Y0.5500 Z-0.0320 F20.00 R0.1000 P1.000000
G82 X0.2000 Y0.8500 
G82 X0.4000 Y2.0500 
G82 X0.6500 Y2.0500 
G82 X0.5500 Y2.4500 
G82 X0.8000 Y2.4500 
G82 X1.0500 Y2.4500 
G82 X1.3000 Y2.4500 
G82 X1.3000 Y2.7500 
G82 X1.0500 Y2.7500 
G82 X0.8000 Y2.7500 
G82 X0.5500 Y2.7500 
G82 X1.1000 Y2.0500 
G82 X1.1000 Y1.8000 
G82 X2.3500 Y2.0500 
G82 X3.6500 Y1.5500 
G82 X3.6500 Y0.9000 
M05
G00 Z1.0000 
G00 X0.0000 Y0.0000 
M06 T07 (0.1300 )
G01 Z0.0000 F20.00 
M06 
G00 Z0.1000 
M03
G04 P3.000000
G82 X-0.0900 Y0.7500 Z-0.0320 F20.00 R0.1000 P1.000000
T01 
G00 Z0.5000 
M05
M02
