N00000 (.../pcb-gcode-3.6.2.4/pcb-gcode.ulp)
N00010 (Copyright 2005 - 2012 by John Johnson)
N00020 (See readme.txt for licensing terms.)
N00030 (This file generated from the board:)
N00040 (.../Q-Berry2/BreakOut/1-HomeSwitch.brd)
N00050 (Current profile is .../pcb-gcode-3.6.2.4/profiles/emc.pp  )
N00060 (This file generated 5/6/2015 7:12:07 PM)
N00070 (Settings from pcb-machine.h)
N00080 (spindle on time = 3.0000)
N00090 (spindle speed = 20000.0000)
N00100 (tool change at 0.0000 0.0000 25.4000 )
N00110 (feed rate xy = F0.00  )
N00120 (feed rate z  = F508.00 )
N00130 (Z Axis Settings)
N00140 (  High     Up        Down     Drill)
N00150 (12.0000 	3.0000 	-0.0900 	-4.1111 )
N00160 (Settings from pcb-defaults.h)
N00170 (isolate min = 0.0254)
N00180 (isolate max = 0.5080)
N00190 (isolate step = 0.2540)
N00200 (Generated top outlines, top drill, bottom outlines, bottom drill, )
N00210 (Unit of measure: mm)
N00220 ( Tool|       Size       |  Min Sub |  Max Sub |   Count )
N00230 ( T01 | 0.813mm 0.0320in | 0.0000in | 0.0000in |       0 )
N00240 ( T02 | 1.000mm 0.0394in | 0.0000in | 0.0000in |       0 )
N00250 ( T03 | 3.100mm 0.1220in | 0.0000in | 0.0000in |       0 )
N00260 (Metric Mode)
N00270 G21
N00280 (Absolute Coordinates)
N00290 G90
N00300 S20000
N00310 G00 Z12.0000 
N00320 G00 X0.0000 Y0.0000 
N00330 M03
N00340 G04 P3.000000
N00350 M05
N00360 G00 Z25.4000 
N00370 M06 T01 (0.8128 )
N00380 G00 Z3.0000 
N00390 M03
N00400 G04 P3.000000
N00410 G00 X-12.7000 Y15.2400 
N00420 G01 Z-4.1111 F508.00 
N00430 G00 Z3.0000 
N00440 G00 X-12.7000 Y17.7800 
N00450 G01 Z-4.1111 F508.00 
N00460 G00 Z3.0000 
N00470 G00 X-12.7000 Y22.8600 
N00480 G01 Z-4.1111 F508.00 
N00490 G00 Z3.0000 
N00500 G00 X-12.7000 Y25.4000 
N00510 G01 Z-4.1111 F508.00 
N00520 G00 Z3.0000 
N00530 G00 X-12.7900 Y6.3500 
N00540 G01 Z-4.1111 F508.00 
N00550 G00 Z3.0000 
N00560 G00 X-14.0600 Y4.4450 
N00570 G01 Z-4.1111 F508.00 
N00580 G00 Z3.0000 
N00590 G00 X-15.3300 Y6.3500 
N00600 G01 Z-4.1111 F508.00 
N00610 G00 Z3.0000 
N00620 M05
N00630 G00 Z25.4000 
N00640 G00 X0.0000 Y0.0000 
N00650 M06 T02 (1.0000 )
N00660 G00 Z3.0000 
N00670 M03
N00680 G04 P3.000000
N00690 G00 X-5.0800 Y6.3500 
N00700 G01 Z-4.1111 F508.00 
N00710 G00 Z3.0000 
N00720 G00 X-5.0800 Y8.8900 
N00730 G01 Z-4.1111 F508.00 
N00740 G00 Z3.0000 
N00750 G00 X-5.0800 Y11.4300 
N00760 G01 Z-4.1111 F508.00 
N00770 G00 Z3.0000 
N00780 M05
N00790 G00 Z25.4000 
N00800 G00 X0.0000 Y0.0000 
N00810 M06 T03 (3.1000 )
N00820 G00 Z3.0000 
N00830 M03
N00840 G04 P3.000000
N00850 G00 X-5.0800 Y26.6700 
N00860 G01 Z-4.1111 F508.00 
N00870 G00 Z3.0000 
N00880 G00 X-20.3200 Y5.0800 
N00890 G01 Z-4.1111 F508.00 
N00900 G00 Z3.0000 
N00910 T01 
N00920 G00 Z12.0000 
N00930 M05
N00940 M02
