N00000 (.../pcb-gcode-3.6.2.4/pcb-gcode.ulp)
N00010 (Copyright 2005 - 2012 by John Johnson)
N00020 (See readme.txt for licensing terms.)
N00030 (This file generated from the board:)
N00040 (.../Q-Berry2/BreakOut/1-HomeSwitch.brd)
N00050 (Current profile is .../pcb-gcode-3.6.2.4/profiles/emc.pp  )
N00060 (This file generated 5/6/2015 7:12:05 PM)
N00070 (Settings from pcb-machine.h)
N00080 (spindle on time = 3.0000)
N00090 (  Tool Size)
N00100 (0.1778 )
N00110 (spindle speed = 30000.0000)
N00120 (tool change at 0.0000 0.0000 25.4000 )
N00130 (feed rate xy = F508.00 )
N00140 (feed rate z  = F254.00 )
N00150 (Z Axis Settings)
N00160 (  High     Up        Down     Drill)
N00170 (12.0000 	3.0000 	-0.0900 	-4.1111 )
N00180 (Settings from pcb-defaults.h)
N00190 (isolate min = 0.0254)
N00200 (isolate max = 0.5080)
N00210 (isolate step = 0.2540)
N00220 (Generated top outlines, top drill, bottom outlines, bottom drill, )
N00230 (Unit of measure: mm)
N00240 (Metric Mode)
N00250 G21
N00260 (Absolute Coordinates)
N00270 G90
N00280 S30000
N00290 G00 Z12.0000 
N00300 G00 X0.0000 Y0.0000 
N00310 M03
N00320 G04 P3.000000
N00330 G00 Z3.0000 
N00340 G00 X-3.8197 Y5.5924 
N00350 G01 Z-0.0900 F254.00 
N00360 G01 X-3.5684 Y5.8438 F508.00 
N00370 G01 X-3.4323 Y6.1722 
N00380 G01 X-3.4323 Y6.5278 
N00390 G01 X-3.5684 Y6.8562 
N00400 G01 X-3.8197 Y7.1076 
N00410 G01 X-4.1482 Y7.2437 
N00420 G01 X-6.0118 Y7.2437 
N00430 G01 X-6.3402 Y7.1076 
N00440 G01 X-6.5916 Y6.8562 
N00450 G01 X-6.7277 Y6.5278 
N00460 G01 X-6.7277 Y6.1722 
N00470 G01 X-6.5916 Y5.8438 
N00480 G01 X-6.3402 Y5.5924 
N00490 G01 X-6.0118 Y5.4563 
N00500 G01 X-4.1482 Y5.4563 
N00510 G01 X-3.8197 Y5.5924 
N00520 G00 Z3.0000 
N00530 G00 X-3.9147 Y5.5805 
N00540 G01 Z-0.0900 F254.00 
N00550 G01 X-4.0727 Y5.5151 F508.00 
N00560 G01 X-4.2405 Y5.4817 
N00570 G01 X-5.9195 Y5.4817 
N00580 G01 X-6.0873 Y5.5151 
N00590 G01 X-6.2453 Y5.5805 
N00600 G01 X-6.3875 Y5.6755 
N00610 G01 X-6.5084 Y5.7965 
N00620 G01 X-6.6035 Y5.9387 
N00630 G01 X-6.6689 Y6.0967 
N00640 G01 X-6.7023 Y6.2645 
N00650 G01 X-6.7023 Y6.4355 
N00660 G01 X-6.6689 Y6.6033 
N00670 G01 X-6.6035 Y6.7613 
N00680 G01 X-6.5084 Y6.9035 
N00690 G01 X-6.3875 Y7.0244 
N00700 G01 X-6.2453 Y7.1195 
N00710 G01 X-6.0873 Y7.1849 
N00720 G01 X-5.9195 Y7.2183 
N00730 G01 X-4.2405 Y7.2183 
N00740 G01 X-4.0727 Y7.1849 
N00750 G01 X-3.9147 Y7.1195 
N00760 G01 X-3.7725 Y7.0244 
N00770 G01 X-3.6515 Y6.9035 
N00780 G01 X-3.5565 Y6.7613 
N00790 G01 X-3.4911 Y6.6033 
N00800 G01 X-3.4577 Y6.4355 
N00810 G01 X-3.4577 Y6.2645 
N00820 G01 X-3.4911 Y6.0967 
N00830 G01 X-3.5565 Y5.9387 
N00840 G01 X-3.6515 Y5.7965 
N00850 G01 X-3.7725 Y5.6755 
N00860 G01 X-3.9147 Y5.5805 
N00870 G00 Z3.0000 
N00880 G00 X-3.9147 Y8.1205 
N00890 G01 Z-0.0900 F254.00 
N00900 G01 X-4.0727 Y8.0551 F508.00 
N00910 G01 X-4.2405 Y8.0217 
N00920 G01 X-4.7157 Y8.0217 
N00930 G01 X-4.7157 Y7.9963 
N00940 G01 X-4.2557 Y7.9963 
N00950 G01 X-4.1167 Y8.0183 
N00960 G01 X-3.9829 Y8.0618 
N00970 G01 X-3.8576 Y8.1256 
N00980 G01 X-3.7438 Y8.2083 
N00990 G01 X-3.6443 Y8.3078 
N01000 G01 X-3.5616 Y8.4216 
N01010 G01 X-3.5086 Y8.5257 
N01020 G01 X-3.5371 Y8.5257 
N01030 G01 X-3.5565 Y8.4787 
N01040 G01 X-3.6515 Y8.3365 
N01050 G01 X-3.7725 Y8.2155 
N01060 G01 X-3.9147 Y8.1205 
N01070 G00 Z3.0000 
N01080 G00 X-3.5371 Y9.2543 
N01090 G01 Z-0.0900 F254.00 
N01100 G01 X-3.5086 Y9.2543 F508.00 
N01110 G01 X-3.5616 Y9.3584 
N01120 G01 X-3.6443 Y9.4722 
N01130 G01 X-3.7438 Y9.5717 
N01140 G01 X-3.8576 Y9.6544 
N01150 G01 X-3.9829 Y9.7182 
N01160 G01 X-4.1167 Y9.7617 
N01170 G01 X-4.2557 Y9.7837 
N01180 G01 X-4.7157 Y9.7837 
N01190 G01 X-4.7157 Y9.7583 
N01200 G01 X-4.2405 Y9.7583 
N01210 G01 X-4.0727 Y9.7249 
N01220 G01 X-3.9147 Y9.6595 
N01230 G01 X-3.7725 Y9.5645 
N01240 G01 X-3.6515 Y9.4435 
N01250 G01 X-3.5565 Y9.3013 
N01260 G01 X-3.5371 Y9.2543 
N01270 G00 Z3.0000 
N01280 G00 X-3.8197 Y10.6724 
N01290 G01 Z-0.0900 F254.00 
N01300 G01 X-3.5684 Y10.9238 F508.00 
N01310 G01 X-3.4323 Y11.2522 
N01320 G01 X-3.4323 Y11.6078 
N01330 G01 X-3.5684 Y11.9362 
N01340 G01 X-3.8197 Y12.1876 
N01350 G01 X-4.1482 Y12.3237 
N01360 G01 X-6.0118 Y12.3237 
N01370 G01 X-6.3402 Y12.1876 
N01380 G01 X-6.5916 Y11.9362 
N01390 G01 X-6.7277 Y11.6078 
N01400 G01 X-6.7277 Y11.2522 
N01410 G01 X-6.5916 Y10.9238 
N01420 G01 X-6.3402 Y10.6724 
N01430 G01 X-6.0118 Y10.5363 
N01440 G01 X-4.1482 Y10.5363 
N01450 G01 X-3.8197 Y10.6724 
N01460 G00 Z3.0000 
N01470 G00 X-3.9147 Y10.6605 
N01480 G01 Z-0.0900 F254.00 
N01490 G01 X-4.0727 Y10.5951 F508.00 
N01500 G01 X-4.2405 Y10.5617 
N01510 G01 X-5.9195 Y10.5617 
N01520 G01 X-6.0873 Y10.5951 
N01530 G01 X-6.2453 Y10.6605 
N01540 G01 X-6.3875 Y10.7555 
N01550 G01 X-6.5084 Y10.8765 
N01560 G01 X-6.6035 Y11.0187 
N01570 G01 X-6.6689 Y11.1767 
N01580 G01 X-6.7023 Y11.3445 
N01590 G01 X-6.7023 Y11.5155 
N01600 G01 X-6.6689 Y11.6833 
N01610 G01 X-6.6035 Y11.8413 
N01620 G01 X-6.5084 Y11.9835 
N01630 G01 X-6.3875 Y12.1044 
N01640 G01 X-6.2453 Y12.1995 
N01650 G01 X-6.0873 Y12.2649 
N01660 G01 X-5.9195 Y12.2983 
N01670 G01 X-4.2405 Y12.2983 
N01680 G01 X-4.0727 Y12.2649 
N01690 G01 X-3.9147 Y12.1995 
N01700 G01 X-3.7725 Y12.1044 
N01710 G01 X-3.6515 Y11.9835 
N01720 G01 X-3.5565 Y11.8413 
N01730 G01 X-3.4911 Y11.6833 
N01740 G01 X-3.4577 Y11.5155 
N01750 G01 X-3.4577 Y11.3445 
N01760 G01 X-3.4911 Y11.1767 
N01770 G01 X-3.5565 Y11.0187 
N01780 G01 X-3.6515 Y10.8765 
N01790 G01 X-3.7725 Y10.7555 
N01800 G01 X-3.9147 Y10.6605 
N01810 G00 Z3.0000 
N01820 G00 X-5.4443 Y9.7837 
N01830 G01 Z-0.0900 F254.00 
N01840 G01 X-5.9043 Y9.7837 F508.00 
N01850 G01 X-6.0433 Y9.7617 
N01860 G01 X-6.1771 Y9.7182 
N01870 G01 X-6.3024 Y9.6544 
N01880 G01 X-6.4162 Y9.5717 
N01890 G01 X-6.5157 Y9.4722 
N01900 G01 X-6.5984 Y9.3584 
N01910 G01 X-6.6514 Y9.2543 
N01920 G01 X-6.6229 Y9.2543 
N01930 G01 X-6.6035 Y9.3013 
N01940 G01 X-6.5084 Y9.4435 
N01950 G01 X-6.3875 Y9.5645 
N01960 G01 X-6.2453 Y9.6595 
N01970 G01 X-6.0873 Y9.7249 
N01980 G01 X-5.9195 Y9.7583 
N01990 G01 X-5.4443 Y9.7583 
N02000 G01 X-5.4443 Y9.7837 
N02010 G00 Z3.0000 
N02020 G00 X-5.4443 Y8.0217 
N02030 G01 Z-0.0900 F254.00 
N02040 G01 X-5.9195 Y8.0217 F508.00 
N02050 G01 X-6.0873 Y8.0551 
N02060 G01 X-6.2453 Y8.1205 
N02070 G01 X-6.3875 Y8.2155 
N02080 G01 X-6.5084 Y8.3365 
N02090 G01 X-6.6035 Y8.4787 
N02100 G01 X-6.6229 Y8.5257 
N02110 G01 X-6.6514 Y8.5257 
N02120 G01 X-6.5984 Y8.4216 
N02130 G01 X-6.5157 Y8.3078 
N02140 G01 X-6.4162 Y8.2083 
N02150 G01 X-6.3024 Y8.1256 
N02160 G01 X-6.1771 Y8.0618 
N02170 G01 X-6.0433 Y8.0183 
N02180 G01 X-5.9043 Y7.9963 
N02190 G01 X-5.4443 Y7.9963 
N02200 G01 X-5.4443 Y8.0217 
N02210 G00 Z3.0000 
N02220 G00 X-11.9899 Y6.6814 
N02230 G01 Z-0.0900 F254.00 
N02240 G01 X-12.4586 Y7.1501 F508.00 
N02250 G01 X-13.1214 Y7.1501 
N02260 G01 X-13.5901 Y6.6814 
N02270 G01 X-13.5901 Y6.0186 
N02280 G01 X-13.1214 Y5.5499 
N02290 G01 X-12.4586 Y5.5499 
N02300 G01 X-11.9899 Y6.0186 
N02310 G01 X-11.9899 Y6.6814 
N02320 G00 Z3.0000 
N02330 G00 X-12.0153 Y6.6709 
N02340 G01 Z-0.0900 F254.00 
N02350 G01 X-12.0153 Y6.0291 F508.00 
N02360 G01 X-12.4691 Y5.5753 
N02370 G01 X-13.1109 Y5.5753 
N02380 G01 X-13.5647 Y6.0291 
N02390 G01 X-13.5647 Y6.6709 
N02400 G01 X-13.1109 Y7.1247 
N02410 G01 X-12.4691 Y7.1247 
N02420 G01 X-12.0153 Y6.6709 
N02430 G00 Z3.0000 
N02440 G00 X-14.5299 Y6.6814 
N02450 G01 Z-0.0900 F254.00 
N02460 G01 X-14.9986 Y7.1501 F508.00 
N02470 G01 X-15.6614 Y7.1501 
N02480 G01 X-16.1301 Y6.6814 
N02490 G01 X-16.1301 Y6.0186 
N02500 G01 X-15.6614 Y5.5499 
N02510 G01 X-14.9986 Y5.5499 
N02520 G01 X-14.5299 Y6.0186 
N02530 G01 X-14.5299 Y6.6814 
N02540 G00 Z3.0000 
N02550 G00 X-14.5553 Y6.6709 
N02560 G01 Z-0.0900 F254.00 
N02570 G01 X-14.5553 Y6.0291 F508.00 
N02580 G01 X-15.0091 Y5.5753 
N02590 G01 X-15.6509 Y5.5753 
N02600 G01 X-16.1047 Y6.0291 
N02610 G01 X-16.1047 Y6.6709 
N02620 G01 X-15.6509 Y7.1247 
N02630 G01 X-15.0091 Y7.1247 
N02640 G01 X-14.5553 Y6.6709 
N02650 G00 Z3.0000 
N02660 G00 X-14.3914 Y5.2451 
N02670 G01 Z-0.0900 F254.00 
N02680 G01 X-14.8601 Y4.7764 F508.00 
N02690 G01 X-14.8601 Y4.7625 
N02700 G01 X-14.8347 Y4.7625 
N02710 G01 X-14.8347 Y4.7659 
N02720 G01 X-14.3809 Y5.2197 
N02730 G01 X-14.3775 Y5.2197 
N02740 G01 X-14.3775 Y5.2451 
N02750 G01 X-14.3914 Y5.2451 
N02760 G00 Z3.0000 
N02770 G00 X-13.7425 Y5.2451 
N02780 G01 Z-0.0900 F254.00 
N02790 G01 X-13.7425 Y5.2197 F508.00 
N02800 G01 X-13.7391 Y5.2197 
N02810 G01 X-13.2853 Y4.7659 
N02820 G01 X-13.2853 Y4.7625 
N02830 G01 X-13.2599 Y4.7625 
N02840 G01 X-13.2599 Y4.7764 
N02850 G01 X-13.7286 Y5.2451 
N02860 G01 X-13.7425 Y5.2451 
N02870 G00 Z3.0000 
N02880 G00 X-13.2853 Y4.1275 
N02890 G01 Z-0.0900 F254.00 
N02900 G01 X-13.2853 Y4.1241 F508.00 
N02910 G01 X-13.7391 Y3.6703 
N02920 G01 X-13.7425 Y3.6703 
N02930 G01 X-13.7425 Y3.6449 
N02940 G01 X-13.7286 Y3.6449 
N02950 G01 X-13.2599 Y4.1136 
N02960 G01 X-13.2599 Y4.1275 
N02970 G01 X-13.2853 Y4.1275 
N02980 G00 Z3.0000 
N02990 G00 X-14.3775 Y3.6703 
N03000 G01 Z-0.0900 F254.00 
N03010 G01 X-14.3809 Y3.6703 F508.00 
N03020 G01 X-14.8347 Y4.1241 
N03030 G01 X-14.8347 Y4.1275 
N03040 G01 X-14.8601 Y4.1275 
N03050 G01 X-14.8601 Y4.1136 
N03060 G01 X-14.3914 Y3.6449 
N03070 G01 X-14.3775 Y3.6449 
N03080 G01 X-14.3775 Y3.6703 
N03090 G00 Z3.0000 
N03100 G00 X-18.3581 Y3.5746 
N03110 G01 Z-0.0900 F254.00 
N03120 G01 X-18.0354 Y4.1337 F508.00 
N03130 G01 X-17.8683 Y4.7572 
N03140 G01 X-17.8683 Y5.4028 
N03150 G01 X-18.0354 Y6.0263 
N03160 G01 X-18.3581 Y6.5854 
N03170 G01 X-18.8146 Y7.0418 
N03180 G01 X-19.3737 Y7.3646 
N03190 G01 X-19.9972 Y7.5317 
N03200 G01 X-20.6428 Y7.5317 
N03210 G01 X-21.2663 Y7.3646 
N03220 G01 X-21.8254 Y7.0418 
N03230 G01 X-22.2818 Y6.5854 
N03240 G01 X-22.6046 Y6.0263 
N03250 G01 X-22.7717 Y5.4028 
N03260 G01 X-22.7717 Y4.7572 
N03270 G01 X-22.6046 Y4.1337 
N03280 G01 X-22.2818 Y3.5746 
N03290 G01 X-21.8254 Y3.1181 
N03300 G01 X-21.2663 Y2.7954 
N03310 G01 X-20.6428 Y2.6283 
N03320 G01 X-19.9972 Y2.6283 
N03330 G01 X-19.3737 Y2.7954 
N03340 G01 X-18.8146 Y3.1181 
N03350 G01 X-18.3581 Y3.5746 
N03360 G00 Z3.0000 
N03370 G00 X-13.5001 Y14.9086 
N03380 G01 Z-0.0900 F254.00 
N03390 G01 X-13.0314 Y14.4399 F508.00 
N03400 G01 X-13.0175 Y14.4399 
N03410 G01 X-13.0175 Y14.4653 
N03420 G01 X-13.0209 Y14.4653 
N03430 G01 X-13.4747 Y14.9191 
N03440 G01 X-13.4747 Y14.9225 
N03450 G01 X-13.5001 Y14.9225 
N03460 G01 X-13.5001 Y14.9086 
N03470 G00 Z3.0000 
N03480 G00 X-13.5001 Y15.5575 
N03490 G01 Z-0.0900 F254.00 
N03500 G01 X-13.4747 Y15.5575 F508.00 
N03510 G01 X-13.4747 Y15.5609 
N03520 G01 X-13.0209 Y16.0147 
N03530 G01 X-13.0175 Y16.0147 
N03540 G01 X-13.0175 Y16.0401 
N03550 G01 X-13.0314 Y16.0401 
N03560 G01 X-13.5001 Y15.5714 
N03570 G01 X-13.5001 Y15.5575 
N03580 G00 Z3.0000 
N03590 G00 X-11.9253 Y15.5575 
N03600 G01 Z-0.0900 F254.00 
N03610 G01 X-11.8999 Y15.5575 F508.00 
N03620 G01 X-11.8999 Y15.5714 
N03630 G01 X-12.3686 Y16.0401 
N03640 G01 X-12.3825 Y16.0401 
N03650 G01 X-12.3825 Y16.0147 
N03660 G01 X-12.3791 Y16.0147 
N03670 G01 X-11.9253 Y15.5609 
N03680 G01 X-11.9253 Y15.5575 
N03690 G00 Z3.0000 
N03700 G00 X-11.9253 Y14.9225 
N03710 G01 Z-0.0900 F254.00 
N03720 G01 X-11.9253 Y14.9191 F508.00 
N03730 G01 X-12.3791 Y14.4653 
N03740 G01 X-12.3825 Y14.4653 
N03750 G01 X-12.3825 Y14.4399 
N03760 G01 X-12.3686 Y14.4399 
N03770 G01 X-11.8999 Y14.9086 
N03780 G01 X-11.8999 Y14.9225 
N03790 G01 X-11.9253 Y14.9225 
N03800 G00 Z3.0000 
N03810 G00 X-12.3686 Y16.9799 
N03820 G01 Z-0.0900 F254.00 
N03830 G01 X-11.8999 Y17.4486 F508.00 
N03840 G01 X-11.8999 Y18.1114 
N03850 G01 X-12.3686 Y18.5801 
N03860 G01 X-13.0314 Y18.5801 
N03870 G01 X-13.5001 Y18.1114 
N03880 G01 X-13.5001 Y17.4486 
N03890 G01 X-13.0314 Y16.9799 
N03900 G01 X-12.3686 Y16.9799 
N03910 G00 Z3.0000 
N03920 G00 X-12.3791 Y17.0053 
N03930 G01 Z-0.0900 F254.00 
N03940 G01 X-13.0209 Y17.0053 F508.00 
N03950 G01 X-13.4747 Y17.4591 
N03960 G01 X-13.4747 Y18.1009 
N03970 G01 X-13.0209 Y18.5547 
N03980 G01 X-12.3791 Y18.5547 
N03990 G01 X-11.9253 Y18.1009 
N04000 G01 X-11.9253 Y17.4591 
N04010 G01 X-12.3791 Y17.0053 
N04020 G00 Z3.0000 
N04030 G00 X-12.3686 Y22.0599 
N04040 G01 Z-0.0900 F254.00 
N04050 G01 X-11.8999 Y22.5286 F508.00 
N04060 G01 X-11.8999 Y23.1914 
N04070 G01 X-12.3686 Y23.6601 
N04080 G01 X-13.0314 Y23.6601 
N04090 G01 X-13.5001 Y23.1914 
N04100 G01 X-13.5001 Y22.5286 
N04110 G01 X-13.0314 Y22.0599 
N04120 G01 X-12.3686 Y22.0599 
N04130 G00 Z3.0000 
N04140 G00 X-12.3791 Y22.0853 
N04150 G01 Z-0.0900 F254.00 
N04160 G01 X-13.0209 Y22.0853 F508.00 
N04170 G01 X-13.4747 Y22.5391 
N04180 G01 X-13.4747 Y23.1809 
N04190 G01 X-13.0209 Y23.6347 
N04200 G01 X-12.3791 Y23.6347 
N04210 G01 X-11.9253 Y23.1809 
N04220 G01 X-11.9253 Y22.5391 
N04230 G01 X-12.3791 Y22.0853 
N04240 G00 Z3.0000 
N04250 G00 X-12.3686 Y24.5999 
N04260 G01 Z-0.0900 F254.00 
N04270 G01 X-11.8999 Y25.0686 F508.00 
N04280 G01 X-11.8999 Y25.7314 
N04290 G01 X-12.3686 Y26.2001 
N04300 G01 X-13.0314 Y26.2001 
N04310 G01 X-13.5001 Y25.7314 
N04320 G01 X-13.5001 Y25.0686 
N04330 G01 X-13.0314 Y24.5999 
N04340 G01 X-12.3686 Y24.5999 
N04350 G00 Z3.0000 
N04360 G00 X-12.3791 Y24.6253 
N04370 G01 Z-0.0900 F254.00 
N04380 G01 X-13.0209 Y24.6253 F508.00 
N04390 G01 X-13.4747 Y25.0791 
N04400 G01 X-13.4747 Y25.7209 
N04410 G01 X-13.0209 Y26.1747 
N04420 G01 X-12.3791 Y26.1747 
N04430 G01 X-11.9253 Y25.7209 
N04440 G01 X-11.9253 Y25.0791 
N04450 G01 X-12.3791 Y24.6253 
N04460 G00 Z3.0000 
N04470 G00 X-7.0418 Y25.1646 
N04480 G01 Z-0.0900 F254.00 
N04490 G01 X-6.5854 Y24.7081 F508.00 
N04500 G01 X-6.0263 Y24.3854 
N04510 G01 X-5.4028 Y24.2183 
N04520 G01 X-4.7572 Y24.2183 
N04530 G01 X-4.1337 Y24.3854 
N04540 G01 X-3.5746 Y24.7081 
N04550 G01 X-3.1181 Y25.1646 
N04560 G01 X-2.7954 Y25.7237 
N04570 G01 X-2.6283 Y26.3472 
N04580 G01 X-2.6283 Y26.9928 
N04590 G01 X-2.7954 Y27.6163 
N04600 G01 X-3.1181 Y28.1754 
N04610 G01 X-3.5746 Y28.6318 
N04620 G01 X-4.1337 Y28.9546 
N04630 G01 X-4.7572 Y29.1217 
N04640 G01 X-5.4028 Y29.1217 
N04650 G01 X-6.0263 Y28.9546 
N04660 G01 X-6.5854 Y28.6318 
N04670 G01 X-7.0418 Y28.1754 
N04680 G01 X-7.3646 Y27.6163 
N04690 G01 X-7.5317 Y26.9928 
N04700 G01 X-7.5317 Y26.3472 
N04710 G01 X-7.3646 Y25.7237 
N04720 G01 X-7.0418 Y25.1646 
N00000 G00 Z3.0000 
N00010 G00 X-18.9706 Y3.3214 
N00020 G01 Z-0.0900 F254.00 
N00030 G01 X-18.5614 Y3.7306 F508.00 
N00040 G01 X-18.2721 Y4.2317 
N00050 G01 X-18.1223 Y4.7907 
N00060 G01 X-18.1223 Y5.3693 
N00070 G01 X-18.2721 Y5.9283 
N00080 G01 X-18.5614 Y6.4294 
N00090 G01 X-18.9706 Y6.8386 
N00100 G01 X-19.4717 Y7.1279 
N00110 G01 X-20.0307 Y7.2777 
N00120 G01 X-20.6093 Y7.2777 
N00130 G01 X-21.1683 Y7.1279 
N00140 G01 X-21.6694 Y6.8386 
N00150 G01 X-22.0786 Y6.4294 
N00160 G01 X-22.3679 Y5.9283 
N00170 G01 X-22.5177 Y5.3693 
N00180 G01 X-22.5177 Y4.7907 
N00190 G01 X-22.3679 Y4.2317 
N00200 G01 X-22.0786 Y3.7306 
N00210 G01 X-21.6694 Y3.3214 
N00220 G01 X-21.1683 Y3.0321 
N00230 G01 X-20.6093 Y2.8823 
N00240 G01 X-20.0307 Y2.8823 
N00250 G01 X-19.4717 Y3.0321 
N00260 G01 X-18.9706 Y3.3214 
N00270 G00 Z3.0000 
N00280 G00 X-6.8386 Y25.3206 
N00290 G01 Z-0.0900 F254.00 
N00300 G01 X-6.4294 Y24.9114 F508.00 
N00310 G01 X-5.9283 Y24.6221 
N00320 G01 X-5.3693 Y24.4723 
N00330 G01 X-4.7907 Y24.4723 
N00340 G01 X-4.2317 Y24.6221 
N00350 G01 X-3.7306 Y24.9114 
N00360 G01 X-3.3214 Y25.3206 
N00370 G01 X-3.0321 Y25.8217 
N00380 G01 X-2.8823 Y26.3807 
N00390 G01 X-2.8823 Y26.9593 
N00400 G01 X-3.0321 Y27.5183 
N00410 G01 X-3.3214 Y28.0194 
N00420 G01 X-3.7306 Y28.4286 
N00430 G01 X-4.2317 Y28.7179 
N00440 G01 X-4.7907 Y28.8677 
N00450 G01 X-5.3693 Y28.8677 
N00460 G01 X-5.9283 Y28.7179 
N00470 G01 X-6.4294 Y28.4286 
N00480 G01 X-6.8386 Y28.0194 
N00490 G01 X-7.1279 Y27.5183 
N00500 G01 X-7.2777 Y26.9593 
N00510 G01 X-7.2777 Y26.3807 
N00520 G01 X-7.1279 Y25.8217 
N00530 G01 X-6.8386 Y25.3206 
N00000 G00 Z3.0000 
N00010 G00 X-19.1265 Y3.5246 
N00020 G01 Z-0.0900 F254.00 
N00030 G01 X-18.7646 Y3.8865 F508.00 
N00040 G01 X-18.5088 Y4.3298 
N00050 G01 X-18.3763 Y4.8241 
N00060 G01 X-18.3763 Y5.3359 
N00070 G01 X-18.5088 Y5.8302 
N00080 G01 X-18.7646 Y6.2735 
N00090 G01 X-19.1265 Y6.6353 
N00100 G01 X-19.5698 Y6.8912 
N00110 G01 X-20.0641 Y7.0237 
N00120 G01 X-20.5759 Y7.0237 
N00130 G01 X-21.0702 Y6.8912 
N00140 G01 X-21.5134 Y6.6353 
N00150 G01 X-21.8754 Y6.2735 
N00160 G01 X-22.1312 Y5.8302 
N00170 G01 X-22.2637 Y5.3359 
N00180 G01 X-22.2637 Y4.8241 
N00190 G01 X-22.1312 Y4.3298 
N00200 G01 X-21.8754 Y3.8865 
N00210 G01 X-21.5134 Y3.5246 
N00220 G01 X-21.0702 Y3.2688 
N00230 G01 X-20.5759 Y3.1363 
N00240 G01 X-20.0641 Y3.1363 
N00250 G01 X-19.5698 Y3.2688 
N00260 G01 X-19.1265 Y3.5246 
N00270 G00 Z3.0000 
N00280 G00 X-6.6353 Y25.4765 
N00290 G01 Z-0.0900 F254.00 
N00300 G01 X-6.2735 Y25.1146 F508.00 
N00310 G01 X-5.8302 Y24.8588 
N00320 G01 X-5.3359 Y24.7263 
N00330 G01 X-4.8241 Y24.7263 
N00340 G01 X-4.3298 Y24.8588 
N00350 G01 X-3.8865 Y25.1146 
N00360 G01 X-3.5246 Y25.4765 
N00370 G01 X-3.2688 Y25.9198 
N00380 G01 X-3.1363 Y26.4141 
N00390 G01 X-3.1363 Y26.9259 
N00400 G01 X-3.2688 Y27.4202 
N00410 G01 X-3.5246 Y27.8635 
N00420 G01 X-3.8865 Y28.2253 
N00430 G01 X-4.3298 Y28.4812 
N00440 G01 X-4.8241 Y28.6137 
N00450 G01 X-5.3359 Y28.6137 
N00460 G01 X-5.8302 Y28.4812 
N00470 G01 X-6.2735 Y28.2253 
N00480 G01 X-6.6353 Y27.8635 
N00490 G01 X-6.8912 Y27.4202 
N00500 G01 X-7.0237 Y26.9259 
N00510 G01 X-7.0237 Y26.4141 
N00520 G01 X-6.8912 Y25.9198 
N00530 G01 X-6.6353 Y25.4765 
N00540 G00 Z3.0000 
N00550 G00 X-5.0800 Y26.6700 
N00560 G01 Z-1.1111 F508.00 
N00570 G00 Z3.0000 
N00580 G00 X-20.3200 Y5.0800 
N00590 G01 Z-1.1111 F508.00 
N00600 G00 Z3.0000 
N00610 G00 X-12.7000 Y25.4000 
N00620 G01 Z-1.1111 F508.00 
N00630 G00 Z3.0000 
N00640 G00 X-12.7000 Y22.8600 
N00650 G01 Z-1.1111 F508.00 
N00660 G00 Z3.0000 
N00670 G00 X-12.7000 Y17.7800 
N00680 G01 Z-1.1111 F508.00 
N00690 G00 Z3.0000 
N00700 G00 X-12.7000 Y15.2400 
N00710 G01 Z-1.1111 F508.00 
N00720 G00 Z3.0000 
N00730 G00 X-12.7900 Y6.3500 
N00740 G01 Z-1.1111 F508.00 
N00750 G00 Z3.0000 
N00760 G00 X-14.0600 Y4.4450 
N00770 G01 Z-1.1111 F508.00 
N00780 G00 Z3.0000 
N00790 G00 X-15.3300 Y6.3500 
N00800 G01 Z-1.1111 F508.00 
N00810 G00 Z3.0000 
N00820 G00 X-5.0800 Y11.4300 
N00830 G01 Z-1.1111 F508.00 
N00840 G00 Z3.0000 
N00850 G00 X-5.0800 Y8.8900 
N00860 G01 Z-1.1111 F508.00 
N00870 G00 Z3.0000 
N00880 G00 X-5.0800 Y6.3500 
N00890 G01 Z-1.1111 F508.00 
N00900 G00 Z3.0000 
N00910 G00 Z12.0000 
N00920 M05
N00930 M02
