N00000 (.../pcb-gcode-3.6.2.4/pcb-gcode.ulp)
N00010 (Copyright 2005 - 2012 by John Johnson)
N00020 (See readme.txt for licensing terms.)
N00030 (This file generated from the board:)
N00040 (.../Q-Berry2/BreakOut/1-HomeSwitch.brd)
N00050 (Current profile is .../pcb-gcode-3.6.2.4/profiles/emc.pp  )
N00060 (This file generated 5/6/2015 7:12:02 PM)
N00070 (Settings from pcb-machine.h)
N00080 (spindle on time = 3.0000)
N00090 (  Tool Size)
N00100 (0.1778 )
N00110 (spindle speed = 30000.0000)
N00120 (tool change at 0.0000 0.0000 25.4000 )
N00130 (feed rate xy = F508.00 )
N00140 (feed rate z  = F254.00 )
N00150 (Z Axis Settings)
N00160 (  High     Up        Down     Drill)
N00170 (12.0000 	3.0000 	-0.0900 	-4.1111 )
N00180 (Settings from pcb-defaults.h)
N00190 (isolate min = 0.0254)
N00200 (isolate max = 0.5080)
N00210 (isolate step = 0.2540)
N00220 (Generated top outlines, top drill, bottom outlines, bottom drill, )
N00230 (Unit of measure: mm)
N00240 (Metric Mode)
N00250 G21
N00260 (Absolute Coordinates)
N00270 G90
N00280 S30000
N00290 G00 Z12.0000 
N00300 G00 X0.0000 Y0.0000 
N00310 M03
N00320 G04 P3.000000
N00330 G00 Z3.0000 
N00340 G00 X1.4343 Y1.4343 
N00350 G01 Z-0.0900 F254.00 
N00360 G01 X11.1599 Y1.4343 F508.00 
N00370 G01 X11.2087 Y1.5110 
N00380 G01 X11.4344 Y1.7942 
N00390 G01 X11.6887 Y2.0520 
N00400 G01 X11.9688 Y2.2816 
N00410 G01 X12.2715 Y2.4804 
N00420 G01 X12.5935 Y2.6461 
N00430 G01 X12.9312 Y2.7770 
N00440 G01 X13.2808 Y2.8715 
N00450 G01 X13.6384 Y2.9287 
N00460 G01 X14.0000 Y2.9478 
N00470 G01 X14.3616 Y2.9287 
N00480 G01 X14.7192 Y2.8715 
N00490 G01 X15.0688 Y2.7770 
N00500 G01 X15.4065 Y2.6461 
N00510 G01 X15.7285 Y2.4804 
N00520 G01 X16.0312 Y2.2816 
N00530 G01 X16.3113 Y2.0520 
N00540 G01 X16.5656 Y1.7942 
N00550 G01 X16.7913 Y1.5110 
N00560 G01 X16.8401 Y1.4343 
N00570 G01 X23.9657 Y1.4343 
N00580 G01 X23.9657 Y30.3157 
N00590 G01 X1.4343 Y30.3157 
N00600 G01 X1.4343 Y1.4343 
N00610 G00 Z3.0000 
N00620 G00 X1.5231 Y1.5822 
N00630 G01 Z-0.0900 F254.00 
N00640 G01 X1.4813 Y1.6546 F508.00 
N00650 G01 X1.4597 Y1.7354 
N00660 G01 X1.4597 Y30.0146 
N00670 G01 X1.4813 Y30.0953 
N00680 G01 X1.5231 Y30.1677 
N00690 G01 X1.5822 Y30.2269 
N00700 G01 X1.6546 Y30.2687 
N00710 G01 X1.7354 Y30.2903 
N00720 G01 X23.6646 Y30.2903 
N00730 G01 X23.7453 Y30.2687 
N00740 G01 X23.8177 Y30.2269 
N00750 G01 X23.8769 Y30.1677 
N00760 G01 X23.9187 Y30.0953 
N00770 G01 X23.9403 Y30.0146 
N00780 G01 X23.9403 Y1.7354 
N00790 G01 X23.9187 Y1.6546 
N00800 G01 X23.8769 Y1.5822 
N00810 G01 X23.8177 Y1.5231 
N00820 G01 X23.7453 Y1.4813 
N00830 G01 X23.6646 Y1.4597 
N00840 G01 X17.0352 Y1.4597 
N00850 G01 X17.0003 Y1.4582 
N00860 G01 X16.9935 Y1.4597 
N00870 G01 X16.9865 Y1.4597 
N00880 G01 X16.9528 Y1.4687 
N00890 G01 X16.9187 Y1.4763 
N00900 G01 X16.9125 Y1.4795 
N00910 G01 X16.9057 Y1.4813 
N00920 G01 X16.8755 Y1.4988 
N00930 G01 X16.8446 Y1.5149 
N00940 G01 X16.8394 Y1.5196 
N00950 G01 X16.8333 Y1.5231 
N00960 G01 X16.8087 Y1.5478 
N00970 G01 X16.7829 Y1.5714 
N00980 G01 X16.7792 Y1.5773 
N00990 G01 X16.7742 Y1.5822 
N01000 G01 X16.7568 Y1.6124 
N01010 G01 X16.6424 Y1.7920 
N01020 G01 X15.8914 Y2.4465 
N01030 G01 X14.9859 Y2.8618 
N01040 G01 X14.0000 Y3.0042 
N01050 G01 X13.0141 Y2.8618 
N01060 G01 X12.1086 Y2.4465 
N01070 G01 X11.3576 Y1.7920 
N01080 G01 X11.2432 Y1.6124 
N01090 G01 X11.2258 Y1.5822 
N01100 G01 X11.2208 Y1.5773 
N01110 G01 X11.2171 Y1.5714 
N01120 G01 X11.1913 Y1.5478 
N01130 G01 X11.1667 Y1.5231 
N01140 G01 X11.1606 Y1.5196 
N01150 G01 X11.1554 Y1.5149 
N01160 G01 X11.1245 Y1.4988 
N01170 G01 X11.0943 Y1.4813 
N01180 G01 X11.0875 Y1.4795 
N01190 G01 X11.0813 Y1.4763 
N01200 G01 X11.0472 Y1.4687 
N01210 G01 X11.0135 Y1.4597 
N01220 G01 X11.0065 Y1.4597 
N01230 G01 X10.9997 Y1.4582 
N01240 G01 X10.9648 Y1.4597 
N01250 G01 X1.7354 Y1.4597 
N01260 G01 X1.6546 Y1.4813 
N01270 G01 X1.5822 Y1.5231 
N01280 G01 X1.5231 Y1.5822 
N01290 G00 Z3.0000 
N01300 G00 X3.8197 Y5.5924 
N01310 G01 Z-0.0900 F254.00 
N01320 G01 X4.1482 Y5.4563 F508.00 
N01330 G01 X6.0118 Y5.4563 
N01340 G01 X6.0375 Y5.4670 
N01350 G01 X6.0557 Y5.4775 
N01360 G01 X6.0760 Y5.4829 
N01370 G01 X6.0954 Y5.4909 
N01380 G01 X6.1162 Y5.4937 
N01390 G01 X6.1364 Y5.4991 
N01400 G01 X6.1574 Y5.4991 
N01410 G01 X6.1782 Y5.5018 
N01420 G01 X6.1991 Y5.4991 
N01430 G01 X12.9593 Y5.4991 
N01440 G01 X13.0043 Y5.5178 
N01450 G01 X13.0225 Y5.5283 
N01460 G01 X13.0428 Y5.5337 
N01470 G01 X13.0622 Y5.5417 
N01480 G01 X13.0830 Y5.5445 
N01490 G01 X13.1032 Y5.5499 
N01500 G01 X13.1214 Y5.5499 
N01510 G01 X13.1342 Y5.5627 
N01520 G01 X13.1524 Y5.5732 
N01530 G01 X13.1691 Y5.5860 
N01540 G01 X13.1885 Y5.5941 
N01550 G01 X13.2066 Y5.6045 
N01560 G01 X13.2192 Y5.6079 
N01570 G01 X13.2305 Y5.6144 
N01580 G01 X13.2507 Y5.6198 
N01590 G01 X13.2702 Y5.6279 
N01600 G01 X13.2910 Y5.6306 
N01610 G01 X13.3112 Y5.6360 
N01620 G01 X13.3322 Y5.6360 
N01630 G01 X13.3464 Y5.6379 
N01640 G01 X13.3591 Y5.6852 
N01650 G01 X13.4009 Y5.7575 
N01660 G01 X13.5114 Y5.8680 
N01670 G01 X13.5300 Y5.9131 
N01680 G01 X13.5355 Y5.9334 
N01690 G01 X13.5460 Y5.9515 
N01700 G01 X13.5540 Y5.9709 
N01710 G01 X13.5668 Y5.9876 
N01720 G01 X13.5773 Y6.0058 
N01730 G01 X13.5901 Y6.0186 
N01740 G01 X13.5901 Y6.0367 
N01750 G01 X13.5955 Y6.0570 
N01760 G01 X13.5983 Y6.0778 
N01770 G01 X13.6063 Y6.0972 
N01780 G01 X13.6117 Y6.1175 
N01790 G01 X13.6222 Y6.1357 
N01800 G01 X13.6409 Y6.1807 
N01810 G01 X13.6409 Y8.5846 
N01820 G01 X13.6625 Y8.6654 
N01830 G01 X13.7043 Y8.7377 
N01840 G01 X13.7634 Y8.7969 
N01850 G01 X13.8358 Y8.8387 
N01860 G01 X13.9166 Y8.8603 
N01870 G01 X14.5579 Y8.8603 
N01880 G01 X14.6397 Y8.9421 
N01890 G01 X14.6397 Y9.0334 
N01900 G01 X14.6613 Y9.1142 
N01910 G01 X14.7031 Y9.1865 
N01920 G01 X14.7622 Y9.2457 
N01930 G01 X14.8346 Y9.2875 
N01940 G01 X14.9154 Y9.3091 
N01950 G01 X15.4093 Y9.3091 
N01960 G01 X15.7220 Y9.4386 
N01970 G01 X15.9765 Y9.6931 
N01980 G01 X17.0714 Y10.7880 
N01990 G01 X17.2009 Y11.1007 
N02000 G01 X17.2009 Y18.8536 
N02010 G01 X17.2185 Y18.9195 
N02020 G01 X17.2225 Y18.9344 
N02030 G01 X17.2497 Y18.9814 
N02040 G01 X17.2497 Y19.1546 
N02050 G01 X17.2713 Y19.2354 
N02060 G01 X17.3131 Y19.3077 
N02070 G01 X17.3722 Y19.3669 
N02080 G01 X17.4446 Y19.4087 
N02090 G01 X17.5254 Y19.4303 
N02100 G01 X18.8079 Y19.4303 
N02110 G01 X18.8551 Y19.4775 
N02120 G01 X18.9096 Y19.5090 
N02130 G01 X18.9274 Y19.5193 
N02140 G01 X18.9658 Y19.5296 
N02150 G01 X19.0082 Y19.5409 
N02160 G01 X19.0918 Y19.5409 
N02170 G01 X19.1726 Y19.5193 
N02180 G01 X19.2449 Y19.4775 
N02190 G01 X19.2921 Y19.4303 
N02200 G01 X19.5346 Y19.4303 
N02210 G01 X19.6153 Y19.4087 
N02220 G01 X19.6877 Y19.3669 
N02230 G01 X19.7469 Y19.3077 
N02240 G01 X19.7887 Y19.2354 
N02250 G01 X19.8103 Y19.1546 
N02260 G01 X19.8103 Y11.9387 
N02270 G01 X19.8116 Y11.9330 
N02280 G01 X19.8103 Y11.8970 
N02290 G01 X19.8103 Y11.8609 
N02300 G01 X19.8088 Y11.8553 
N02310 G01 X19.8086 Y11.8495 
N02320 G01 X19.7980 Y11.8150 
N02330 G01 X19.7887 Y11.7802 
N02340 G01 X19.7858 Y11.7751 
N02350 G01 X19.7841 Y11.7696 
N02360 G01 X19.7649 Y11.7390 
N02370 G01 X19.7469 Y11.7078 
N02380 G01 X19.7428 Y11.7037 
N02390 G01 X19.7397 Y11.6987 
N02400 G01 X19.7132 Y11.6741 
N02410 G01 X19.6877 Y11.6487 
N02420 G01 X19.6827 Y11.6458 
N02430 G01 X14.8340 Y7.1345 
N02440 G01 X14.8247 Y7.1224 
N02450 G01 X14.8035 Y7.1061 
N02460 G01 X14.7840 Y7.0879 
N02470 G01 X14.7705 Y7.0808 
N02480 G01 X14.7584 Y7.0715 
N02490 G01 X14.6787 Y6.9921 
N02500 G01 X14.6756 Y6.9871 
N02510 G01 X14.6492 Y6.9625 
N02520 G01 X14.6237 Y6.9370 
N02530 G01 X14.6187 Y6.9341 
N02540 G01 X14.5365 Y6.8577 
N02550 G01 X14.5266 Y6.8455 
N02560 G01 X14.5190 Y6.8323 
N02570 G01 X14.4757 Y6.7284 
N02580 G01 X14.4748 Y6.7226 
N02590 G01 X14.4597 Y6.6898 
N02600 G01 X14.4459 Y6.6565 
N02610 G01 X14.4424 Y6.6519 
N02620 G01 X14.3957 Y6.5498 
N02630 G01 X14.3913 Y6.5348 
N02640 G01 X14.3893 Y6.5196 
N02650 G01 X14.3891 Y6.4071 
N02660 G01 X14.3904 Y6.4014 
N02670 G01 X14.3891 Y6.3654 
N02680 G01 X14.3891 Y6.3293 
N02690 G01 X14.3876 Y6.3237 
N02700 G01 X14.3835 Y6.2115 
N02710 G01 X14.3852 Y6.1959 
N02720 G01 X14.3891 Y6.1812 
N02730 G01 X14.4320 Y6.0771 
N02740 G01 X14.4354 Y6.0723 
N02750 G01 X14.4480 Y6.0386 
N02760 G01 X14.4618 Y6.0052 
N02770 G01 X14.4626 Y5.9994 
N02780 G01 X14.5017 Y5.8943 
N02790 G01 X14.5092 Y5.8805 
N02800 G01 X14.5185 Y5.8684 
N02810 G01 X14.6291 Y5.7575 
N02820 G01 X14.6709 Y5.6852 
N02830 G01 X14.6925 Y5.6044 
N02840 G01 X14.6925 Y5.5361 
N02850 G01 X14.6994 Y5.5386 
N02860 G01 X14.7126 Y5.5462 
N02870 G01 X14.7384 Y5.5532 
N02880 G01 X14.7635 Y5.5625 
N02890 G01 X14.7786 Y5.5639 
N02900 G01 X14.7933 Y5.5679 
N02910 G01 X14.8201 Y5.5679 
N02920 G01 X14.8467 Y5.5704 
N02930 G01 X14.8617 Y5.5679 
N02940 G01 X14.8769 Y5.5679 
N02950 G01 X14.9028 Y5.5610 
N02960 G01 X14.9291 Y5.5565 
N02970 G01 X14.9430 Y5.5502 
N02980 G01 X14.9577 Y5.5462 
N02990 G01 X14.9734 Y5.5372 
N03000 G01 X14.9835 Y5.5345 
N03010 G01 X14.9918 Y5.5297 
N03020 G01 X14.9970 Y5.5283 
N03030 G01 X15.0202 Y5.5149 
N03040 G01 X15.0402 Y5.5057 
N03050 G01 X15.0552 Y5.5013 
N03060 G01 X15.0703 Y5.4993 
N03070 G01 X15.1829 Y5.4991 
N03080 G01 X15.1886 Y5.5004 
N03090 G01 X15.2246 Y5.4991 
N03100 G01 X15.2607 Y5.4991 
N03110 G01 X15.2663 Y5.4976 
N03120 G01 X15.3785 Y5.4935 
N03130 G01 X15.3941 Y5.4952 
N03140 G01 X15.4088 Y5.4991 
N03150 G01 X15.4355 Y5.4991 
N03160 G01 X15.4621 Y5.5016 
N03170 G01 X15.4771 Y5.4991 
N03180 G01 X15.4993 Y5.4991 
N03190 G01 X15.5443 Y5.5178 
N03200 G01 X15.5625 Y5.5283 
N03210 G01 X15.5828 Y5.5337 
N03220 G01 X15.6022 Y5.5417 
N03230 G01 X15.6230 Y5.5445 
N03240 G01 X15.6432 Y5.5499 
N03250 G01 X15.6614 Y5.5499 
N03260 G01 X15.6742 Y5.5627 
N03270 G01 X15.6924 Y5.5732 
N03280 G01 X15.7091 Y5.5860 
N03290 G01 X15.7285 Y5.5940 
N03300 G01 X15.7466 Y5.6045 
N03310 G01 X15.7669 Y5.6100 
N03320 G01 X15.8120 Y5.6286 
N03330 G01 X16.0514 Y5.8680 
N03340 G01 X16.0694 Y5.9117 
N03350 G01 X16.0773 Y5.9372 
N03360 G01 X16.0854 Y5.9501 
N03370 G01 X16.0912 Y5.9642 
N03380 G01 X16.1075 Y5.9854 
N03390 G01 X16.1217 Y6.0081 
N03400 G01 X16.1328 Y6.0185 
N03410 G01 X16.1421 Y6.0305 
N03420 G01 X16.1633 Y6.0468 
N03430 G01 X21.0246 Y10.5698 
N03440 G01 X21.0339 Y10.5819 
N03450 G01 X21.0551 Y10.5981 
N03460 G01 X21.0747 Y10.6164 
N03470 G01 X21.0881 Y10.6235 
N03480 G01 X21.1002 Y10.6328 
N03490 G01 X21.1249 Y10.6430 
N03500 G01 X21.1485 Y10.6555 
N03510 G01 X21.1634 Y10.6589 
N03520 G01 X21.2040 Y10.6757 
N03530 G01 X21.4542 Y10.9260 
N03540 G01 X21.5897 Y11.2530 
N03550 G01 X21.5897 Y18.6624 
N03560 G01 X21.6113 Y18.7432 
N03570 G01 X21.6531 Y18.8156 
N03580 G01 X21.8297 Y18.9921 
N03590 G01 X21.8297 Y21.6479 
N03600 G01 X21.6531 Y21.8244 
N03610 G01 X21.6123 Y21.8952 
N03620 G01 X21.5897 Y21.9776 
N03630 G01 X21.5897 Y25.4270 
N03640 G01 X21.4542 Y25.7540 
N03650 G01 X21.1943 Y26.0139 
N03660 G01 X21.1858 Y26.0224 
N03670 G01 X21.1352 Y26.0730 
N03680 G01 X21.1075 Y26.1211 
N03690 G01 X21.0934 Y26.1454 
N03700 G01 X21.0831 Y26.1838 
N03710 G01 X21.0718 Y26.2261 
N03720 G01 X21.0718 Y26.3098 
N03730 G01 X21.0832 Y26.3525 
N03740 G01 X21.0561 Y26.3525 
N03750 G01 X21.0469 Y26.3303 
N03760 G01 X21.0147 Y26.2981 
N03770 G01 X20.9727 Y26.2807 
N03780 G01 X19.7273 Y26.2807 
N03790 G01 X19.6853 Y26.2981 
N03800 G01 X19.6531 Y26.3303 
N03810 G01 X19.6439 Y26.3525 
N03820 G01 X19.6168 Y26.3525 
N03830 G01 X19.6198 Y26.3412 
N03840 G01 X19.6315 Y26.2996 
N03850 G01 X19.6425 Y26.2586 
N03860 G01 X19.6425 Y26.2168 
N03870 G01 X19.6426 Y26.1750 
N03880 G01 X19.6323 Y26.1365 
N03890 G01 X19.6210 Y26.0943 
N03900 G01 X19.6103 Y26.0757 
N03910 G01 X19.6103 Y25.3871 
N03920 G01 X19.7469 Y25.2506 
N03930 G01 X19.7877 Y25.1798 
N03940 G01 X19.7896 Y25.1747 
N03950 G01 X19.8103 Y25.0974 
N03960 G01 X19.8103 Y21.4854 
N03970 G01 X19.7887 Y21.4046 
N03980 G01 X19.7469 Y21.3322 
N03990 G01 X19.6877 Y21.2731 
N04000 G01 X19.6153 Y21.2313 
N04010 G01 X19.5346 Y21.2097 
N04020 G01 X19.2921 Y21.2097 
N04030 G01 X19.2449 Y21.1625 
N04040 G01 X19.1726 Y21.1207 
N04050 G01 X19.0918 Y21.0991 
N04060 G01 X19.0082 Y21.0991 
N04070 G01 X18.9640 Y21.1109 
N04080 G01 X18.9275 Y21.1207 
N04090 G01 X18.9065 Y21.1328 
N04100 G01 X18.8551 Y21.1625 
N04110 G01 X18.8079 Y21.2097 
N04120 G01 X17.5254 Y21.2097 
N04130 G01 X17.4446 Y21.2313 
N04140 G01 X17.3722 Y21.2731 
N04150 G01 X17.3131 Y21.3322 
N04160 G01 X17.2713 Y21.4046 
N04170 G01 X17.2497 Y21.4854 
N04180 G01 X17.2497 Y21.6586 
N04190 G01 X17.2225 Y21.7056 
N04200 G01 X17.2180 Y21.7224 
N04210 G01 X17.2009 Y21.7864 
N04220 G01 X17.2009 Y24.2646 
N04230 G01 X17.2225 Y24.3453 
N04240 G01 X17.2643 Y24.4177 
N04250 G01 X17.3234 Y24.4769 
N04260 G01 X17.3958 Y24.5187 
N04270 G01 X17.4766 Y24.5403 
N04280 G01 X18.4079 Y24.5403 
N04290 G01 X18.4897 Y24.6221 
N04300 G01 X18.4897 Y27.0024 
N04310 G01 X18.5073 Y27.0683 
N04320 G01 X18.5113 Y27.0832 
N04330 G01 X18.5397 Y27.1323 
N04340 G01 X18.5397 Y28.7079 
N04350 G01 X18.4579 Y28.7897 
N04360 G01 X16.7661 Y28.7897 
N04370 G01 X16.7453 Y28.7870 
N04380 G01 X16.7245 Y28.7897 
N04390 G01 X16.7035 Y28.7897 
N04400 G01 X16.6990 Y28.7909 
N04410 G01 X9.5663 Y28.7909 
N04420 G01 X9.5384 Y28.7885 
N04430 G01 X9.5246 Y28.7909 
N04440 G01 X9.5107 Y28.7909 
N04450 G01 X9.4836 Y28.7981 
N04460 G01 X9.4314 Y28.8074 
N04470 G01 X9.3977 Y28.7999 
N04480 G01 X9.3641 Y28.7909 
N04490 G01 X9.3570 Y28.7909 
N04500 G01 X9.3501 Y28.7894 
N04510 G01 X9.3311 Y28.7902 
N04520 G01 X9.3143 Y28.7814 
N04530 G01 X9.3006 Y28.7784 
N04540 G01 X9.2878 Y28.7731 
N04550 G01 X9.2600 Y28.7694 
N04560 G01 X9.1009 Y28.7342 
N04570 G01 X8.8235 Y28.5402 
N04580 G01 X8.6415 Y28.2548 
N04590 G01 X8.5826 Y27.9215 
N04600 G01 X8.6123 Y27.7872 
N04610 G01 X8.6164 Y27.7780 
N04620 G01 X8.6213 Y27.7465 
N04630 G01 X8.6282 Y27.7154 
N04640 G01 X8.6278 Y27.7054 
N04650 G01 X8.6888 Y27.3159 
N04660 G01 X8.6956 Y27.2868 
N04670 G01 X8.6952 Y27.2748 
N04680 G01 X8.6971 Y27.2629 
N04690 G01 X8.6939 Y27.2331 
N04700 G01 X8.6667 Y26.3734 
N04710 G01 X8.6660 Y26.3336 
N04720 G01 X8.6654 Y26.3297 
N04730 G01 X8.6539 Y26.2916 
N04740 G01 X8.4126 Y25.4556 
N04750 G01 X8.4021 Y25.4172 
N04760 G01 X8.4005 Y25.4136 
N04770 G01 X8.3799 Y25.3795 
N04780 G01 X7.9398 Y24.6288 
N04790 G01 X7.9202 Y24.5943 
N04800 G01 X7.9178 Y24.5912 
N04810 G01 X7.8893 Y24.5631 
N04820 G01 X7.2778 Y23.9444 
N04830 G01 X7.2501 Y23.9158 
N04840 G01 X7.2470 Y23.9133 
N04850 G01 X7.2126 Y23.8932 
N04860 G01 X6.4672 Y23.4444 
N04870 G01 X6.4334 Y23.4235 
N04880 G01 X6.4297 Y23.4219 
N04890 G01 X6.3914 Y23.4109 
N04900 G01 X5.5679 Y23.1628 
N04910 G01 X5.5400 Y23.1521 
N04920 G01 X5.5280 Y23.1508 
N04930 G01 X5.5165 Y23.1474 
N04940 G01 X5.4866 Y23.1464 
N04950 G01 X5.0980 Y23.1053 
N04960 G01 X5.0816 Y23.1009 
N04970 G01 X5.0566 Y23.1009 
N04980 G01 X5.0317 Y23.0983 
N04990 G01 X5.0150 Y23.1009 
N05000 G01 X4.9108 Y23.1009 
N05010 G01 X4.9064 Y23.0991 
N05020 G01 X4.8924 Y23.0972 
N05030 G01 X4.8789 Y23.0930 
N05040 G01 X4.8741 Y23.0928 
N05050 G01 X4.7752 Y23.0467 
N05060 G01 X4.7697 Y23.0425 
N05070 G01 X4.7373 Y23.0291 
N05080 G01 X4.7057 Y23.0143 
N05090 G01 X4.6989 Y23.0131 
N05100 G01 X4.5980 Y22.9714 
N05110 G01 X4.5946 Y22.9680 
N05120 G01 X4.5824 Y22.9609 
N05130 G01 X4.5716 Y22.9519 
N05140 G01 X4.5673 Y22.9499 
N05150 G01 X4.4935 Y22.8694 
N05160 G01 X4.4900 Y22.8634 
N05170 G01 X4.4653 Y22.8387 
N05180 G01 X4.4417 Y22.8129 
N05190 G01 X4.4358 Y22.8092 
N05200 G01 X4.3586 Y22.7320 
N05210 G01 X4.3568 Y22.7276 
N05220 G01 X4.3482 Y22.7164 
N05230 G01 X4.3417 Y22.7039 
N05240 G01 X4.3385 Y22.7004 
N05250 G01 X4.3011 Y22.5978 
N05260 G01 X4.3002 Y22.5909 
N05270 G01 X4.2868 Y22.5586 
N05280 G01 X4.2749 Y22.5258 
N05290 G01 X4.2709 Y22.5201 
N05300 G01 X4.2291 Y22.4193 
N05310 G01 X4.2291 Y22.4145 
N05320 G01 X4.2255 Y22.4009 
N05330 G01 X4.2242 Y22.3868 
N05340 G01 X4.2226 Y22.3823 
N05350 G01 X4.2273 Y22.2733 
N05360 G01 X4.2291 Y22.2665 
N05370 G01 X4.2291 Y22.2316 
N05380 G01 X4.2306 Y22.1967 
N05390 G01 X4.2291 Y22.1899 
N05400 G01 X4.2291 Y12.5902 
N05410 G01 X4.2318 Y12.5693 
N05420 G01 X4.2291 Y12.5485 
N05430 G01 X4.2291 Y12.5275 
N05440 G01 X4.2237 Y12.5073 
N05450 G01 X4.2209 Y12.4865 
N05460 G01 X4.2129 Y12.4671 
N05470 G01 X4.2075 Y12.4468 
N05480 G01 X4.1970 Y12.4286 
N05490 G01 X4.1889 Y12.4092 
N05500 G01 X4.1762 Y12.3926 
N05510 G01 X4.1657 Y12.3744 
N05520 G01 X4.1508 Y12.3596 
N05530 G01 X4.1380 Y12.3429 
N05540 G01 X4.1214 Y12.3301 
N05550 G01 X4.1065 Y12.3153 
N05560 G01 X4.0884 Y12.3048 
N05570 G01 X4.0717 Y12.2920 
N05580 G01 X4.0523 Y12.2840 
N05590 G01 X4.0342 Y12.2735 
N05600 G01 X4.0139 Y12.2681 
N05610 G01 X3.8197 Y12.1876 
N05620 G01 X3.5684 Y11.9362 
N05630 G01 X3.4323 Y11.6078 
N05640 G01 X3.4323 Y11.2522 
N05650 G01 X3.5684 Y10.9238 
N05660 G01 X3.8197 Y10.6724 
N05670 G01 X4.1482 Y10.5363 
N05680 G01 X6.0118 Y10.5363 
N05690 G01 X6.3402 Y10.6724 
N05700 G01 X6.5916 Y10.9238 
N05710 G01 X6.7277 Y11.2522 
N05720 G01 X6.7277 Y11.6078 
N05730 G01 X6.5916 Y11.9362 
N05740 G01 X6.3402 Y12.1876 
N05750 G01 X6.1461 Y12.2681 
N05760 G01 X6.1258 Y12.2735 
N05770 G01 X6.1077 Y12.2840 
N05780 G01 X6.0883 Y12.2920 
N05790 G01 X6.0716 Y12.3048 
N05800 G01 X6.0534 Y12.3153 
N05810 G01 X6.0386 Y12.3301 
N05820 G01 X6.0220 Y12.3429 
N05830 G01 X6.0092 Y12.3596 
N05840 G01 X5.9943 Y12.3744 
N05850 G01 X5.9838 Y12.3926 
N05860 G01 X5.9711 Y12.4092 
N05870 G01 X5.9630 Y12.4286 
N05880 G01 X5.9525 Y12.4468 
N05890 G01 X5.9471 Y12.4671 
N05900 G01 X5.9391 Y12.4865 
N05910 G01 X5.9363 Y12.5073 
N05920 G01 X5.9309 Y12.5275 
N05930 G01 X5.9309 Y12.5485 
N05940 G01 X5.9282 Y12.5693 
N05950 G01 X5.9309 Y12.5902 
N05960 G01 X5.9309 Y15.3536 
N05970 G01 X5.9422 Y15.3960 
N05980 G01 X5.9525 Y15.4344 
N05990 G01 X5.9628 Y15.4522 
N06000 G01 X5.9943 Y15.5068 
N06010 G01 X6.1550 Y15.6675 
N06020 G01 X6.2274 Y15.7093 
N06030 G01 X6.3082 Y15.7309 
N06040 G01 X6.3918 Y15.7309 
N06050 G01 X6.4360 Y15.7191 
N06060 G01 X6.4725 Y15.7093 
N06070 G01 X6.4935 Y15.6972 
N06080 G01 X6.5449 Y15.6675 
N06090 G01 X6.5921 Y15.6203 
N06100 G01 X8.0259 Y15.6203 
N06110 G01 X8.0556 Y15.6375 
N06120 G01 X8.1364 Y15.6591 
N06130 G01 X8.1786 Y15.6591 
N06140 G01 X8.2200 Y15.6591 
N06150 G01 X8.6682 Y15.6591 
N06160 G01 X8.6777 Y15.6610 
N06170 G01 X8.7099 Y15.6591 
N06180 G01 X8.7422 Y15.6591 
N06190 G01 X8.7515 Y15.6566 
N06200 G01 X8.7611 Y15.6560 
N06210 G01 X8.7815 Y15.6492 
N06220 G01 X8.8786 Y15.6561 
N06230 G01 X8.8896 Y15.6591 
N06240 G01 X8.9202 Y15.6591 
N06250 G01 X8.9506 Y15.6613 
N06260 G01 X8.9618 Y15.6591 
N06270 G01 X9.0593 Y15.6591 
N06280 G01 X9.0791 Y15.6673 
N06290 G01 X9.0886 Y15.6686 
N06300 G01 X9.0977 Y15.6717 
N06310 G01 X9.1191 Y15.6732 
N06320 G01 X9.2063 Y15.7168 
N06330 G01 X9.2153 Y15.7237 
N06340 G01 X9.2435 Y15.7354 
N06350 G01 X9.2708 Y15.7491 
N06360 G01 X9.2820 Y15.7514 
N06370 G01 X9.3720 Y15.7886 
N06380 G01 X9.3872 Y15.8038 
N06390 G01 X9.3955 Y15.8086 
N06400 G01 X9.4027 Y15.8150 
N06410 G01 X9.4316 Y15.8295 
N06420 G01 X9.4596 Y15.8456 
N06430 G01 X9.4689 Y15.8481 
N06440 G01 X11.5553 Y16.8913 
N06450 G01 X11.5833 Y16.9075 
N06460 G01 X11.5926 Y16.9100 
N06470 G01 X11.6012 Y16.9143 
N06480 G01 X11.6328 Y16.9207 
N06490 G01 X11.6640 Y16.9291 
N06500 G01 X11.6737 Y16.9291 
N06510 G01 X11.6831 Y16.9310 
N06520 G01 X11.7153 Y16.9291 
N06530 G01 X13.3693 Y16.9291 
N06540 G01 X13.6820 Y17.0586 
N06550 G01 X13.9214 Y17.2980 
N06560 G01 X14.0509 Y17.6107 
N06570 G01 X14.0509 Y17.9493 
N06580 G01 X13.9214 Y18.2620 
N06590 G01 X13.6820 Y18.5014 
N06600 G01 X13.3693 Y18.6309 
N06610 G01 X11.6518 Y18.6309 
N06620 G01 X11.6423 Y18.6290 
N06630 G01 X11.6101 Y18.6309 
N06640 G01 X11.5778 Y18.6309 
N06650 G01 X11.5685 Y18.6334 
N06660 G01 X11.5588 Y18.6340 
N06670 G01 X11.5385 Y18.6408 
N06680 G01 X11.4414 Y18.6338 
N06690 G01 X11.4304 Y18.6309 
N06700 G01 X11.3998 Y18.6309 
N06710 G01 X11.3694 Y18.6287 
N06720 G01 X11.3582 Y18.6309 
N06730 G01 X11.2607 Y18.6309 
N06740 G01 X11.2409 Y18.6227 
N06750 G01 X11.2314 Y18.6214 
N06760 G01 X11.2222 Y18.6183 
N06770 G01 X11.2009 Y18.6168 
N06780 G01 X11.1137 Y18.5732 
N06790 G01 X11.1047 Y18.5663 
N06800 G01 X11.0765 Y18.5546 
N06810 G01 X11.0492 Y18.5409 
N06820 G01 X11.0380 Y18.5386 
N06830 G01 X10.9480 Y18.5014 
N06840 G01 X10.9328 Y18.4862 
N06850 G01 X10.9245 Y18.4814 
N06860 G01 X10.9173 Y18.4750 
N06870 G01 X10.8884 Y18.4605 
N06880 G01 X10.8604 Y18.4444 
N06890 G01 X10.8511 Y18.4419 
N06900 G01 X8.7647 Y17.3987 
N06910 G01 X8.7367 Y17.3825 
N06920 G01 X8.7274 Y17.3800 
N06930 G01 X8.7188 Y17.3757 
N06940 G01 X8.6871 Y17.3693 
N06950 G01 X8.6560 Y17.3609 
N06960 G01 X8.6463 Y17.3609 
N06970 G01 X8.6369 Y17.3590 
N06980 G01 X8.6047 Y17.3609 
N06990 G01 X8.2200 Y17.3609 
N07000 G01 X8.1777 Y17.3609 
N07010 G01 X8.1364 Y17.3609 
N07020 G01 X8.0556 Y17.3825 
N07030 G01 X8.0259 Y17.3997 
N07040 G01 X6.5921 Y17.3997 
N07050 G01 X6.5449 Y17.3525 
N07060 G01 X6.4904 Y17.3210 
N07070 G01 X6.4725 Y17.3107 
N07080 G01 X6.4341 Y17.3004 
N07090 G01 X6.3918 Y17.2891 
N07100 G01 X6.3082 Y17.2891 
N07110 G01 X6.2274 Y17.3107 
N07120 G01 X6.1550 Y17.3525 
N07130 G01 X5.9956 Y17.5120 
N07140 G01 X5.9647 Y17.5646 
N07150 G01 X5.9525 Y17.5856 
N07160 G01 X5.9427 Y17.6222 
N07170 G01 X5.9309 Y17.6664 
N07180 G01 X5.9309 Y18.9749 
N07190 G01 X5.9284 Y18.9894 
N07200 G01 X5.9309 Y19.0165 
N07210 G01 X5.9309 Y19.0438 
N07220 G01 X5.9347 Y19.0580 
N07230 G01 X5.9430 Y19.1484 
N07240 G01 X5.9430 Y19.1757 
N07250 G01 X5.9468 Y19.1899 
N07260 G01 X5.9481 Y19.2045 
N07270 G01 X5.9576 Y19.2301 
N07280 G01 X5.9646 Y19.2565 
N07290 G01 X5.9720 Y19.2692 
N07300 G01 X5.9771 Y19.2830 
N07310 G01 X5.9928 Y19.3052 
N07320 G01 X6.0064 Y19.3289 
N07330 G01 X6.0168 Y19.3392 
N07340 G01 X6.0253 Y19.3512 
N07350 G01 X6.0463 Y19.3687 
N07360 G01 X6.0959 Y19.4184 
N07370 G01 X6.1551 Y19.4775 
N07380 G01 X6.2096 Y19.5090 
N07390 G01 X6.2274 Y19.5193 
N07400 G01 X6.2659 Y19.5296 
N07410 G01 X6.3082 Y19.5409 
N07420 G01 X6.3918 Y19.5409 
N07430 G01 X6.4726 Y19.5193 
N07440 G01 X6.5450 Y19.4775 
N07450 G01 X6.5921 Y19.4303 
N07460 G01 X8.0259 Y19.4303 
N07470 G01 X8.0556 Y19.4475 
N07480 G01 X8.1364 Y19.4691 
N07490 G01 X8.1786 Y19.4691 
N07500 G01 X8.2200 Y19.4691 
N07510 G01 X8.6682 Y19.4691 
N07520 G01 X8.6777 Y19.4710 
N07530 G01 X8.7099 Y19.4691 
N07540 G01 X8.7422 Y19.4691 
N07550 G01 X8.7515 Y19.4666 
N07560 G01 X8.7611 Y19.4660 
N07570 G01 X8.7815 Y19.4592 
N07580 G01 X8.8786 Y19.4661 
N07590 G01 X8.8896 Y19.4691 
N07600 G01 X8.9202 Y19.4691 
N07610 G01 X8.9506 Y19.4713 
N07620 G01 X8.9618 Y19.4691 
N07630 G01 X9.0593 Y19.4691 
N07640 G01 X9.0791 Y19.4773 
N07650 G01 X9.0886 Y19.4786 
N07660 G01 X9.0977 Y19.4817 
N07670 G01 X9.1191 Y19.4832 
N07680 G01 X9.2063 Y19.5268 
N07690 G01 X9.2153 Y19.5337 
N07700 G01 X9.2435 Y19.5454 
N07710 G01 X9.2708 Y19.5591 
N07720 G01 X9.2820 Y19.5614 
N07730 G01 X9.3720 Y19.5986 
N07740 G01 X9.3871 Y19.6138 
N07750 G01 X9.3955 Y19.6186 
N07760 G01 X9.4027 Y19.6250 
N07770 G01 X9.4316 Y19.6395 
N07780 G01 X9.4595 Y19.6556 
N07790 G01 X9.4689 Y19.6581 
N07800 G01 X11.7463 Y20.7968 
N07810 G01 X11.7553 Y20.8037 
N07820 G01 X11.7835 Y20.8154 
N07830 G01 X11.8108 Y20.8291 
N07840 G01 X11.8220 Y20.8314 
N07850 G01 X11.9120 Y20.8686 
N07860 G01 X11.9272 Y20.8838 
N07870 G01 X11.9355 Y20.8886 
N07880 G01 X11.9427 Y20.8950 
N07890 G01 X11.9619 Y20.9046 
N07900 G01 X12.0257 Y20.9782 
N07910 G01 X12.0314 Y20.9881 
N07920 G01 X12.0530 Y21.0097 
N07930 G01 X12.0730 Y21.0327 
N07940 G01 X12.0825 Y21.0391 
N07950 G01 X12.1513 Y21.1080 
N07960 G01 X12.1595 Y21.1278 
N07970 G01 X12.1654 Y21.1355 
N07980 G01 X12.1697 Y21.1442 
N07990 G01 X12.1837 Y21.1604 
N08000 G01 X12.2145 Y21.2527 
N08010 G01 X12.2160 Y21.2641 
N08020 G01 X12.2277 Y21.2923 
N08030 G01 X12.2373 Y21.3212 
N08040 G01 X12.2436 Y21.3307 
N08050 G01 X12.2809 Y21.4207 
N08060 G01 X12.2809 Y21.4422 
N08070 G01 X12.2834 Y21.4515 
N08080 G01 X12.2840 Y21.4611 
N08090 G01 X12.2908 Y21.4815 
N08100 G01 X12.2838 Y21.5786 
N08110 G01 X12.2809 Y21.5896 
N08120 G01 X12.2809 Y21.6202 
N08130 G01 X12.2787 Y21.6506 
N08140 G01 X12.2809 Y21.6618 
N08150 G01 X12.2809 Y21.7334 
N08160 G01 X12.3025 Y21.8142 
N08170 G01 X12.3443 Y21.8865 
N08180 G01 X12.4034 Y21.9457 
N08190 G01 X12.4758 Y21.9875 
N08200 G01 X12.5566 Y22.0091 
N08210 G01 X13.3693 Y22.0091 
N08220 G01 X13.6820 Y22.1386 
N08230 G01 X13.9214 Y22.3780 
N08240 G01 X14.0509 Y22.6907 
N08250 G01 X14.0509 Y23.0293 
N08260 G01 X13.9214 Y23.3420 
N08270 G01 X13.6820 Y23.5814 
N08280 G01 X13.3693 Y23.7109 
N08290 G01 X11.2607 Y23.7109 
N08300 G01 X10.9480 Y23.5814 
N08310 G01 X10.7086 Y23.3420 
N08320 G01 X10.5791 Y23.0293 
N08330 G01 X10.5791 Y22.3443 
N08340 G01 X10.5810 Y22.3348 
N08350 G01 X10.5791 Y22.3026 
N08360 G01 X10.5791 Y22.2703 
N08370 G01 X10.5766 Y22.2610 
N08380 G01 X10.5760 Y22.2514 
N08390 G01 X10.5658 Y22.2207 
N08400 G01 X10.5575 Y22.1896 
N08410 G01 X10.5526 Y22.1812 
N08420 G01 X10.5496 Y22.1720 
N08430 G01 X10.5318 Y22.1451 
N08440 G01 X10.5157 Y22.1172 
N08450 G01 X10.5088 Y22.1103 
N08460 G01 X10.5035 Y22.1023 
N08470 G01 X10.4794 Y22.0809 
N08480 G01 X10.4565 Y22.0580 
N08490 G01 X10.4482 Y22.0532 
N08500 G01 X10.4410 Y22.0468 
N08510 G01 X10.4121 Y22.0324 
N08520 G01 X10.3841 Y22.0162 
N08530 G01 X10.3748 Y22.0137 
N08540 G01 X8.7647 Y21.2087 
N08550 G01 X8.7367 Y21.1925 
N08560 G01 X8.7274 Y21.1900 
N08570 G01 X8.7188 Y21.1857 
N08580 G01 X8.6871 Y21.1792 
N08590 G01 X8.6560 Y21.1709 
N08600 G01 X8.6463 Y21.1709 
N08610 G01 X8.6369 Y21.1690 
N08620 G01 X8.6047 Y21.1709 
N08630 G01 X8.2200 Y21.1709 
N08640 G01 X8.1777 Y21.1709 
N08650 G01 X8.1364 Y21.1709 
N08660 G01 X8.0556 Y21.1925 
N08670 G01 X8.0259 Y21.2097 
N08680 G01 X7.2387 Y21.2097 
N08690 G01 X7.2017 Y21.2086 
N08700 G01 X7.1969 Y21.2097 
N08710 G01 X7.1920 Y21.2097 
N08720 G01 X7.1563 Y21.2192 
N08730 G01 X7.1204 Y21.2277 
N08740 G01 X7.1160 Y21.2301 
N08750 G01 X7.1112 Y21.2313 
N08760 G01 X7.0793 Y21.2498 
N08770 G01 X7.0467 Y21.2673 
N08780 G01 X7.0431 Y21.2707 
N08790 G01 X7.0388 Y21.2731 
N08800 G01 X7.0128 Y21.2992 
N08810 G01 X6.9858 Y21.3245 
N08820 G01 X6.9832 Y21.3288 
N08830 G01 X6.9797 Y21.3322 
N08840 G01 X6.9613 Y21.3642 
N08850 G01 X6.9418 Y21.3956 
N08860 G01 X6.9404 Y21.4004 
N08870 G01 X6.9379 Y21.4046 
N08880 G01 X6.9284 Y21.4403 
N08890 G01 X6.9177 Y21.4757 
N08900 G01 X6.9176 Y21.4806 
N08910 G01 X6.9163 Y21.4854 
N08920 G01 X6.9163 Y21.5223 
N08930 G01 X6.9151 Y21.5592 
N08940 G01 X6.9163 Y21.5641 
N08950 G01 X6.9163 Y21.5690 
N08960 G01 X6.9258 Y21.6046 
N08970 G01 X6.9343 Y21.6406 
N08980 G01 X6.9366 Y21.6450 
N08990 G01 X6.9379 Y21.6497 
N09000 G01 X6.9564 Y21.6817 
N09010 G01 X6.9739 Y21.7143 
N09020 G01 X6.9773 Y21.7179 
N09030 G01 X6.9797 Y21.7221 
N09040 G01 X7.0058 Y21.7482 
N09050 G01 X7.0311 Y21.7752 
N09060 G01 X7.0353 Y21.7778 
N09070 G01 X7.0388 Y21.7813 
N09080 G01 X7.0708 Y21.7997 
N09090 G01 X7.1022 Y21.8192 
N09100 G01 X7.1069 Y21.8206 
N09110 G01 X7.1112 Y21.8231 
N09120 G01 X7.1385 Y21.8304 
N09130 G01 X8.3258 Y22.5451 
N09140 G01 X9.3001 Y23.5307 
N09150 G01 X10.0023 Y24.7279 
N09160 G01 X10.3868 Y26.0605 
N09170 G01 X10.4094 Y26.7766 
N09180 G01 X10.4094 Y26.8134 
N09190 G01 X10.4107 Y26.8183 
N09200 G01 X10.4109 Y26.8234 
N09210 G01 X10.4215 Y26.8586 
N09220 G01 X10.4311 Y26.8941 
N09230 G01 X10.4336 Y26.8986 
N09240 G01 X10.4351 Y26.9034 
N09250 G01 X10.4545 Y26.9347 
N09260 G01 X10.4729 Y26.9665 
N09270 G01 X10.4765 Y26.9701 
N09280 G01 X10.4791 Y26.9745 
N09290 G01 X10.5060 Y26.9997 
N09300 G01 X10.5320 Y27.0257 
N09310 G01 X10.5364 Y27.0282 
N09320 G01 X10.5401 Y27.0317 
N09330 G01 X10.5725 Y27.0491 
N09340 G01 X10.6044 Y27.0675 
N09350 G01 X10.6093 Y27.0688 
N09360 G01 X10.6138 Y27.0712 
N09370 G01 X10.6496 Y27.0796 
N09380 G01 X10.6851 Y27.0891 
N09390 G01 X10.6902 Y27.0891 
N09400 G01 X10.6952 Y27.0903 
N09410 G01 X10.7320 Y27.0891 
N09420 G01 X15.7400 Y27.0891 
N09430 G01 X15.7823 Y27.0891 
N09440 G01 X15.8236 Y27.0891 
N09450 G01 X15.8520 Y27.0815 
N09460 G01 X15.9044 Y27.0675 
N09470 G01 X15.9168 Y27.0603 
N09480 G01 X16.7346 Y27.0603 
N09490 G01 X16.8153 Y27.0387 
N09500 G01 X16.8877 Y26.9969 
N09510 G01 X16.9469 Y26.9377 
N09520 G01 X16.9887 Y26.8653 
N09530 G01 X17.0103 Y26.7846 
N09540 G01 X17.0103 Y26.5266 
N09550 G01 X16.9887 Y26.4458 
N09560 G01 X16.9469 Y26.3734 
N09570 G01 X16.8877 Y26.3143 
N09580 G01 X16.8153 Y26.2725 
N09590 G01 X16.7346 Y26.2509 
N09600 G01 X12.0807 Y26.2509 
N09610 G01 X11.7680 Y26.1214 
N09620 G01 X11.5286 Y25.8820 
N09630 G01 X11.3991 Y25.5693 
N09640 G01 X11.3991 Y25.2307 
N09650 G01 X11.5286 Y24.9180 
N09660 G01 X11.7680 Y24.6786 
N09670 G01 X12.0807 Y24.5491 
N09680 G01 X15.2234 Y24.5491 
N09690 G01 X15.3041 Y24.5275 
N09700 G01 X15.3765 Y24.4857 
N09710 G01 X15.4357 Y24.4265 
N09720 G01 X15.4775 Y24.3542 
N09730 G01 X15.4991 Y24.2734 
N09740 G01 X15.4991 Y11.7122 
N09750 G01 X15.4775 Y11.6314 
N09760 G01 X15.4625 Y11.6055 
N09770 G01 X15.4357 Y11.5590 
N09780 G01 X15.1521 Y11.2755 
N09790 G01 X15.0813 Y11.2346 
N09800 G01 X14.9990 Y11.2121 
N09810 G01 X14.9154 Y11.2121 
N09820 G01 X14.8346 Y11.2337 
N09830 G01 X14.8076 Y11.2493 
N09840 G01 X14.7622 Y11.2755 
N09850 G01 X14.7031 Y11.3346 
N09860 G01 X14.6623 Y11.4054 
N09870 G01 X14.6397 Y11.4878 
N09880 G01 X14.6397 Y11.8079 
N09890 G01 X14.5579 Y11.8897 
N09900 G01 X13.8776 Y11.8897 
N09910 G01 X13.7968 Y11.9113 
N09920 G01 X13.7244 Y11.9531 
N09930 G01 X13.6879 Y11.9897 
N09940 G01 X11.9721 Y11.9897 
N09950 G01 X11.8903 Y11.9079 
N09960 G01 X11.8903 Y9.0814 
N09970 G01 X11.9175 Y9.0344 
N09980 G01 X11.9219 Y9.0176 
N09990 G01 X11.9391 Y8.9536 
N10000 G01 X11.9391 Y7.4766 
N10010 G01 X11.9175 Y7.3958 
N10020 G01 X11.8757 Y7.3234 
N10030 G01 X11.8165 Y7.2643 
N10040 G01 X11.7441 Y7.2225 
N10050 G01 X11.6634 Y7.2009 
N10060 G01 X6.1991 Y7.2009 
N10070 G01 X6.1782 Y7.1982 
N10080 G01 X6.1574 Y7.2009 
N10090 G01 X6.1364 Y7.2009 
N10100 G01 X6.1162 Y7.2063 
N10110 G01 X6.0954 Y7.2091 
N10120 G01 X6.0760 Y7.2171 
N10130 G01 X6.0557 Y7.2225 
N10140 G01 X6.0375 Y7.2330 
N10150 G01 X6.0118 Y7.2437 
N10160 G01 X4.1482 Y7.2437 
N10170 G01 X3.8197 Y7.1076 
N10180 G01 X3.5684 Y6.8562 
N10190 G01 X3.4323 Y6.5278 
N10200 G01 X3.4323 Y6.1722 
N10210 G01 X3.5684 Y5.8438 
N10220 G01 X3.8197 Y5.5924 
N10230 G00 Z3.0000 
N10240 G00 X3.9147 Y5.5805 
N10250 G01 Z-0.0900 F254.00 
N10260 G01 X3.7725 Y5.6755 F508.00 
N10270 G01 X3.6515 Y5.7965 
N10280 G01 X3.5565 Y5.9387 
N10290 G01 X3.4911 Y6.0967 
N10300 G01 X3.4577 Y6.2645 
N10310 G01 X3.4577 Y6.4355 
N10320 G01 X3.4911 Y6.6033 
N10330 G01 X3.5565 Y6.7613 
N10340 G01 X3.6515 Y6.9035 
N10350 G01 X3.7725 Y7.0244 
N10360 G01 X3.9147 Y7.1195 
N10370 G01 X4.0727 Y7.1849 
N10380 G01 X4.2405 Y7.2183 
N10390 G01 X5.9195 Y7.2183 
N10400 G01 X6.0873 Y7.1849 
N10410 G01 X6.1100 Y7.1755 
N10420 G01 X11.9645 Y7.1755 
N10430 G01 X11.9645 Y9.0539 
N10440 G01 X11.9331 Y9.0853 
N10450 G01 X11.9157 Y9.1273 
N10460 G01 X11.9157 Y11.8727 
N10470 G01 X11.9331 Y11.9147 
N10480 G01 X11.9653 Y11.9469 
N10490 G01 X12.0073 Y11.9643 
N10500 G01 X13.6527 Y11.9643 
N10510 G01 X13.6947 Y11.9469 
N10520 G01 X13.7269 Y11.9147 
N10530 G01 X13.7443 Y11.8727 
N10540 G01 X13.7443 Y11.8643 
N10550 G01 X14.5227 Y11.8643 
N10560 G01 X14.5647 Y11.8469 
N10570 G01 X14.5969 Y11.8147 
N10580 G01 X14.6143 Y11.7727 
N10590 G01 X14.6143 Y10.9855 
N10600 G01 X14.8981 Y10.9855 
N10610 G01 X15.5245 Y11.6119 
N10620 G01 X15.5245 Y24.5745 
N10630 G01 X12.1687 Y24.5745 
N10640 G01 X12.0092 Y24.6062 
N10650 G01 X11.8590 Y24.6684 
N10660 G01 X11.7238 Y24.7588 
N10670 G01 X11.6088 Y24.8738 
N10680 G01 X11.5184 Y25.0090 
N10690 G01 X11.4562 Y25.1592 
N10700 G01 X11.4245 Y25.3187 
N10710 G01 X11.4245 Y25.4813 
N10720 G01 X11.4562 Y25.6408 
N10730 G01 X11.5184 Y25.7910 
N10740 G01 X11.6088 Y25.9262 
N10750 G01 X11.7238 Y26.0412 
N10760 G01 X11.8590 Y26.1315 
N10770 G01 X12.0092 Y26.1938 
N10780 G01 X12.1687 Y26.2255 
N10790 G01 X16.9113 Y26.2255 
N10800 G01 X17.0357 Y26.2008 
N10810 G01 X17.0357 Y26.9727 
N10820 G01 X17.0531 Y27.0147 
N10830 G01 X17.0853 Y27.0469 
N10840 G01 X17.1273 Y27.0643 
N10850 G01 X18.3727 Y27.0643 
N10860 G01 X18.4147 Y27.0469 
N10870 G01 X18.4469 Y27.0147 
N10880 G01 X18.4643 Y26.9727 
N10890 G01 X18.4643 Y24.6573 
N10900 G01 X18.4469 Y24.6153 
N10910 G01 X18.4147 Y24.5831 
N10920 G01 X18.3727 Y24.5657 
N10930 G01 X17.1755 Y24.5657 
N10940 G01 X17.1755 Y21.6861 
N10950 G01 X17.2069 Y21.6547 
N10960 G01 X17.2243 Y21.6127 
N10970 G01 X17.2243 Y20.7899 
N10980 G01 X17.3357 Y20.7899 
N10990 G01 X17.3357 Y21.0927 
N11000 G01 X17.3531 Y21.1347 
N11010 G01 X17.3853 Y21.1669 
N11020 G01 X17.4273 Y21.1843 
N11030 G01 X18.7727 Y21.1843 
N11040 G01 X18.8147 Y21.1669 
N11050 G01 X18.8469 Y21.1347 
N11060 G01 X18.8643 Y21.0927 
N11070 G01 X18.8643 Y19.5473 
N11080 G01 X18.8469 Y19.5053 
N11090 G01 X18.8147 Y19.4731 
N11100 G01 X18.7727 Y19.4557 
N11110 G01 X17.4273 Y19.4557 
N11120 G01 X17.3853 Y19.4731 
N11130 G01 X17.3531 Y19.5053 
N11140 G01 X17.3357 Y19.5473 
N11150 G01 X17.3357 Y19.8501 
N11160 G01 X17.2243 Y19.8501 
N11170 G01 X17.2243 Y19.0273 
N11180 G01 X17.2069 Y18.9853 
N11190 G01 X17.1755 Y18.9539 
N11200 G01 X17.1755 Y11.1887 
N11210 G01 X17.1438 Y11.0292 
N11220 G01 X17.0815 Y10.8790 
N11230 G01 X16.9912 Y10.7438 
N11240 G01 X15.8812 Y9.6338 
N11250 G01 X15.7662 Y9.5188 
N11260 G01 X15.6310 Y9.4284 
N11270 G01 X15.4808 Y9.3662 
N11280 G01 X15.3213 Y9.3345 
N11290 G01 X14.6143 Y9.3345 
N11300 G01 X14.6143 Y8.9773 
N11310 G01 X14.5969 Y8.9353 
N11320 G01 X14.5647 Y8.9031 
N11330 G01 X14.5227 Y8.8857 
N11340 G01 X13.6155 Y8.8857 
N11350 G01 X13.6155 Y6.2687 
N11360 G01 X13.5838 Y6.1092 
N11370 G01 X13.5647 Y6.0632 
N11380 G01 X13.5647 Y6.0291 
N11390 G01 X13.5406 Y6.0050 
N11400 G01 X13.5215 Y5.9590 
N11410 G01 X13.4312 Y5.8238 
N11420 G01 X13.3162 Y5.7088 
N11430 G01 X13.1810 Y5.6185 
N11440 G01 X13.1350 Y5.5994 
N11450 G01 X13.1109 Y5.5753 
N11460 G01 X13.0768 Y5.5753 
N11470 G01 X13.0308 Y5.5562 
N11480 G01 X12.8713 Y5.5245 
N11490 G01 X6.1100 Y5.5245 
N11500 G01 X6.0873 Y5.5151 
N11510 G01 X5.9195 Y5.4817 
N11520 G01 X4.2405 Y5.4817 
N11530 G01 X4.0727 Y5.5151 
N11540 G01 X3.9147 Y5.5805 
N11550 G00 Z3.0000 
N11560 G00 X3.9147 Y8.1205 
N11570 G01 Z-0.0900 F254.00 
N11580 G01 X3.7725 Y8.2155 F508.00 
N11590 G01 X3.6515 Y8.3365 
N11600 G01 X3.5565 Y8.4787 
N11610 G01 X3.5371 Y8.5257 
N11620 G01 X3.5086 Y8.5257 
N11630 G01 X3.5616 Y8.4216 
N11640 G01 X3.6443 Y8.3078 
N11650 G01 X3.7438 Y8.2083 
N11660 G01 X3.8576 Y8.1256 
N11670 G01 X3.9829 Y8.0618 
N11680 G01 X4.1167 Y8.0183 
N11690 G01 X4.2557 Y7.9963 
N11700 G01 X4.7157 Y7.9963 
N11710 G01 X4.7157 Y8.0217 
N11720 G01 X4.2405 Y8.0217 
N11730 G01 X4.0727 Y8.0551 
N11740 G01 X3.9147 Y8.1205 
N11750 G00 Z3.0000 
N11760 G00 X3.5371 Y9.2543 
N11770 G01 Z-0.0900 F254.00 
N11780 G01 X3.5565 Y9.3013 F508.00 
N11790 G01 X3.6515 Y9.4435 
N11800 G01 X3.7725 Y9.5645 
N11810 G01 X3.9147 Y9.6595 
N11820 G01 X4.0727 Y9.7249 
N11830 G01 X4.2405 Y9.7583 
N11840 G01 X4.7157 Y9.7583 
N11850 G01 X4.7157 Y9.7837 
N11860 G01 X4.2557 Y9.7837 
N11870 G01 X4.1167 Y9.7617 
N11880 G01 X3.9829 Y9.7182 
N11890 G01 X3.8576 Y9.6544 
N11900 G01 X3.7438 Y9.5717 
N11910 G01 X3.6443 Y9.4722 
N11920 G01 X3.5616 Y9.3584 
N11930 G01 X3.5086 Y9.2543 
N11940 G01 X3.5371 Y9.2543 
N11950 G00 Z3.0000 
N11960 G00 X3.6515 Y10.8765 
N11970 G01 Z-0.0900 F254.00 
N11980 G01 X3.5565 Y11.0187 F508.00 
N11990 G01 X3.4911 Y11.1767 
N12000 G01 X3.4577 Y11.3445 
N12010 G01 X3.4577 Y11.5155 
N12020 G01 X3.4911 Y11.6833 
N12030 G01 X3.5565 Y11.8413 
N12040 G01 X3.6515 Y11.9835 
N12050 G01 X3.7725 Y12.1044 
N12060 G01 X3.9147 Y12.1995 
N12070 G01 X4.0727 Y12.2649 
N12080 G01 X4.2405 Y12.2983 
N12090 G01 X4.2545 Y12.2983 
N12100 G01 X4.2545 Y16.5913 
N12110 G01 X4.2702 Y16.6700 
N12120 G01 X4.2545 Y16.7487 
N12130 G01 X4.2545 Y22.2322 
N12140 G01 X4.2518 Y22.2956 
N12150 G01 X4.2545 Y22.3133 
N12160 G01 X4.2545 Y22.3313 
N12170 G01 X4.2669 Y22.3936 
N12180 G01 X4.2766 Y22.4563 
N12190 G01 X4.2827 Y22.4732 
N12200 G01 X4.2862 Y22.4908 
N12210 G01 X4.3105 Y22.5494 
N12220 G01 X4.3322 Y22.6091 
N12230 G01 X4.3416 Y22.6244 
N12240 G01 X4.3484 Y22.6410 
N12250 G01 X4.3837 Y22.6938 
N12260 G01 X4.4167 Y22.7480 
N12270 G01 X4.4288 Y22.7613 
N12280 G01 X4.4388 Y22.7762 
N12290 G01 X4.4837 Y22.8211 
N12300 G01 X4.5266 Y22.8679 
N12310 G01 X4.5411 Y22.8785 
N12320 G01 X4.5538 Y22.8912 
N12330 G01 X4.6066 Y22.9265 
N12340 G01 X4.6578 Y22.9640 
N12350 G01 X4.6740 Y22.9716 
N12360 G01 X4.6890 Y22.9815 
N12370 G01 X4.7477 Y23.0058 
N12380 G01 X4.8052 Y23.0326 
N12390 G01 X4.8226 Y23.0369 
N12400 G01 X4.8392 Y23.0438 
N12410 G01 X4.9015 Y23.0562 
N12420 G01 X4.9631 Y23.0712 
N12430 G01 X4.9811 Y23.0720 
N12440 G01 X4.9987 Y23.0755 
N12450 G01 X5.0564 Y23.0755 
N12460 G01 X5.2043 Y23.0850 
N12470 G01 X5.5222 Y23.1254 
N12480 G01 X5.8357 Y23.1920 
N12490 G01 X6.1426 Y23.2844 
N12500 G01 X6.4407 Y23.4020 
N12510 G01 X6.7281 Y23.5439 
N12520 G01 X7.0027 Y23.7092 
N12530 G01 X7.2626 Y23.8967 
N12540 G01 X7.5060 Y24.1051 
N12550 G01 X7.7313 Y24.3331 
N12560 G01 X7.9370 Y24.5789 
N12570 G01 X8.1214 Y24.8410 
N12580 G01 X8.2835 Y25.1175 
N12590 G01 X8.4221 Y25.4065 
N12600 G01 X8.5362 Y25.7059 
N12610 G01 X8.6251 Y26.0139 
N12620 G01 X8.6881 Y26.3281 
N12630 G01 X8.7247 Y26.6465 
N12640 G01 X8.7349 Y26.9668 
N12650 G01 X8.7184 Y27.2869 
N12660 G01 X8.6754 Y27.6045 
N12670 G01 X8.6440 Y27.7617 
N12680 G01 X8.6264 Y27.8411 
N12690 G01 X8.6229 Y28.0036 
N12700 G01 X8.6513 Y28.1638 
N12710 G01 X8.7103 Y28.3153 
N12720 G01 X8.7977 Y28.4524 
N12730 G01 X8.9102 Y28.5698 
N12740 G01 X9.0434 Y28.6630 
N12750 G01 X9.1923 Y28.7284 
N12760 G01 X9.3511 Y28.7636 
N12770 G01 X9.4160 Y28.7650 
N12780 G01 X9.4187 Y28.7655 
N12790 G01 X9.4411 Y28.7655 
N12800 G01 X9.5136 Y28.7670 
N12810 G01 X9.5224 Y28.7655 
N12820 G01 X16.5913 Y28.7655 
N12830 G01 X16.5973 Y28.7643 
N12840 G01 X18.4227 Y28.7643 
N12850 G01 X18.4647 Y28.7469 
N12860 G01 X18.4969 Y28.7147 
N12870 G01 X18.5143 Y28.6727 
N12880 G01 X18.5143 Y27.1773 
N12890 G01 X18.4969 Y27.1353 
N12900 G01 X18.4647 Y27.1031 
N12910 G01 X18.4227 Y27.0857 
N12920 G01 X15.9773 Y27.0857 
N12930 G01 X15.9353 Y27.1031 
N12940 G01 X15.9239 Y27.1145 
N12950 G01 X10.3838 Y27.1145 
N12960 G01 X10.3905 Y26.9833 
N12970 G01 X10.3761 Y26.5255 
N12980 G01 X10.3236 Y26.0704 
N12990 G01 X10.2336 Y25.6213 
N13000 G01 X10.1066 Y25.1812 
N13010 G01 X9.9435 Y24.7532 
N13020 G01 X9.7455 Y24.3401 
N13030 G01 X9.5138 Y23.9450 
N13040 G01 X9.2501 Y23.5704 
N13050 G01 X8.9563 Y23.2190 
N13060 G01 X8.6342 Y22.8932 
N13070 G01 X8.2863 Y22.5953 
N13080 G01 X7.9148 Y22.3273 
N13090 G01 X7.5224 Y22.0911 
N13100 G01 X7.1117 Y21.8882 
N13110 G01 X6.6855 Y21.7202 
N13120 G01 X6.2469 Y21.5881 
N13130 G01 X5.9055 Y21.5155 
N13140 G01 X5.9055 Y21.1843 
N13150 G01 X6.0727 Y21.1843 
N13160 G01 X6.1147 Y21.1669 
N13170 G01 X6.1469 Y21.1347 
N13180 G01 X6.1643 Y21.0927 
N13190 G01 X6.1643 Y19.5473 
N13200 G01 X6.1469 Y19.5053 
N13210 G01 X6.1147 Y19.4731 
N13220 G01 X6.0727 Y19.4557 
N13230 G01 X5.9457 Y19.4557 
N13240 G01 X5.9055 Y19.0177 
N13250 G01 X5.9055 Y17.3743 
N13260 G01 X6.0727 Y17.3743 
N13270 G01 X6.1147 Y17.3569 
N13280 G01 X6.1469 Y17.3247 
N13290 G01 X6.1643 Y17.2827 
N13300 G01 X6.1643 Y15.7373 
N13310 G01 X6.1469 Y15.6953 
N13320 G01 X6.1147 Y15.6631 
N13330 G01 X6.0727 Y15.6457 
N13340 G01 X5.9055 Y15.6457 
N13350 G01 X5.9055 Y12.2983 
N13360 G01 X5.9195 Y12.2983 
N13370 G01 X6.0873 Y12.2649 
N13380 G01 X6.2453 Y12.1995 
N13390 G01 X6.3875 Y12.1044 
N13400 G01 X6.5084 Y11.9835 
N13410 G01 X6.6035 Y11.8413 
N13420 G01 X6.6689 Y11.6833 
N13430 G01 X6.7023 Y11.5155 
N13440 G01 X6.7023 Y11.3445 
N13450 G01 X6.6689 Y11.1767 
N13460 G01 X6.6035 Y11.0187 
N13470 G01 X6.5084 Y10.8765 
N13480 G01 X6.3875 Y10.7555 
N13490 G01 X6.2453 Y10.6605 
N13500 G01 X6.0873 Y10.5951 
N13510 G01 X5.9195 Y10.5617 
N13520 G01 X4.2405 Y10.5617 
N13530 G01 X4.0727 Y10.5951 
N13540 G01 X3.9147 Y10.6605 
N13550 G01 X3.7725 Y10.7555 
N13560 G01 X3.6515 Y10.8765 
N13570 G00 Z3.0000 
N13580 G00 X5.4443 Y9.7837 
N13590 G01 Z-0.0900 F254.00 
N13600 G01 X5.4443 Y9.7583 F508.00 
N13610 G01 X5.9195 Y9.7583 
N13620 G01 X6.0873 Y9.7249 
N13630 G01 X6.2453 Y9.6595 
N13640 G01 X6.3875 Y9.5645 
N13650 G01 X6.5084 Y9.4435 
N13660 G01 X6.6035 Y9.3013 
N13670 G01 X6.6229 Y9.2543 
N13680 G01 X6.6514 Y9.2543 
N13690 G01 X6.5984 Y9.3584 
N13700 G01 X6.5157 Y9.4722 
N13710 G01 X6.4162 Y9.5717 
N13720 G01 X6.3024 Y9.6544 
N13730 G01 X6.1771 Y9.7182 
N13740 G01 X6.0433 Y9.7617 
N13750 G01 X5.9043 Y9.7837 
N13760 G01 X5.4443 Y9.7837 
N13770 G00 Z3.0000 
N13780 G00 X5.4443 Y8.0217 
N13790 G01 Z-0.0900 F254.00 
N13800 G01 X5.4443 Y7.9963 F508.00 
N13810 G01 X5.9043 Y7.9963 
N13820 G01 X6.0433 Y8.0183 
N13830 G01 X6.1771 Y8.0618 
N13840 G01 X6.3024 Y8.1256 
N13850 G01 X6.4162 Y8.2083 
N13860 G01 X6.5157 Y8.3078 
N13870 G01 X6.5984 Y8.4216 
N13880 G01 X6.6514 Y8.5257 
N13890 G01 X6.6229 Y8.5257 
N13900 G01 X6.6035 Y8.4787 
N13910 G01 X6.5084 Y8.3365 
N13920 G01 X6.3875 Y8.2155 
N13930 G01 X6.2453 Y8.1205 
N13940 G01 X6.0873 Y8.0551 
N13950 G01 X5.9195 Y8.0217 
N13960 G01 X5.4443 Y8.0217 
N13970 G00 Z3.0000 
N13980 G00 X9.1182 Y9.0642 
N13990 G01 Z-0.0900 F254.00 
N14000 G01 X9.1442 Y9.0382 F508.00 
N14010 G01 X9.1761 Y9.0198 
N14020 G01 X9.2116 Y9.0103 
N14030 G01 X9.5157 Y9.0103 
N14040 G01 X9.5157 Y9.0357 
N14050 G01 X9.2073 Y9.0357 
N14060 G01 X9.1653 Y9.0531 
N14070 G01 X9.1331 Y9.0853 
N14080 G01 X9.1157 Y9.1273 
N14090 G01 X9.1157 Y9.9857 
N14100 G01 X9.0903 Y9.9857 
N14110 G01 X9.0903 Y9.1316 
N14120 G01 X9.0998 Y9.0961 
N14130 G01 X9.1182 Y9.0642 
N14140 G00 Z3.0000 
N14150 G00 X10.5443 Y9.0357 
N14160 G01 Z-0.0900 F254.00 
N14170 G01 X10.5443 Y9.0103 F508.00 
N14180 G01 X10.8484 Y9.0103 
N14190 G01 X10.8839 Y9.0198 
N14200 G01 X10.9158 Y9.0382 
N14210 G01 X10.9418 Y9.0642 
N14220 G01 X10.9602 Y9.0961 
N14230 G01 X10.9697 Y9.1316 
N14240 G01 X10.9697 Y9.9857 
N14250 G01 X10.9443 Y9.9857 
N14260 G01 X10.9443 Y9.1273 
N14270 G01 X10.9269 Y9.0853 
N14280 G01 X10.8947 Y9.0531 
N14290 G01 X10.8527 Y9.0357 
N14300 G01 X10.5443 Y9.0357 
N14310 G00 Z3.0000 
N14320 G00 X10.9443 Y11.0143 
N14330 G01 Z-0.0900 F254.00 
N14340 G01 X10.9697 Y11.0143 F508.00 
N14350 G01 X10.9697 Y11.8684 
N14360 G01 X10.9602 Y11.9039 
N14370 G01 X10.9418 Y11.9358 
N14380 G01 X10.9158 Y11.9618 
N14390 G01 X10.8839 Y11.9802 
N14400 G01 X10.8484 Y11.9897 
N14410 G01 X10.5443 Y11.9897 
N14420 G01 X10.5443 Y11.9643 
N14430 G01 X10.8527 Y11.9643 
N14440 G01 X10.8947 Y11.9469 
N14450 G01 X10.9269 Y11.9147 
N14460 G01 X10.9443 Y11.8727 
N14470 G01 X10.9443 Y11.0143 
N14480 G00 Z3.0000 
N14490 G00 X9.1157 Y11.0143 
N14500 G01 Z-0.0900 F254.00 
N14510 G01 X9.1157 Y11.8727 F508.00 
N14520 G01 X9.1331 Y11.9147 
N14530 G01 X9.1653 Y11.9469 
N14540 G01 X9.2073 Y11.9643 
N14550 G01 X9.5157 Y11.9643 
N14560 G01 X9.5157 Y11.9897 
N14570 G01 X9.2116 Y11.9897 
N14580 G01 X9.1761 Y11.9802 
N14590 G01 X9.1442 Y11.9618 
N14600 G01 X9.1182 Y11.9358 
N14610 G01 X9.0998 Y11.9039 
N14620 G01 X9.0903 Y11.8684 
N14630 G01 X9.0903 Y11.0143 
N14640 G01 X9.1157 Y11.0143 
N14650 G00 Z3.0000 
N14660 G00 X9.1308 Y15.7162 
N14670 G01 Z-0.0900 F254.00 
N14680 G01 X9.0798 Y15.7061 F508.00 
N14690 G01 X9.0296 Y15.6923 
N14700 G01 X9.0002 Y15.6903 
N14710 G01 X8.9713 Y15.6845 
N14720 G01 X8.9193 Y15.6845 
N14730 G01 X8.8674 Y15.6808 
N14740 G01 X8.8382 Y15.6845 
N14750 G01 X8.0361 Y15.6845 
N14760 G01 X8.0147 Y15.6631 
N14770 G01 X7.9727 Y15.6457 
N14780 G01 X6.6273 Y15.6457 
N14790 G01 X6.5853 Y15.6631 
N14800 G01 X6.5531 Y15.6953 
N14810 G01 X6.5357 Y15.7373 
N14820 G01 X6.5357 Y16.1980 
N14830 G01 X6.5062 Y16.2692 
N14840 G01 X6.4745 Y16.4287 
N14850 G01 X6.4745 Y16.5913 
N14860 G01 X6.5062 Y16.7508 
N14870 G01 X6.5357 Y16.8220 
N14880 G01 X6.5357 Y17.2827 
N14890 G01 X6.5531 Y17.3247 
N14900 G01 X6.5853 Y17.3569 
N14910 G01 X6.6273 Y17.3743 
N14920 G01 X7.9727 Y17.3743 
N14930 G01 X8.0147 Y17.3569 
N14940 G01 X8.0361 Y17.3355 
N14950 G01 X8.6951 Y17.3355 
N14960 G01 X11.0145 Y18.4952 
N14970 G01 X11.0390 Y18.5115 
N14980 G01 X11.0870 Y18.5315 
N14990 G01 X11.1335 Y18.5547 
N15000 G01 X11.1620 Y18.5625 
N15010 G01 X11.1892 Y18.5738 
N15020 G01 X11.2402 Y18.5839 
N15030 G01 X11.2904 Y18.5977 
N15040 G01 X11.3198 Y18.5997 
N15050 G01 X11.3487 Y18.6055 
N15060 G01 X11.4007 Y18.6055 
N15070 G01 X11.4526 Y18.6092 
N15080 G01 X11.4818 Y18.6055 
N15090 G01 X12.6187 Y18.6055 
N15100 G01 X13.2813 Y18.6055 
N15110 G01 X13.4408 Y18.5738 
N15120 G01 X13.5910 Y18.5115 
N15130 G01 X13.7262 Y18.4212 
N15140 G01 X13.8412 Y18.3062 
N15150 G01 X13.9315 Y18.1710 
N15160 G01 X13.9938 Y18.0208 
N15170 G01 X14.0255 Y17.8613 
N15180 G01 X14.0255 Y17.6987 
N15190 G01 X13.9938 Y17.5392 
N15200 G01 X13.9315 Y17.3890 
N15210 G01 X13.8412 Y17.2538 
N15220 G01 X13.7262 Y17.1388 
N15230 G01 X13.5910 Y17.0484 
N15240 G01 X13.4408 Y16.9862 
N15250 G01 X13.2813 Y16.9545 
N15260 G01 X11.6249 Y16.9545 
N15270 G01 X9.3055 Y15.7948 
N15280 G01 X9.2810 Y15.7784 
N15290 G01 X9.2330 Y15.7585 
N15300 G01 X9.1865 Y15.7353 
N15310 G01 X9.1580 Y15.7275 
N15320 G01 X9.1308 Y15.7162 
N15330 G00 Z3.0000 
N15340 G00 X11.8999 Y15.5714 
N15350 G01 Z-0.0900 F254.00 
N15360 G01 X11.8999 Y15.5575 F508.00 
N15370 G01 X11.9253 Y15.5575 
N15380 G01 X11.9253 Y15.5609 
N15390 G01 X12.3791 Y16.0147 
N15400 G01 X12.3825 Y16.0147 
N15410 G01 X12.3825 Y16.0401 
N15420 G01 X12.3686 Y16.0401 
N15430 G01 X11.8999 Y15.5714 
N15440 G00 Z3.0000 
N15450 G00 X11.8999 Y14.9225 
N15460 G01 Z-0.0900 F254.00 
N15470 G01 X11.8999 Y14.9086 F508.00 
N15480 G01 X12.3686 Y14.4399 
N15490 G01 X12.3825 Y14.4399 
N15500 G01 X12.3825 Y14.4653 
N15510 G01 X12.3791 Y14.4653 
N15520 G01 X11.9253 Y14.9191 
N15530 G01 X11.9253 Y14.9225 
N15540 G01 X11.8999 Y14.9225 
N15550 G00 Z3.0000 
N15560 G00 X13.0175 Y14.4653 
N15570 G01 Z-0.0900 F254.00 
N15580 G01 X13.0175 Y14.4399 F508.00 
N15590 G01 X13.0314 Y14.4399 
N15600 G01 X13.5001 Y14.9086 
N15610 G01 X13.5001 Y14.9225 
N15620 G01 X13.4747 Y14.9225 
N15630 G01 X13.4747 Y14.9191 
N15640 G01 X13.0209 Y14.4653 
N15650 G01 X13.0175 Y14.4653 
N15660 G00 Z3.0000 
N15670 G00 X13.4747 Y15.5575 
N15680 G01 Z-0.0900 F254.00 
N15690 G01 X13.5001 Y15.5575 F508.00 
N15700 G01 X13.5001 Y15.5714 
N15710 G01 X13.0314 Y16.0401 
N15720 G01 X13.0175 Y16.0401 
N15730 G01 X13.0175 Y16.0147 
N15740 G01 X13.0209 Y16.0147 
N15750 G01 X13.4747 Y15.5609 
N15760 G01 X13.4747 Y15.5575 
N15770 G00 Z3.0000 
N15780 G00 X13.4408 Y22.0662 
N15790 G01 Z-0.0900 F254.00 
N15800 G01 X13.2813 Y22.0345 F508.00 
N15810 G01 X12.2555 Y22.0345 
N15820 G01 X12.2555 Y21.6193 
N15830 G01 X12.2592 Y21.5674 
N15840 G01 X12.2555 Y21.5382 
N15850 G01 X12.2555 Y21.5087 
N15860 G01 X12.2454 Y21.4577 
N15870 G01 X12.2388 Y21.4061 
N15880 G01 X12.2295 Y21.3781 
N15890 G01 X12.2238 Y21.3492 
N15900 G01 X12.2039 Y21.3012 
N15910 G01 X12.1874 Y21.2518 
N15920 G01 X12.1728 Y21.2262 
N15930 G01 X12.1615 Y21.1990 
N15940 G01 X12.1326 Y21.1557 
N15950 G01 X12.1069 Y21.1106 
N15960 G01 X12.0876 Y21.0883 
N15970 G01 X12.0712 Y21.0638 
N15980 G01 X12.0344 Y21.0270 
N15990 G01 X12.0004 Y20.9877 
N16000 G01 X11.9771 Y20.9697 
N16010 G01 X11.9562 Y20.9488 
N16020 G01 X11.9130 Y20.9199 
N16030 G01 X11.8719 Y20.8880 
N16040 G01 X11.8455 Y20.8748 
N16050 G01 X11.8210 Y20.8585 
N16060 G01 X11.7730 Y20.8385 
N16070 G01 X9.3055 Y19.6048 
N16080 G01 X9.2810 Y19.5885 
N16090 G01 X9.2330 Y19.5685 
N16100 G01 X9.1865 Y19.5453 
N16110 G01 X9.1580 Y19.5375 
N16120 G01 X9.1308 Y19.5262 
N16130 G01 X9.0798 Y19.5161 
N16140 G01 X9.0296 Y19.5023 
N16150 G01 X9.0002 Y19.5003 
N16160 G01 X8.9713 Y19.4945 
N16170 G01 X8.9193 Y19.4945 
N16180 G01 X8.8674 Y19.4908 
N16190 G01 X8.8382 Y19.4945 
N16200 G01 X8.0361 Y19.4945 
N16210 G01 X8.0147 Y19.4731 
N16220 G01 X7.9727 Y19.4557 
N16230 G01 X6.6273 Y19.4557 
N16240 G01 X6.5853 Y19.4731 
N16250 G01 X6.5531 Y19.5053 
N16260 G01 X6.5357 Y19.5473 
N16270 G01 X6.5357 Y20.0080 
N16280 G01 X6.5062 Y20.0792 
N16290 G01 X6.4745 Y20.2387 
N16300 G01 X6.4745 Y20.4013 
N16310 G01 X6.5062 Y20.5608 
N16320 G01 X6.5357 Y20.6320 
N16330 G01 X6.5357 Y21.0927 
N16340 G01 X6.5531 Y21.1347 
N16350 G01 X6.5853 Y21.1669 
N16360 G01 X6.6273 Y21.1843 
N16370 G01 X7.9727 Y21.1843 
N16380 G01 X8.0147 Y21.1669 
N16390 G01 X8.0361 Y21.1455 
N16400 G01 X8.6951 Y21.1455 
N16410 G01 X10.6045 Y22.1002 
N16420 G01 X10.6045 Y22.9413 
N16430 G01 X10.6362 Y23.1008 
N16440 G01 X10.6984 Y23.2510 
N16450 G01 X10.7888 Y23.3862 
N16460 G01 X10.9038 Y23.5012 
N16470 G01 X11.0390 Y23.5915 
N16480 G01 X11.1892 Y23.6538 
N16490 G01 X11.3487 Y23.6855 
N16500 G01 X13.2813 Y23.6855 
N16510 G01 X13.4408 Y23.6538 
N16520 G01 X13.5910 Y23.5915 
N16530 G01 X13.7262 Y23.5012 
N16540 G01 X13.8412 Y23.3862 
N16550 G01 X13.9315 Y23.2510 
N16560 G01 X13.9938 Y23.1008 
N16570 G01 X14.0255 Y22.9413 
N16580 G01 X14.0255 Y22.7787 
N16590 G01 X13.9938 Y22.6192 
N16600 G01 X13.9315 Y22.4690 
N16610 G01 X13.8412 Y22.3338 
N16620 G01 X13.7262 Y22.2188 
N16630 G01 X13.5910 Y22.1285 
N16640 G01 X13.4408 Y22.0662 
N16650 G00 Z3.0000 
N16660 G00 X19.2853 Y21.1669 
N16670 G01 Z-0.0900 F254.00 
N16680 G01 X19.3273 Y21.1843 F508.00 
N16690 G01 X19.8357 Y21.1843 
N16700 G01 X19.8357 Y25.3307 
N16710 G01 X19.7273 Y25.3307 
N16720 G01 X19.6853 Y25.3481 
N16730 G01 X19.6531 Y25.3803 
N16740 G01 X19.6357 Y25.4223 
N16750 G01 X19.6357 Y26.0177 
N16760 G01 X19.6531 Y26.0597 
N16770 G01 X19.6853 Y26.0919 
N16780 G01 X19.7273 Y26.1093 
N16790 G01 X20.5897 Y26.1093 
N16800 G01 X20.6149 Y26.1143 
N16810 G01 X20.7851 Y26.1143 
N16820 G01 X20.8103 Y26.1093 
N16830 G01 X20.9727 Y26.1093 
N16840 G01 X21.0147 Y26.0919 
N16850 G01 X21.0469 Y26.0597 
N16860 G01 X21.0559 Y26.0381 
N16870 G01 X21.1094 Y26.0159 
N16880 G01 X21.2510 Y25.9213 
N16890 G01 X21.3713 Y25.8010 
N16900 G01 X21.4659 Y25.6594 
N16910 G01 X21.5311 Y25.5021 
N16920 G01 X21.5643 Y25.3351 
N16930 G01 X21.5643 Y21.7043 
N16940 G01 X21.7127 Y21.7043 
N16950 G01 X21.7547 Y21.6869 
N16960 G01 X21.7869 Y21.6547 
N16970 G01 X21.8043 Y21.6127 
N16980 G01 X21.8043 Y19.0273 
N16990 G01 X21.7869 Y18.9853 
N17000 G01 X21.7547 Y18.9531 
N17010 G01 X21.7127 Y18.9357 
N17020 G01 X21.5643 Y18.9357 
N17030 G01 X21.5643 Y11.3449 
N17040 G01 X21.5311 Y11.1779 
N17050 G01 X21.4659 Y11.0206 
N17060 G01 X21.3713 Y10.8790 
N17070 G01 X21.2510 Y10.7587 
N17080 G01 X21.1094 Y10.6641 
N17090 G01 X21.0720 Y10.6486 
N17100 G01 X16.0803 Y6.0043 
N17110 G01 X16.0615 Y5.9590 
N17120 G01 X15.9712 Y5.8238 
N17130 G01 X15.8562 Y5.7088 
N17140 G01 X15.7210 Y5.6185 
N17150 G01 X15.6750 Y5.5994 
N17160 G01 X15.6509 Y5.5753 
N17170 G01 X15.6168 Y5.5753 
N17180 G01 X15.5708 Y5.5562 
N17190 G01 X15.4113 Y5.5245 
N17200 G01 X15.3063 Y5.5245 
N17210 G01 X15.2915 Y5.5221 
N17220 G01 X15.2251 Y5.5245 
N17230 G01 X15.1587 Y5.5245 
N17240 G01 X15.1440 Y5.5274 
N17250 G01 X15.1290 Y5.5280 
N17260 G01 X15.0644 Y5.5433 
N17270 G01 X14.9992 Y5.5562 
N17280 G01 X14.9853 Y5.5620 
N17290 G01 X14.9708 Y5.5654 
N17300 G01 X14.9104 Y5.5930 
N17310 G01 X14.8490 Y5.6185 
N17320 G01 X14.8365 Y5.6268 
N17330 G01 X14.8229 Y5.6330 
N17340 G01 X14.7691 Y5.6719 
N17350 G01 X14.7138 Y5.7088 
N17360 G01 X14.7032 Y5.7194 
N17370 G01 X14.6910 Y5.7282 
N17380 G01 X14.6458 Y5.7768 
N17390 G01 X14.5988 Y5.8238 
N17400 G01 X14.5905 Y5.8362 
N17410 G01 X14.5802 Y5.8472 
N17420 G01 X14.5454 Y5.9037 
N17430 G01 X14.5084 Y5.9590 
N17440 G01 X14.5027 Y5.9728 
N17450 G01 X14.4948 Y5.9856 
N17460 G01 X14.4717 Y6.0478 
N17470 G01 X14.4462 Y6.1092 
N17480 G01 X14.4433 Y6.1239 
N17490 G01 X14.4381 Y6.1380 
N17500 G01 X14.4275 Y6.2035 
N17510 G01 X14.4145 Y6.2687 
N17520 G01 X14.4145 Y6.2837 
N17530 G01 X14.4121 Y6.2985 
N17540 G01 X14.4145 Y6.3649 
N17550 G01 X14.4145 Y6.4313 
N17560 G01 X14.4174 Y6.4460 
N17570 G01 X14.4180 Y6.4610 
N17580 G01 X14.4333 Y6.5256 
N17590 G01 X14.4462 Y6.5908 
N17600 G01 X14.4520 Y6.6047 
N17610 G01 X14.4554 Y6.6192 
N17620 G01 X14.4830 Y6.6796 
N17630 G01 X14.5084 Y6.7410 
N17640 G01 X14.5168 Y6.7535 
N17650 G01 X14.5230 Y6.7671 
N17660 G01 X14.5618 Y6.8209 
N17670 G01 X14.5988 Y6.8762 
N17680 G01 X14.6094 Y6.8868 
N17690 G01 X14.6182 Y6.8990 
N17700 G01 X14.6668 Y6.9442 
N17710 G01 X14.7138 Y6.9912 
N17720 G01 X14.7263 Y6.9995 
N17730 G01 X19.8357 Y11.7534 
N17740 G01 X19.8357 Y19.4557 
N17750 G01 X19.3273 Y19.4557 
N17760 G01 X19.2853 Y19.4731 
N17770 G01 X19.2531 Y19.5053 
N17780 G01 X19.2357 Y19.5473 
N17790 G01 X19.2357 Y21.0927 
N17800 G01 X19.2531 Y21.1347 
N17810 G01 X19.2853 Y21.1669 
N17820 G00 Z3.0000 
N17830 G00 X19.6168 Y26.9875 
N17840 G01 Z-0.0900 F254.00 
N17850 G01 X19.6439 Y26.9875 F508.00 
N17860 G01 X19.6531 Y27.0097 
N17870 G01 X19.6853 Y27.0419 
N17880 G01 X19.7273 Y27.0593 
N17890 G01 X20.0325 Y27.0593 
N17900 G01 X20.0325 Y27.2307 
N17910 G01 X19.7273 Y27.2307 
N17920 G01 X19.6853 Y27.2481 
N17930 G01 X19.6531 Y27.2803 
N17940 G01 X19.6439 Y27.3025 
N17950 G01 X19.6168 Y27.3025 
N17960 G01 X19.6198 Y27.2911 
N17970 G01 X19.6334 Y27.2675 
N17980 G01 X19.6428 Y27.2325 
N17990 G01 X19.6550 Y27.1868 
N18000 G01 X19.6550 Y27.1445 
N18010 G01 X19.6550 Y27.1032 
N18020 G01 X19.6463 Y27.0707 
N18030 G01 X19.6334 Y27.0224 
N18040 G01 X19.6314 Y27.0190 
N18050 G01 X19.6198 Y26.9989 
N18060 G01 X19.6168 Y26.9875 
N18070 G00 Z3.0000 
N18080 G00 X19.6168 Y27.9375 
N18090 G01 Z-0.0900 F254.00 
N18100 G01 X19.6439 Y27.9375 F508.00 
N18110 G01 X19.6531 Y27.9597 
N18120 G01 X19.6853 Y27.9919 
N18130 G01 X19.7273 Y28.0093 
N18140 G01 X20.0325 Y28.0093 
N18150 G01 X20.0325 Y28.0347 
N18160 G01 X19.7316 Y28.0347 
N18170 G01 X19.6961 Y28.0252 
N18180 G01 X19.6642 Y28.0068 
N18190 G01 X19.6382 Y27.9808 
N18200 G01 X19.6198 Y27.9489 
N18210 G01 X19.6168 Y27.9375 
N18220 G00 Z3.0000 
N18230 G00 X20.6675 Y28.0093 
N18240 G01 Z-0.0900 F254.00 
N18250 G01 X20.9727 Y28.0093 F508.00 
N18260 G01 X21.0147 Y27.9919 
N18270 G01 X21.0469 Y27.9597 
N18280 G01 X21.0561 Y27.9375 
N18290 G01 X21.0832 Y27.9375 
N18300 G01 X21.0802 Y27.9489 
N18310 G01 X21.0618 Y27.9808 
N18320 G01 X21.0358 Y28.0068 
N18330 G01 X21.0039 Y28.0252 
N18340 G01 X20.9684 Y28.0347 
N18350 G01 X20.6675 Y28.0347 
N18360 G01 X20.6675 Y28.0093 
N18370 G00 Z3.0000 
N18380 G00 X20.6675 Y27.2307 
N18390 G01 Z-0.0900 F254.00 
N18400 G01 X20.6675 Y27.0593 F508.00 
N18410 G01 X20.9727 Y27.0593 
N18420 G01 X21.0147 Y27.0419 
N18430 G01 X21.0469 Y27.0097 
N18440 G01 X21.0561 Y26.9875 
N18450 G01 X21.0832 Y26.9875 
N18460 G01 X21.0802 Y26.9989 
N18470 G01 X21.0676 Y27.0206 
N18480 G01 X21.0535 Y27.0712 
N18490 G01 X21.0450 Y27.1032 
N18500 G01 X21.0450 Y27.1454 
N18510 G01 X21.0450 Y27.1868 
N18520 G01 X21.0574 Y27.2334 
N18530 G01 X21.0666 Y27.2675 
N18540 G01 X21.0802 Y27.2911 
N18550 G01 X21.0832 Y27.3025 
N18560 G01 X21.0561 Y27.3025 
N18570 G01 X21.0469 Y27.2803 
N18580 G01 X21.0147 Y27.2481 
N18590 G01 X20.9727 Y27.2307 
N18600 G01 X20.6675 Y27.2307 
N18610 G00 Z3.0000 
N18620 G00 X7.5317 Y26.9928 
N18630 G01 Z-0.0900 F254.00 
N18640 G01 X7.3646 Y27.6163 F508.00 
N18650 G01 X7.0418 Y28.1754 
N18660 G01 X6.5854 Y28.6318 
N18670 G01 X6.0263 Y28.9546 
N18680 G01 X5.4028 Y29.1217 
N18690 G01 X4.7572 Y29.1217 
N18700 G01 X4.1337 Y28.9546 
N18710 G01 X3.5746 Y28.6318 
N18720 G01 X3.1181 Y28.1754 
N18730 G01 X2.7954 Y27.6163 
N18740 G01 X2.6283 Y26.9928 
N18750 G01 X2.6283 Y26.3472 
N18760 G01 X2.7954 Y25.7237 
N18770 G01 X3.1181 Y25.1646 
N18780 G01 X3.5746 Y24.7081 
N18790 G01 X4.1337 Y24.3854 
N18800 G01 X4.7572 Y24.2183 
N18810 G01 X5.4028 Y24.2183 
N18820 G01 X6.0263 Y24.3854 
N18830 G01 X6.5854 Y24.7081 
N18840 G01 X7.0418 Y25.1646 
N18850 G01 X7.3646 Y25.7237 
N18860 G01 X7.5317 Y26.3472 
N18870 G01 X7.5317 Y26.9928 
N18880 G00 Z3.0000 
N18890 G00 X13.6636 Y5.2451 
N18900 G01 Z-0.0900 F254.00 
N18910 G01 X13.6624 Y5.2357 F508.00 
N18920 G01 X13.6543 Y5.2163 
N18930 G01 X13.6489 Y5.1960 
N18940 G01 X13.6384 Y5.1778 
N18950 G01 X13.6304 Y5.1584 
N18960 G01 X13.6176 Y5.1418 
N18970 G01 X13.6071 Y5.1236 
N18980 G01 X13.5923 Y5.1088 
N18990 G01 X13.5795 Y5.0921 
N19000 G01 X13.5628 Y5.0793 
N19010 G01 X13.2599 Y4.7764 
N19020 G01 X13.2599 Y4.7625 
N19030 G01 X13.2853 Y4.7625 
N19040 G01 X13.2853 Y4.7659 
N19050 G01 X13.7391 Y5.2197 
N19060 G01 X13.7425 Y5.2197 
N19070 G01 X13.7425 Y5.2451 
N19080 G01 X13.6636 Y5.2451 
N19090 G00 Z3.0000 
N19100 G00 X14.3775 Y5.2451 
N19110 G01 Z-0.0900 F254.00 
N19120 G01 X14.3775 Y5.2197 F508.00 
N19130 G01 X14.3809 Y5.2197 
N19140 G01 X14.8347 Y4.7659 
N19150 G01 X14.8347 Y4.7625 
N19160 G01 X14.8601 Y4.7625 
N19170 G01 X14.8601 Y4.7764 
N19180 G01 X14.6213 Y5.0152 
N19190 G01 X14.6007 Y5.0323 
N19200 G01 X14.5918 Y5.0447 
N19210 G01 X14.5811 Y5.0554 
N19220 G01 X14.5677 Y5.0786 
N19230 G01 X14.5522 Y5.1004 
N19240 G01 X14.5469 Y5.1147 
N19250 G01 X14.5393 Y5.1278 
N19260 G01 X14.5323 Y5.1537 
N19270 G01 X14.5230 Y5.1787 
N19280 G01 X14.5216 Y5.1939 
N19290 G01 X14.5176 Y5.2086 
N19300 G01 X14.5176 Y5.2353 
N19310 G01 X14.5151 Y5.2619 
N19320 G01 X14.5176 Y5.2770 
N19330 G01 X14.4976 Y5.2667 
N19340 G01 X14.4168 Y5.2451 
N19350 G01 X14.3775 Y5.2451 
N19360 G00 Z3.0000 
N19370 G00 X14.3775 Y3.6703 
N19380 G01 Z-0.0900 F254.00 
N19390 G01 X14.3775 Y3.6449 F508.00 
N19400 G01 X14.3914 Y3.6449 
N19410 G01 X14.8601 Y4.1136 
N19420 G01 X14.8601 Y4.1275 
N19430 G01 X14.8347 Y4.1275 
N19440 G01 X14.8347 Y4.1241 
N19450 G01 X14.3809 Y3.6703 
N19460 G01 X14.3775 Y3.6703 
N19470 G00 Z3.0000 
N19480 G00 X13.7425 Y3.6703 
N19490 G01 Z-0.0900 F254.00 
N19500 G01 X13.7391 Y3.6703 F508.00 
N19510 G01 X13.2853 Y4.1241 
N19520 G01 X13.2853 Y4.1275 
N19530 G01 X13.2599 Y4.1275 
N19540 G01 X13.2599 Y4.1136 
N19550 G01 X13.7286 Y3.6449 
N19560 G01 X13.7425 Y3.6449 
N19570 G01 X13.7425 Y3.6703 
N19580 G00 Z3.0000 
N19590 G00 X13.6735 Y2.5971 
N19600 G01 Z-0.0900 F254.00 
N19610 G01 X13.3507 Y2.5455 F508.00 
N19620 G01 X13.0351 Y2.4602 
N19630 G01 X12.7302 Y2.3421 
N19640 G01 X12.4395 Y2.1924 
N19650 G01 X12.1662 Y2.0130 
N19660 G01 X11.9134 Y1.8057 
N19670 G01 X11.6838 Y1.5730 
N19680 G01 X11.5733 Y1.4343 
N19690 G01 X16.4267 Y1.4343 
N19700 G01 X16.3162 Y1.5730 
N19710 G01 X16.0866 Y1.8057 
N19720 G01 X15.8338 Y2.0130 
N19730 G01 X15.5605 Y2.1924 
N19740 G01 X15.2698 Y2.3421 
N19750 G01 X14.9649 Y2.4602 
N19760 G01 X14.6493 Y2.5455 
N19770 G01 X14.3265 Y2.5971 
N19780 G01 X14.0000 Y2.6144 
N19790 G01 X13.6735 Y2.5971 
N19800 G00 Z3.0000 
N19810 G00 X18.8146 Y3.1181 
N19820 G01 Z-0.0900 F254.00 
N19830 G01 X19.3737 Y2.7954 F508.00 
N19840 G01 X19.9972 Y2.6283 
N19850 G01 X20.6428 Y2.6283 
N19860 G01 X21.2663 Y2.7954 
N19870 G01 X21.8254 Y3.1181 
N19880 G01 X22.2818 Y3.5746 
N19890 G01 X22.6046 Y4.1337 
N19900 G01 X22.7717 Y4.7572 
N19910 G01 X22.7717 Y5.4028 
N19920 G01 X22.6046 Y6.0263 
N19930 G01 X22.2818 Y6.5854 
N19940 G01 X21.8254 Y7.0418 
N19950 G01 X21.2663 Y7.3646 
N19960 G01 X20.6428 Y7.5317 
N19970 G01 X19.9972 Y7.5317 
N19980 G01 X19.3737 Y7.3646 
N19990 G01 X18.8146 Y7.0418 
N20000 G01 X18.3581 Y6.5854 
N20010 G01 X18.0354 Y6.0263 
N20020 G01 X17.8683 Y5.4028 
N20030 G01 X17.8683 Y4.7572 
N20040 G01 X18.0354 Y4.1337 
N20050 G01 X18.3581 Y3.5746 
N20060 G01 X18.8146 Y3.1181 
N00000 G00 Z3.0000 
N00010 G00 X12.1701 Y1.6883 
N00020 G01 Z-0.0900 F254.00 
N00030 G01 X15.8299 Y1.6883 F508.00 
N00040 G01 X15.7254 Y1.7768 
N00050 G01 X15.4904 Y1.9383 
N00060 G01 X15.2404 Y2.0755 
N00070 G01 X14.9780 Y2.1869 
N00080 G01 X14.7057 Y2.2714 
N00090 G01 X14.4263 Y2.3283 
N00100 G01 X14.1426 Y2.3568 
N00110 G01 X13.8574 Y2.3568 
N00120 G01 X13.5737 Y2.3283 
N00130 G01 X13.2943 Y2.2714 
N00140 G01 X13.0220 Y2.1869 
N00150 G01 X12.7596 Y2.0755 
N00160 G01 X12.5096 Y1.9383 
N00170 G01 X12.2746 Y1.7768 
N00180 G01 X12.1701 Y1.6883 
N00190 G00 Z3.0000 
N00200 G00 X18.9706 Y3.3214 
N00210 G01 Z-0.0900 F254.00 
N00220 G01 X19.4717 Y3.0321 F508.00 
N00230 G01 X20.0307 Y2.8823 
N00240 G01 X20.6093 Y2.8823 
N00250 G01 X21.1683 Y3.0321 
N00260 G01 X21.6694 Y3.3214 
N00270 G01 X22.0786 Y3.7306 
N00280 G01 X22.3679 Y4.2317 
N00290 G01 X22.5177 Y4.7907 
N00300 G01 X22.5177 Y5.3693 
N00310 G01 X22.3679 Y5.9283 
N00320 G01 X22.0786 Y6.4294 
N00330 G01 X21.6694 Y6.8386 
N00340 G01 X21.1683 Y7.1279 
N00350 G01 X20.6093 Y7.2777 
N00360 G01 X20.0307 Y7.2777 
N00370 G01 X19.4717 Y7.1279 
N00380 G01 X18.9706 Y6.8386 
N00390 G01 X18.5614 Y6.4294 
N00400 G01 X18.2721 Y5.9283 
N00410 G01 X18.1223 Y5.3693 
N00420 G01 X18.1223 Y4.7907 
N00430 G01 X18.2721 Y4.2317 
N00440 G01 X18.5614 Y3.7306 
N00450 G01 X18.9706 Y3.3214 
N00460 G00 Z3.0000 
N00470 G00 X6.6647 Y21.4383 
N00480 G01 Z-0.0900 F254.00 
N00490 G01 X6.6646 Y21.4434 F508.00 
N00500 G01 X6.6638 Y21.4464 
N00510 G01 X6.6355 Y21.4383 
N00520 G01 X6.6647 Y21.4383 
N00530 G00 Z3.0000 
N00540 G00 X6.4670 Y21.3896 
N00550 G01 Z-0.0900 F254.00 
N00560 G01 X6.2996 Y21.3413 F508.00 
N00570 G01 X6.3447 Y21.2961 
N00580 G01 X6.3500 Y21.2870 
N00590 G01 X6.3553 Y21.2961 
N00600 G01 X6.4239 Y21.3647 
N00610 G01 X6.4670 Y21.3896 
N00620 G00 Z3.0000 
N00630 G00 X6.4294 Y24.9114 
N00640 G01 Z-0.0900 F254.00 
N00650 G01 X6.8386 Y25.3206 F508.00 
N00660 G01 X7.1279 Y25.8217 
N00670 G01 X7.2777 Y26.3807 
N00680 G01 X7.2777 Y26.9593 
N00690 G01 X7.1279 Y27.5183 
N00700 G01 X6.8386 Y28.0194 
N00710 G01 X6.4294 Y28.4286 
N00720 G01 X5.9283 Y28.7179 
N00730 G01 X5.3693 Y28.8677 
N00740 G01 X4.7907 Y28.8677 
N00750 G01 X4.2317 Y28.7179 
N00760 G01 X3.7306 Y28.4286 
N00770 G01 X3.3214 Y28.0194 
N00780 G01 X3.0321 Y27.5183 
N00790 G01 X2.8823 Y26.9593 
N00800 G01 X2.8823 Y26.3807 
N00810 G01 X3.0321 Y25.8217 
N00820 G01 X3.3214 Y25.3206 
N00830 G01 X3.7306 Y24.9114 
N00840 G01 X4.2317 Y24.6221 
N00850 G01 X4.7907 Y24.4723 
N00860 G01 X5.3693 Y24.4723 
N00870 G01 X5.9283 Y24.6221 
N00880 G01 X6.4294 Y24.9114 
N00000 G00 Z3.0000 
N00010 G00 X13.0998 Y1.9423 
N00020 G01 Z-0.0900 F254.00 
N00030 G01 X14.9001 Y1.9423 F508.00 
N00040 G01 X14.7320 Y2.0007 
N00050 G01 X14.4918 Y2.0593 
N00060 G01 X14.2470 Y2.0946 
N00070 G01 X14.0000 Y2.1064 
N00080 G01 X13.7530 Y2.0946 
N00090 G01 X13.5082 Y2.0593 
N00100 G01 X13.2680 Y2.0007 
N00110 G01 X13.0998 Y1.9423 
N00120 G00 Z3.0000 
N00130 G00 X19.1265 Y3.5246 
N00140 G01 Z-0.0900 F254.00 
N00150 G01 X19.5698 Y3.2688 F508.00 
N00160 G01 X20.0641 Y3.1363 
N00170 G01 X20.5759 Y3.1363 
N00180 G01 X21.0702 Y3.2688 
N00190 G01 X21.5134 Y3.5246 
N00200 G01 X21.8754 Y3.8865 
N00210 G01 X22.1312 Y4.3298 
N00220 G01 X22.2637 Y4.8241 
N00230 G01 X22.2637 Y5.3359 
N00240 G01 X22.1312 Y5.8302 
N00250 G01 X21.8754 Y6.2735 
N00260 G01 X21.5134 Y6.6353 
N00270 G01 X21.0702 Y6.8912 
N00280 G01 X20.5759 Y7.0237 
N00290 G01 X20.0641 Y7.0237 
N00300 G01 X19.5698 Y6.8912 
N00310 G01 X19.1265 Y6.6353 
N00320 G01 X18.7646 Y6.2735 
N00330 G01 X18.5088 Y5.8302 
N00340 G01 X18.3763 Y5.3359 
N00350 G01 X18.3763 Y4.8241 
N00360 G01 X18.5088 Y4.3298 
N00370 G01 X18.7646 Y3.8865 
N00380 G01 X19.1265 Y3.5246 
N00390 G00 Z3.0000 
N00400 G00 X6.6353 Y25.4765 
N00410 G01 Z-0.0900 F254.00 
N00420 G01 X6.8912 Y25.9198 F508.00 
N00430 G01 X7.0237 Y26.4141 
N00440 G01 X7.0237 Y26.9259 
N00450 G01 X6.8912 Y27.4202 
N00460 G01 X6.6353 Y27.8635 
N00470 G01 X6.2735 Y28.2253 
N00480 G01 X5.8302 Y28.4812 
N00490 G01 X5.3359 Y28.6137 
N00500 G01 X4.8241 Y28.6137 
N00510 G01 X4.3298 Y28.4812 
N00520 G01 X3.8865 Y28.2253 
N00530 G01 X3.5246 Y27.8635 
N00540 G01 X3.2688 Y27.4202 
N00550 G01 X3.1363 Y26.9259 
N00560 G01 X3.1363 Y26.4141 
N00570 G01 X3.2688 Y25.9198 
N00580 G01 X3.5246 Y25.4765 
N00590 G01 X3.8865 Y25.1146 
N00600 G01 X4.3298 Y24.8588 
N00610 G01 X4.8241 Y24.7263 
N00620 G01 X5.3359 Y24.7263 
N00630 G01 X5.8302 Y24.8588 
N00640 G01 X6.2735 Y25.1146 
N00650 G01 X6.6353 Y25.4765 
N00660 G00 Z3.0000 
N00670 G00 X5.0800 Y26.6700 
N00680 G01 Z-1.1111 F508.00 
N00690 G00 Z3.0000 
N00700 G00 X20.3200 Y5.0800 
N00710 G01 Z-1.1111 F508.00 
N00720 G00 Z3.0000 
N00730 G00 X12.7000 Y25.4000 
N00740 G01 Z-1.1111 F508.00 
N00750 G00 Z3.0000 
N00760 G00 X12.7000 Y22.8600 
N00770 G01 Z-1.1111 F508.00 
N00780 G00 Z3.0000 
N00790 G00 X12.7000 Y17.7800 
N00800 G01 Z-1.1111 F508.00 
N00810 G00 Z3.0000 
N00820 G00 X12.7000 Y15.2400 
N00830 G01 Z-1.1111 F508.00 
N00840 G00 Z3.0000 
N00850 G00 X12.7900 Y6.3500 
N00860 G01 Z-1.1111 F508.00 
N00870 G00 Z3.0000 
N00880 G00 X14.0600 Y4.4450 
N00890 G01 Z-1.1111 F508.00 
N00900 G00 Z3.0000 
N00910 G00 X15.3300 Y6.3500 
N00920 G01 Z-1.1111 F508.00 
N00930 G00 Z3.0000 
N00940 G00 X5.0800 Y11.4300 
N00950 G01 Z-1.1111 F508.00 
N00960 G00 Z3.0000 
N00970 G00 X5.0800 Y8.8900 
N00980 G01 Z-1.1111 F508.00 
N00990 G00 Z3.0000 
N01000 G00 X5.0800 Y6.3500 
N01010 G01 Z-1.1111 F508.00 
N01020 G00 Z3.0000 
N01030 G00 Z12.0000 
N01040 M05
N01050 M02
