N00000 (.../pcb-gcode-3.6.2.4/pcb-gcode.ulp)
N00010 (Copyright 2005 - 2012 by John Johnson)
N00020 (See readme.txt for licensing terms.)
N00030 (This file generated from the board:)
N00040 (.../examples/Q-Berry2/CNC_LED/CNC LED.brd)
N00050 (Current profile is .../pcb-gcode-3.6.2.4/profiles/emc.pp  )
N00060 (This file generated 10/25/2015 5:48:42 PM)
N00070 (Settings from pcb-machine.h)
N00080 (spindle on time = 3.0000)
N00090 (  Tool Size)
N00100 (0.1778 )
N00110 (spindle speed = 30000.0000)
N00120 (tool change at 25.0000 25.0000 20.0000 )
N00130 (feed rate xy = F508.00 )
N00140 (feed rate z  = F254.00 )
N00150 (Z Axis Settings)
N00160 (  High     Up        Down     Drill)
N00170 (20.0000 	3.0000 	-0.1250 	-4.5550 )
N00180 (Settings from pcb-defaults.h)
N00190 (isolate min = 0.0025)
N00200 (isolate max = 0.2540)
N00210 (isolate step = 0.1270)
N00220 (Generated top outlines, top drill, bottom outlines, bottom drill, )
N00230 (Unit of measure: mm)
N00240 (Metric Mode)
N00250 G21
N00260 (Absolute Coordinates)
N00270 G90

(Exact path mode)
G61 

N00280 S30000
N00290 G00 Z20.0000 
N00300 G00 X0.0000 Y0.0000 
N00310 M03
N00320 G04 P3.000000
N00330 G00 Z3.0000 



(___ Center ___)
N08190 G00 X39.3700 Y40.0050 
N08200 G01 Z-3.8970 F508.00 
N08210 G00 Z3.0000 


(___ Inner 2 ___)
N04960 G00 X29.4918 Y19.1744 
N04970 G01 Z-0.1250 F254.00 

N04980 G01 X28.6357 Y19.6024 F508.00 
N04990 G01 X27.7981 Y20.0655 
N05000 G01 X26.9805 Y20.5630 
N05010 G01 X26.1842 Y21.0939 
N05020 G01 X25.4107 Y21.6575 
N05030 G01 X24.6612 Y22.2527 
N05040 G01 X23.9370 Y22.8785 
N05050 G01 X23.2395 Y23.5338 
N05060 G01 X22.5697 Y24.2175 
N05070 G01 X21.9289 Y24.9285 
N05080 G01 X21.3182 Y25.6653 
N05090 G01 X20.7386 Y26.4270 
N05100 G01 X20.1911 Y27.2120 
N05110 G01 X19.6766 Y28.0190 
N05120 G01 X19.1961 Y28.8467 
N05130 G01 X18.7504 Y29.6937 
N05140 G01 X18.3402 Y30.5584 
N05150 G01 X17.9662 Y31.4394 
N05160 G01 X17.6291 Y32.3352 
N05170 G01 X17.3295 Y33.2441 
N05180 G01 X17.0679 Y34.1648 
N05190 G01 X16.8447 Y35.0955 
N05200 G01 X16.6603 Y36.0346 
N05210 G01 X16.5151 Y36.9806 
N05220 G01 X16.4093 Y37.9318 
N05230 G01 X16.3430 Y38.8866 
N05240 G01 X16.3297 Y39.3650 
N05250 G01 X16.3287 Y39.4008 
N05260 G01 X16.3543 Y39.4679 
N05270 G01 X16.4036 Y39.5200 
N05280 G01 X16.4691 Y39.5493 
N05290 G01 X16.5408 Y39.5513 
N05300 G01 X16.6079 Y39.5257 
N05310 G01 X16.6600 Y39.4764 
N05320 G01 X16.6893 Y39.4109 
N05330 G01 X16.6903 Y39.3750 
N05340 G01 X16.7082 Y38.9044 
N05350 G01 X16.7734 Y37.9647 
N05360 G01 X16.8776 Y37.0286 
N05370 G01 X17.0205 Y36.0976 
N05380 G01 X17.2020 Y35.1733 
N05390 G01 X17.4216 Y34.2574 
N05400 G01 X17.6791 Y33.3514 
N05410 G01 X17.9739 Y32.4568 
N05420 G01 X18.3057 Y31.5753 
N05430 G01 X18.6737 Y30.7082 
N05440 G01 X19.0774 Y29.8572 
N05450 G01 X19.5161 Y29.0237 
N05460 G01 X19.9890 Y28.2091 
N05470 G01 X20.4953 Y27.4149 
N05480 G01 X21.0341 Y26.6423 
N05490 G01 X21.6045 Y25.8928 
N05500 G01 X22.2056 Y25.1676 
N05510 G01 X22.8362 Y24.4679 
N05520 G01 X23.4953 Y23.7951 
N05530 G01 X24.1818 Y23.1502 
N05540 G01 X24.8945 Y22.5343 
N05550 G01 X25.6321 Y21.9485 
N05560 G01 X26.3934 Y21.3939 
N05570 G01 X27.1770 Y20.8713 
N05580 G01 X27.9817 Y20.3817 
N05590 G01 X28.8060 Y19.9260 
N05600 G01 X29.6485 Y19.5048 
N05610 G01 X30.5077 Y19.1190 
N05620 G01 X31.3822 Y18.7691 
N05630 G01 X32.2705 Y18.4559 
N05640 G01 X33.1711 Y18.1798 
N05650 G01 X34.0823 Y17.9413 
N05660 G01 X35.0026 Y17.7408 
N05670 G01 X35.9305 Y17.5788 
N05680 G01 X36.8642 Y17.4553 
N05690 G01 X37.8023 Y17.3707 
N05700 G01 X38.7431 Y17.3252 
N05710 G01 X39.6850 Y17.3187 
N05720 G01 X40.6264 Y17.3513 
N05730 G01 X41.5655 Y17.4230 
N05740 G01 X42.5009 Y17.5336 
N05750 G01 X43.4309 Y17.6829 
N05760 G01 X44.3539 Y17.8707 
N05770 G01 X45.2683 Y18.0966 
N05780 G01 X46.1726 Y18.3603 
N05790 G01 X47.0651 Y18.6613 
N05800 G01 X47.9443 Y18.9991 
N05810 G01 X48.8088 Y19.3731 
N05820 G01 X49.6570 Y19.7826 
N05830 G01 X50.4875 Y20.2270 
N05840 G01 X51.2988 Y20.7055 
N05850 G01 X52.0896 Y21.2173 
N05860 G01 X52.8584 Y21.7614 
N05870 G01 X53.6040 Y22.3369 
N05880 G01 X54.3251 Y22.9430 
N05890 G01 X55.0203 Y23.5784 
N05900 G01 X55.6887 Y24.2421 
N05910 G01 X56.3288 Y24.9330 
N05920 G01 X56.9398 Y25.6499 
N05930 G01 X57.5205 Y26.3915 
N05940 G01 X58.0699 Y27.1566 
N05950 G01 X58.5870 Y27.9438 
N05960 G01 X59.0711 Y28.7518 
N05970 G01 X59.5212 Y29.5792 
N05980 G01 X59.9365 Y30.4246 
N05990 G01 X60.3165 Y31.2865 
N06000 G01 X60.6603 Y32.1634 
N06010 G01 X60.9674 Y33.0538 
N06020 G01 X61.2373 Y33.9562 
N06030 G01 X61.4695 Y34.8691 
N06040 G01 X61.6636 Y35.7907 
N06050 G01 X61.8194 Y36.7197 
N06060 G01 X61.9364 Y37.6543 
N06070 G01 X62.0145 Y38.5930 
N06080 G01 X62.0536 Y39.5340 
N06090 G01 X62.0536 Y40.4759 
N06100 G01 X62.0145 Y41.4170 
N06110 G01 X61.9364 Y42.3557 
N06120 G01 X61.8194 Y43.2903 
N06130 G01 X61.6636 Y44.2193 
N06140 G01 X61.4695 Y45.1409 
N06150 G01 X61.2373 Y46.0538 
N06160 G01 X60.9674 Y46.9562 
N06170 G01 X60.6603 Y47.8466 
N06180 G01 X60.3165 Y48.7235 
N06190 G01 X59.9365 Y49.5854 
N06200 G01 X59.5212 Y50.4308 
N06210 G01 X59.0711 Y51.2582 
N06220 G01 X58.5870 Y52.0662 
N06230 G01 X58.0699 Y52.8534 
N06240 G01 X57.5205 Y53.6185 
N06250 G01 X56.9398 Y54.3601 
N06260 G01 X56.3288 Y55.0770 
N06270 G01 X55.6887 Y55.7679 
N06280 G01 X55.0203 Y56.4316 
N06290 G01 X54.3251 Y57.0670 
N06300 G01 X53.6040 Y57.6731 
N06310 G01 X52.8584 Y58.2486 
N06320 G01 X52.0896 Y58.7927 
N06330 G01 X51.2988 Y59.3045 
N06340 G01 X50.4875 Y59.7830 
N06350 G01 X49.6570 Y60.2274 
N06360 G01 X48.8088 Y60.6369 
N06370 G01 X47.9443 Y61.0109 
N06380 G01 X47.0651 Y61.3487 
N06390 G01 X46.1726 Y61.6497 
N06400 G01 X45.2683 Y61.9134 
N06410 G01 X44.3539 Y62.1393 
N06420 G01 X43.4309 Y62.3271 
N06430 G01 X42.5009 Y62.4764 
N06440 G01 X41.5655 Y62.5870 
N06450 G01 X40.6264 Y62.6587 
N06460 G01 X39.6850 Y62.6913 
N06470 G01 X38.7431 Y62.6848 
N06480 G01 X37.8023 Y62.6392 
N06490 G01 X36.8642 Y62.5547 
N06500 G01 X35.9305 Y62.4312 
N06510 G01 X35.0026 Y62.2692 
N06520 G01 X34.0823 Y62.0687 
N06530 G01 X33.1711 Y61.8302 
N06540 G01 X32.2705 Y61.5541 
N06550 G01 X31.3822 Y61.2409 
N06560 G01 X30.5077 Y60.8910 
N06570 G01 X29.6485 Y60.5052 
N06580 G01 X28.8060 Y60.0840 
N06590 G01 X27.9817 Y59.6283 
N06600 G01 X27.1770 Y59.1387 
N06610 G01 X26.3934 Y58.6161 
N06620 G01 X25.6321 Y58.0615 
N06630 G01 X24.8945 Y57.4757 
N06640 G01 X24.1818 Y56.8598 
N06650 G01 X23.4953 Y56.2149 
N06660 G01 X22.8362 Y55.5421 
N06670 G01 X22.2056 Y54.8424 
N06680 G01 X21.6045 Y54.1172 
N06690 G01 X21.0341 Y53.3677 
N06700 G01 X20.4953 Y52.5951 
N06710 G01 X19.9890 Y51.8009 
N06720 G01 X19.5161 Y50.9863 
N06730 G01 X19.0774 Y50.1528 
N06740 G01 X18.6737 Y49.3018 
N06750 G01 X18.3057 Y48.4347 
N06760 G01 X17.9739 Y47.5532 
N06770 G01 X17.6791 Y46.6586 
N06780 G01 X17.4216 Y45.7526 
N06790 G01 X17.2020 Y44.8367 
N06800 G01 X17.0205 Y43.9124 
N06810 G01 X16.8776 Y42.9814 
N06820 G01 X16.7734 Y42.0453 
N06830 G01 X16.7082 Y41.1056 
N06840 G01 X16.6903 Y40.6350 
N06850 G01 X16.6893 Y40.5991 
N06860 G01 X16.6600 Y40.5336 
N06870 G01 X16.6079 Y40.4843 
N06880 G01 X16.5408 Y40.4587 
N06890 G01 X16.4691 Y40.4607 
N06900 G01 X16.4036 Y40.4900 
N06910 G01 X16.3543 Y40.5421 
N06920 G01 X16.3287 Y40.6091 
N06930 G01 X16.3297 Y40.6450 
N06940 G01 X16.3430 Y41.1234 
N06950 G01 X16.4093 Y42.0782 
N06960 G01 X16.5151 Y43.0294 
N06970 G01 X16.6603 Y43.9754 
N06980 G01 X16.8447 Y44.9145 
N06990 G01 X17.0679 Y45.8452 
N07000 G01 X17.3295 Y46.7659 
N07010 G01 X17.6291 Y47.6748 
N07020 G01 X17.9662 Y48.5706 
N07030 G01 X18.3402 Y49.4516 
N07040 G01 X18.7504 Y50.3163 
N07050 G01 X19.1961 Y51.1633 
N07060 G01 X19.6766 Y51.9910 
N07070 G01 X20.1911 Y52.7980 
N07080 G01 X20.7386 Y53.5830 
N07090 G01 X21.3182 Y54.3447 
N07100 G01 X21.9289 Y55.0815 
N07110 G01 X22.5697 Y55.7925 
N07120 G01 X23.2395 Y56.4762 
N07130 G01 X23.9370 Y57.1315 
N07140 G01 X24.6612 Y57.7573 
N07150 G01 X25.4107 Y58.3525 
N07160 G01 X26.1842 Y58.9161 
N07170 G01 X26.9805 Y59.4470 
N07180 G01 X27.7981 Y59.9445 
N07190 G01 X28.6357 Y60.4076 
N07200 G01 X29.4918 Y60.8356 
N07210 G01 X30.3649 Y61.2276 
N07220 G01 X31.2535 Y61.5831 
N07230 G01 X32.1561 Y61.9014 
N07240 G01 X33.0712 Y62.1820 
N07250 G01 X33.9971 Y62.4243 
N07260 G01 X34.9322 Y62.6280 
N07270 G01 X35.8750 Y62.7927 
N07280 G01 X36.8239 Y62.9181 
N07290 G01 X37.7771 Y63.0040 
N07300 G01 X38.7330 Y63.0503 
N07310 G01 X39.6901 Y63.0569 
N07320 G01 X40.6466 Y63.0237 
N07330 G01 X41.6009 Y62.9509 
N07340 G01 X42.5514 Y62.8386 
N07350 G01 X43.4964 Y62.6868 
N07360 G01 X44.4342 Y62.4960 
N07370 G01 X45.3634 Y62.2664 
N07380 G01 X46.2822 Y61.9985 
N07390 G01 X47.1891 Y61.6927 
N07400 G01 X48.0825 Y61.3494 
N07410 G01 X48.9609 Y60.9694 
N07420 G01 X49.8228 Y60.5533 
N07430 G01 X50.6667 Y60.1017 
N07440 G01 X51.4911 Y59.6155 
N07450 G01 X52.2946 Y59.0955 
N07460 G01 X53.0758 Y58.5426 
N07470 G01 X53.8334 Y57.9578 
N07480 G01 X54.5661 Y57.3420 
N07490 G01 X55.2726 Y56.6963 
N07500 G01 X55.9516 Y56.0219 
N07510 G01 X56.6021 Y55.3199 
N07520 G01 X57.2229 Y54.5914 
N07530 G01 X57.8130 Y53.8379 
N07540 G01 X58.3712 Y53.0605 
N07550 G01 X58.8967 Y52.2606 
N07560 G01 X59.3886 Y51.4395 
N07570 G01 X59.8459 Y50.5988 
N07580 G01 X60.2680 Y49.7398 
N07590 G01 X60.6540 Y48.8640 
N07600 G01 X61.0034 Y47.9730 
N07610 G01 X61.3155 Y47.0682 
N07620 G01 X61.5897 Y46.1512 
N07630 G01 X61.8257 Y45.2237 
N07640 G01 X62.0229 Y44.2872 
N07650 G01 X62.1811 Y43.3433 
N07660 G01 X62.3000 Y42.3936 
N07670 G01 X62.3794 Y41.4398 
N07680 G01 X62.4192 Y40.4835 
N07690 G01 X62.4192 Y39.5265 
N07700 G01 X62.3794 Y38.5702 
N07710 G01 X62.3000 Y37.6164 
N07720 G01 X62.1811 Y36.6667 
N07730 G01 X62.0229 Y35.7228 
N07740 G01 X61.8257 Y34.7863 
N07750 G01 X61.5897 Y33.8587 
N07760 G01 X61.3155 Y32.9418 
N07770 G01 X61.0034 Y32.0370 
N07780 G01 X60.6540 Y31.1460 
N07790 G01 X60.2680 Y30.2702 
N07800 G01 X59.8459 Y29.4112 
N07810 G01 X59.3886 Y28.5705 
N07820 G01 X58.8967 Y27.7494 
N07830 G01 X58.3712 Y26.9495 
N07840 G01 X57.8130 Y26.1721 
N07850 G01 X57.2229 Y25.4186 
N07860 G01 X56.6021 Y24.6901 
N07870 G01 X55.9516 Y23.9881 
N07880 G01 X55.2726 Y23.3137 
N07890 G01 X54.5661 Y22.6680 
N07900 G01 X53.8334 Y22.0522 
N07910 G01 X53.0758 Y21.4674 
N07920 G01 X52.2946 Y20.9145 
N07930 G01 X51.4910 Y20.3945 
N07940 G01 X50.6667 Y19.9083 
N07950 G01 X49.8228 Y19.4567 
N07960 G01 X48.9609 Y19.0406 
N07970 G01 X48.0825 Y18.6606 
N07980 G01 X47.1891 Y18.3173 
N07990 G01 X46.2822 Y18.0115 
N08000 G01 X45.3634 Y17.7436 
N08010 G01 X44.4342 Y17.5140 
N08020 G01 X43.4964 Y17.3232 
N08030 G01 X42.5514 Y17.1714 
N08040 G01 X41.6009 Y17.0591 
N08050 G01 X40.6466 Y16.9862 
N08060 G01 X39.6901 Y16.9531 
N08070 G01 X38.7330 Y16.9597 
N08080 G01 X37.7771 Y17.0060 
N08090 G01 X36.8239 Y17.0919 
N08100 G01 X35.8750 Y17.2173 
N08110 G01 X34.9322 Y17.3820 
N08120 G01 X33.9971 Y17.5857 
N08130 G01 X33.0712 Y17.8280 
N08140 G01 X32.1561 Y18.1086 
N08150 G01 X31.2535 Y18.4269 
N08160 G01 X30.3649 Y18.7824 
N08170 G01 X29.4918 Y19.1744 
N08180 G00 Z3.0000 

(___ Outer Circle - 1___)
N00340 G00 X14.9130 Y15.6985 
N00350 G01 Z-0.1250 F254.00 

N00360 G01 X14.9130 Y15.6985 F508.00 
N00370 G01 X14.1021 Y16.5425 
N00380 G01 X13.3204 Y17.4137 
N00390 G01 X12.5686 Y18.3108 
N00400 G01 X11.8478 Y19.2329 
N00410 G01 X11.1586 Y20.1790 
N00420 G01 X10.5020 Y21.1479 
N00430 G01 X9.8786 Y22.1386 
N00440 G01 X9.2892 Y23.1498 
N00450 G01 X8.7345 Y24.1804 
N00460 G01 X8.2150 Y25.2293 
N00470 G01 X7.7315 Y26.2952 
N00480 G01 X7.2844 Y27.3770 
N00490 G01 X6.8743 Y28.4732 
N00500 G01 X6.5016 Y29.5828 
N00510 G01 X6.1668 Y30.7043 
N00520 G01 X5.8703 Y31.8366 
N00530 G01 X5.6124 Y32.9783 
N00540 G01 X5.3933 Y34.1280 
N00550 G01 X5.2134 Y35.2846 
N00560 G01 X5.0729 Y36.4466 
N00570 G01 X4.9719 Y37.6127 
N00580 G01 X4.9105 Y38.7815 
N00590 G01 X4.8997 Y39.3667 
N00600 G01 X4.8990 Y39.4025 
N00610 G01 X4.9253 Y39.4693 
N00620 G01 X4.9750 Y39.5210 
N00630 G01 X5.0408 Y39.5496 
N00640 G01 X5.1125 Y39.5510 
N00650 G01 X5.1793 Y39.5247 
N00660 G01 X5.2310 Y39.4750 
N00670 G01 X5.2596 Y39.4092 
N00680 G01 X5.2603 Y39.3733 
N00690 G01 X5.2759 Y38.7945 
N00700 G01 X5.3367 Y37.6381 
N00710 G01 X5.4366 Y36.4843 
N00720 G01 X5.5757 Y35.3347 
N00730 G01 X5.7536 Y34.1904 
N00740 G01 X5.9703 Y33.0528 
N00750 G01 X6.2255 Y31.9232 
N00760 G01 X6.5189 Y30.8029 
N00770 G01 X6.8502 Y29.6933 
N00780 G01 X7.2189 Y28.5955 
N00790 G01 X7.6247 Y27.5109 
N00800 G01 X8.0670 Y26.4406 
N00810 G01 X8.5454 Y25.3860 
N00820 G01 X9.0593 Y24.3483 
N00830 G01 X9.6082 Y23.3285 
N00840 G01 X10.1913 Y22.3280 
N00850 G01 X10.8081 Y21.3479 
N00860 G01 X11.4578 Y20.3892 
N00870 G01 X12.1396 Y19.4532 
N00880 G01 X12.8528 Y18.5408 
N00890 G01 X13.5966 Y17.6532 
N00900 G01 X14.3701 Y16.7913 
N00910 G01 X15.1723 Y15.9562 
N00920 G01 X16.0025 Y15.1488 
N00930 G01 X16.8596 Y14.3700 
N00940 G01 X17.7426 Y13.6208 
N00950 G01 X18.6505 Y12.9020 
N00960 G01 X19.5823 Y12.2144 
N00970 G01 X20.5370 Y11.5588 
N00980 G01 X21.5133 Y10.9360 
N00990 G01 X22.5102 Y10.3467 
N01000 G01 X23.5265 Y9.7915 
N01010 G01 X24.5611 Y9.2712 
N01020 G01 X25.6127 Y8.7863 
N01030 G01 X26.6802 Y8.3374 
N01040 G01 X27.7623 Y7.9249 
N01050 G01 X28.8578 Y7.5494 
N01060 G01 X29.9654 Y7.2114 
N01070 G01 X31.0838 Y6.9111 
N01080 G01 X32.2118 Y6.6489 
N01090 G01 X33.3480 Y6.4252 
N01100 G01 X34.4912 Y6.2401 
N01110 G01 X35.6400 Y6.0940 
N01120 G01 X36.7931 Y5.9869 
N01130 G01 X37.9491 Y5.9191 
N01140 G01 X39.1068 Y5.8905 
N01150 G01 X40.2648 Y5.9012 
N01160 G01 X41.4218 Y5.9512 
N01170 G01 X42.5764 Y6.0405 
N01180 G01 X43.7273 Y6.1689 
N01190 G01 X44.8732 Y6.3362 
N01200 G01 X46.0127 Y6.5424 
N01210 G01 X47.1446 Y6.7871 
N01220 G01 X48.2675 Y7.0701 
N01230 G01 X49.3802 Y7.3911 
N01240 G01 X50.4814 Y7.7496 
N01250 G01 X51.5697 Y8.1453 
N01260 G01 X52.6440 Y8.5778 
N01270 G01 X53.7030 Y9.0464 
N01280 G01 X54.7455 Y9.5507 
N01290 G01 X55.7702 Y10.0901 
N01300 G01 X56.7761 Y10.6639 
N01310 G01 X57.7619 Y11.2716 
N01320 G01 X58.7265 Y11.9124 
N01330 G01 X59.6688 Y12.5855 
N01340 G01 X60.5877 Y13.2902 
N01350 G01 X61.4822 Y14.0258 
N01360 G01 X62.3512 Y14.7912 
N01370 G01 X63.1937 Y15.5857 
N01380 G01 X64.0088 Y16.4084 
N01390 G01 X64.7955 Y17.2582 
N01400 G01 X65.5528 Y18.1343 
N01410 G01 X66.2800 Y19.0355 
N01420 G01 X66.9762 Y19.9609 
N01430 G01 X67.6406 Y20.9094 
N01440 G01 X68.2725 Y21.8799 
N01450 G01 X68.8710 Y22.8713 
N01460 G01 X69.4355 Y23.8824 
N01470 G01 X69.9654 Y24.9121 
N01480 G01 X70.4600 Y25.9592 
N01490 G01 X70.9188 Y27.0225 
N01500 G01 X71.3412 Y28.1008 
N01510 G01 X71.7268 Y29.1927 
N01520 G01 X72.0752 Y30.2972 
N01530 G01 X72.3858 Y31.4128 
N01540 G01 X72.6584 Y32.5383 
N01550 G01 X72.8927 Y33.6724 
N01560 G01 X73.0883 Y34.8138 
N01570 G01 X73.2450 Y35.9612 
N01580 G01 X73.3628 Y37.1132 
N01590 G01 X73.4413 Y38.2686 
N01600 G01 X73.4806 Y39.4260 
N01610 G01 X73.4806 Y40.5840 
N01620 G01 X73.4413 Y41.7414 
N01630 G01 X73.3628 Y42.8968 
N01640 G01 X73.2450 Y44.0488 
N01650 G01 X73.0883 Y45.1962 
N01660 G01 X72.8927 Y46.3376 
N01670 G01 X72.6584 Y47.4717 
N01680 G01 X72.3858 Y48.5972 
N01690 G01 X72.0752 Y49.7128 
N01700 G01 X71.7268 Y50.8173 
N01710 G01 X71.3412 Y51.9092 
N01720 G01 X70.9188 Y52.9875 
N01730 G01 X70.4600 Y54.0508 
N01740 G01 X69.9654 Y55.0979 
N01750 G01 X69.4355 Y56.1276 
N01760 G01 X68.8710 Y57.1387 
N01770 G01 X68.2725 Y58.1301 
N01780 G01 X67.6406 Y59.1006 
N01790 G01 X66.9762 Y60.0491 
N01800 G01 X66.2800 Y60.9745 
N01810 G01 X65.5528 Y61.8757 
N01820 G01 X64.7955 Y62.7518 
N01830 G01 X64.0088 Y63.6016 
N01840 G01 X63.1937 Y64.4243 
N01850 G01 X62.3512 Y65.2188 
N01860 G01 X61.4822 Y65.9842 
N01870 G01 X60.5877 Y66.7198 
N01880 G01 X59.6688 Y67.4245 
N01890 G01 X58.7265 Y68.0976 
N01900 G01 X57.7619 Y68.7384 
N01910 G01 X56.7761 Y69.3461 
N01920 G01 X55.7702 Y69.9199 
N01930 G01 X54.7455 Y70.4593 
N01940 G01 X53.7030 Y70.9636 
N01950 G01 X52.6440 Y71.4322 
N01960 G01 X51.5697 Y71.8647 
N01970 G01 X50.4814 Y72.2604 
N01980 G01 X49.3802 Y72.6189 
N01990 G01 X48.2675 Y72.9399 
N02000 G01 X47.1446 Y73.2229 
N02010 G01 X46.0127 Y73.4676 
N02020 G01 X44.8732 Y73.6738 
N02030 G01 X43.7273 Y73.8411 
N02040 G01 X42.5764 Y73.9695 
N02050 G01 X41.4218 Y74.0588 
N02060 G01 X40.2648 Y74.1088 
N02070 G01 X39.1068 Y74.1195 
N02080 G01 X37.9491 Y74.0909 
N02090 G01 X36.7931 Y74.0231 
N02100 G01 X35.6400 Y73.9160 
N02110 G01 X34.4912 Y73.7699 
N02120 G01 X33.3480 Y73.5848 
N02130 G01 X32.2118 Y73.3611 
N02140 G01 X31.0838 Y73.0989 
N02150 G01 X29.9654 Y72.7986 
N02160 G01 X28.8578 Y72.4606 
N02170 G01 X27.7623 Y72.0851 
N02180 G01 X26.6802 Y71.6726 
N02190 G01 X25.6127 Y71.2237 
N02200 G01 X24.5611 Y70.7388 
N02210 G01 X23.5265 Y70.2185 
N02220 G01 X22.5102 Y69.6633 
N02230 G01 X21.5133 Y69.0740 
N02240 G01 X20.5370 Y68.4512 
N02250 G01 X19.5824 Y67.7956 
N02260 G01 X18.6505 Y67.1080 
N02270 G01 X17.7426 Y66.3892 
N02280 G01 X16.8596 Y65.6400 
N02290 G01 X16.0025 Y64.8612 
N02300 G01 X15.1723 Y64.0538 
N02310 G01 X14.3701 Y63.2187 
N02320 G01 X13.5966 Y62.3568 
N02330 G01 X12.8528 Y61.4692 
N02340 G01 X12.1396 Y60.5568 
N02350 G01 X11.4578 Y59.6208 
N02360 G01 X10.8081 Y58.6621 
N02370 G01 X10.1913 Y57.6820 
N02380 G01 X9.6082 Y56.6815 
N02390 G01 X9.0593 Y55.6617 
N02400 G01 X8.5454 Y54.6240 
N02410 G01 X8.0670 Y53.5694 
N02420 G01 X7.6247 Y52.4991 
N02430 G01 X7.2189 Y51.4145 
N02440 G01 X6.8502 Y50.3167 
N02450 G01 X6.5189 Y49.2071 
N02460 G01 X6.2255 Y48.0868 
N02470 G01 X5.9703 Y46.9572 
N02480 G01 X5.7536 Y45.8196 
N02490 G01 X5.5757 Y44.6753 
N02500 G01 X5.4366 Y43.5257 
N02510 G01 X5.3367 Y42.3719 
N02520 G01 X5.2759 Y41.2155 
N02530 G01 X5.2603 Y40.6367 
N02540 G01 X5.2596 Y40.6008 
N02550 G01 X5.2310 Y40.5350 
N02560 G01 X5.1793 Y40.4853 
N02570 G01 X5.1125 Y40.4590 
N02580 G01 X5.0408 Y40.4604 
N02590 G01 X4.9750 Y40.4890 
N02600 G01 X4.9253 Y40.5407 
N02610 G01 X4.8990 Y40.6075 
N02620 G01 X4.8997 Y40.6433 
N02630 G01 X4.9105 Y41.2285 
N02640 G01 X4.9719 Y42.3973 
N02650 G01 X5.0729 Y43.5634 
N02660 G01 X5.2134 Y44.7254 
N02670 G01 X5.3933 Y45.8820 
N02680 G01 X5.6124 Y47.0317 
N02690 G01 X5.8703 Y48.1734 
N02700 G01 X6.1668 Y49.3057 
N02710 G01 X6.5016 Y50.4272 
N02720 G01 X6.8743 Y51.5368 
N02730 G01 X7.2844 Y52.6330 
N02740 G01 X7.7315 Y53.7148 
N02750 G01 X8.2150 Y54.7807 
N02760 G01 X8.7345 Y55.8296 
N02770 G01 X9.2892 Y56.8602 
N02780 G01 X9.8786 Y57.8714 
N02790 G01 X10.5020 Y58.8621 
N02800 G01 X11.1586 Y59.8310 
N02810 G01 X11.8478 Y60.7771 
N02820 G01 X12.5686 Y61.6992 
N02830 G01 X13.3204 Y62.5963 
N02840 G01 X14.1021 Y63.4675 
N02850 G01 X14.9130 Y64.3115 
N02860 G01 X15.7521 Y65.1276 
N02870 G01 X16.6183 Y65.9147 
N02880 G01 X17.5108 Y66.6720 
N02890 G01 X18.4285 Y67.3985 
N02900 G01 X19.3703 Y68.0935 
N02910 G01 X20.3351 Y68.7561 
N02920 G01 X21.3219 Y69.3856 
N02930 G01 X22.3295 Y69.9812 
N02940 G01 X23.3567 Y70.5423 
N02950 G01 X24.4023 Y71.0682 
N02960 G01 X25.4652 Y71.5583 
N02970 G01 X26.5442 Y72.0120 
N02980 G01 X27.6379 Y72.4289 
N02990 G01 X28.7451 Y72.8084 
N03000 G01 X29.8646 Y73.1501 
N03010 G01 X30.9950 Y73.4536 
N03020 G01 X32.1351 Y73.7186 
N03030 G01 X33.2835 Y73.9447 
N03040 G01 X34.4389 Y74.1318 
N03050 G01 X35.6000 Y74.2795 
N03060 G01 X36.7654 Y74.3877 
N03070 G01 X37.9339 Y74.4563 
N03080 G01 X39.1040 Y74.4852 
N03090 G01 X40.2744 Y74.4743 
N03100 G01 X41.4438 Y74.4238 
N03110 G01 X42.6107 Y74.3336 
N03120 G01 X43.7740 Y74.2038 
N03130 G01 X44.9322 Y74.0346 
N03140 G01 X46.0839 Y73.8262 
N03150 G01 X47.2279 Y73.5789 
N03160 G01 X48.3629 Y73.2928 
N03170 G01 X49.4875 Y72.9684 
N03180 G01 X50.6005 Y72.6061 
N03190 G01 X51.7005 Y72.2061 
N03200 G01 X52.7863 Y71.7691 
N03210 G01 X53.8566 Y71.2954 
N03220 G01 X54.9103 Y70.7857 
N03230 G01 X55.9460 Y70.2406 
N03240 G01 X56.9626 Y69.6605 
N03250 G01 X57.9590 Y69.0464 
N03260 G01 X58.9340 Y68.3987 
N03270 G01 X59.8864 Y67.7184 
N03280 G01 X60.8152 Y67.0061 
N03290 G01 X61.7192 Y66.2627 
N03300 G01 X62.5975 Y65.4890 
N03310 G01 X63.4491 Y64.6860 
N03320 G01 X64.2729 Y63.8545 
N03330 G01 X65.0680 Y62.9956 
N03340 G01 X65.8335 Y62.1101 
N03350 G01 X66.5685 Y61.1992 
N03360 G01 X67.2721 Y60.2639 
N03370 G01 X67.9436 Y59.3053 
N03380 G01 X68.5822 Y58.3243 
N03390 G01 X69.1872 Y57.3223 
N03400 G01 X69.7577 Y56.3004 
N03410 G01 X70.2933 Y55.2596 
N03420 G01 X70.7932 Y54.2013 
N03430 G01 X71.2569 Y53.1266 
N03440 G01 X71.6839 Y52.0368 
N03450 G01 X72.0736 Y50.9331 
N03460 G01 X72.4257 Y49.8169 
N03470 G01 X72.7397 Y48.6893 
N03480 G01 X73.0152 Y47.5518 
N03490 G01 X73.2519 Y46.4055 
N03500 G01 X73.4497 Y45.2519 
N03510 G01 X73.6081 Y44.0922 
N03520 G01 X73.7271 Y42.9278 
N03530 G01 X73.8065 Y41.7600 
N03540 G01 X73.8462 Y40.5902 
N03550 G01 X73.8462 Y39.4198 
N03560 G01 X73.8065 Y38.2500 
N03570 G01 X73.7271 Y37.0822 
N03580 G01 X73.6081 Y35.9178 
N03590 G01 X73.4497 Y34.7581 
N03600 G01 X73.2519 Y33.6045 
N03610 G01 X73.0152 Y32.4582 
N03620 G01 X72.7397 Y31.3207 
N03630 G01 X72.4257 Y30.1931 
N03640 G01 X72.0736 Y29.0769 
N03650 G01 X71.6839 Y27.9732 
N03660 G01 X71.2569 Y26.8834 
N03670 G01 X70.7932 Y25.8087 
N03680 G01 X70.2933 Y24.7504 
N03690 G01 X69.7577 Y23.7096 
N03700 G01 X69.1872 Y22.6877 
N03710 G01 X68.5822 Y21.6856 
N03720 G01 X67.9436 Y20.7047 
N03730 G01 X67.2721 Y19.7461 
N03740 G01 X66.5685 Y18.8107 
N03750 G01 X65.8335 Y17.8998 
N03760 G01 X65.0680 Y17.0144 
N03770 G01 X64.2729 Y16.1555 
N03780 G01 X63.4491 Y15.3240 
N03790 G01 X62.5975 Y14.5210 
N03800 G01 X61.7192 Y13.7473 
N03810 G01 X60.8152 Y13.0039 
N03820 G01 X59.8864 Y12.2916 
N03830 G01 X58.9340 Y11.6113 
N03840 G01 X57.9590 Y10.9636 
N03850 G01 X56.9626 Y10.3494 
N03860 G01 X55.9460 Y9.7694 
N03870 G01 X54.9103 Y9.2243 
N03880 G01 X53.8566 Y8.7146 
N03890 G01 X52.7863 Y8.2409 
N03900 G01 X51.7005 Y7.8039 
N03910 G01 X50.6005 Y7.4039 
N03920 G01 X49.4875 Y7.0416 
N03930 G01 X48.3629 Y6.7172 
N03940 G01 X47.2279 Y6.4311 
N03950 G01 X46.0839 Y6.1838 
N03960 G01 X44.9321 Y5.9754 
N03970 G01 X43.7740 Y5.8062 
N03980 G01 X42.6107 Y5.6764 
N03990 G01 X41.4438 Y5.5862 
N04000 G01 X40.2744 Y5.5357 
N04010 G01 X39.1040 Y5.5248 
N04020 G01 X37.9339 Y5.5537 
N04030 G01 X36.7654 Y5.6223 
N04040 G01 X35.6000 Y5.7305 
N04050 G01 X34.4389 Y5.8782 
N04060 G01 X33.2835 Y6.0652 
N04070 G01 X32.1351 Y6.2914 
N04080 G01 X30.9950 Y6.5564 
N04090 G01 X29.8646 Y6.8599 
N04100 G01 X28.7451 Y7.2016 
N04110 G01 X27.6379 Y7.5811 
N04120 G01 X26.5442 Y7.9980 
N04130 G01 X25.4652 Y8.4517 
N04140 G01 X24.4023 Y8.9418 
N04150 G01 X23.3567 Y9.4677 
N04160 G01 X22.3295 Y10.0288 
N04170 G01 X21.3219 Y10.6244 
N04180 G01 X20.3351 Y11.2539 
N04190 G01 X19.3703 Y11.9165 
N04200 G01 X18.4285 Y12.6115 
N04210 G01 X17.5108 Y13.3380 
N04220 G01 X16.6183 Y14.0953 
N04230 G01 X15.7520 Y14.8824 
N04240 G01 X14.9130 Y15.6985 






(___ END ___)
N08280 G00 Z20.0000 
N08290 M05
N08300 M02
