N00000 (.../pcb-gcode-3.6.2.4/pcb-gcode.ulp)
N00010 (Copyright 2005 - 2012 by John Johnson)
N00020 (See readme.txt for licensing terms.)
N00030 (This file generated from the board:)
N00040 (.../examples/Q-Berry2/CNC_LED/CNC LED.brd)
N00050 (Current profile is .../pcb-gcode-3.6.2.4/profiles/emc.pp  )
N00060 (This file generated 10/25/2015 5:48:51 PM)
N00070 (Settings from pcb-machine.h)
N00080 (spindle on time = 3.0000)
N00090 (  Tool Size)
N00100 (0.1778 )
N00110 (spindle speed = 30000.0000)
N00120 (tool change at 25.0000 25.0000 20.0000 )
N00130 (feed rate xy = F508.00 )
N00140 (feed rate z  = F254.00 )
N00150 (Z Axis Settings)
N00160 (  High     Up        Down     Drill)
N00170 (20.0000 	3.0000 	-0.1250 	-4.5550 )
N00180 (Settings from pcb-defaults.h)
N00190 (isolate min = 0.0025)
N00200 (isolate max = 0.2540)
N00210 (isolate step = 0.1270)
N00220 (Generated top outlines, top drill, bottom outlines, bottom drill, )
N00230 (Unit of measure: mm)
N00240 (Metric Mode)
N00250 G21
N00260 (Absolute Coordinates)
N00270 G90
N00280 S30000
N00290 G00 Z20.0000 
N00300 G00 X0.0000 Y0.0000 
N00310 M03
N00320 G04 P3.000000
N00330 G00 Z3.0000 
N00340 G00 X-12.3829 Y9.9167 
N00350 G01 Z-0.1250 F254.00 
N00360 G01 X-12.4567 Y9.8429 F508.00 
N00370 G01 X-12.5471 Y9.7908 
N00380 G01 X-12.6478 Y9.7638 
N00390 G01 X-14.8438 Y9.7638 
N00400 G01 X-14.8438 Y7.5678 
N00410 G01 X-14.8708 Y7.4671 
N00420 G01 X-14.9229 Y7.3767 
N00430 G01 X-14.9967 Y7.3029 
N00440 G01 X-15.0871 Y7.2508 
N00450 G01 X-15.1878 Y7.2238 
N00460 G01 X-15.2922 Y7.2238 
N00470 G01 X-15.3929 Y7.2508 
N00480 G01 X-15.4833 Y7.3029 
N00490 G01 X-15.5571 Y7.3767 
N00500 G01 X-15.6092 Y7.4671 
N00510 G01 X-15.6362 Y7.5678 
N00520 G01 X-15.6362 Y9.7638 
N00530 G01 X-17.8322 Y9.7638 
N00540 G01 X-17.9329 Y9.7908 
N00550 G01 X-18.0233 Y9.8429 
N00560 G01 X-18.0971 Y9.9167 
N00570 G01 X-18.1492 Y10.0071 
N00580 G01 X-18.1762 Y10.1078 
N00590 G01 X-18.1762 Y10.2122 
N00600 G01 X-18.1492 Y10.3129 
N00610 G01 X-18.0971 Y10.4033 
N00620 G01 X-18.0233 Y10.4771 
N00630 G01 X-17.9329 Y10.5292 
N00640 G01 X-17.8322 Y10.5562 
N00650 G01 X-15.6362 Y10.5562 
N00660 G01 X-15.6362 Y12.7522 
N00670 G01 X-15.6092 Y12.8529 
N00680 G01 X-15.5571 Y12.9433 
N00690 G01 X-15.4833 Y13.0171 
N00700 G01 X-15.3929 Y13.0692 
N00710 G01 X-15.2922 Y13.0962 
N00720 G01 X-15.1878 Y13.0962 
N00730 G01 X-15.0871 Y13.0692 
N00740 G01 X-14.9967 Y13.0171 
N00750 G01 X-14.9229 Y12.9433 
N00760 G01 X-14.8708 Y12.8529 
N00770 G01 X-14.8438 Y12.7522 
N00780 G01 X-14.8438 Y10.5562 
N00790 G01 X-12.6478 Y10.5562 
N00800 G01 X-12.5471 Y10.5292 
N00810 G01 X-12.4567 Y10.4771 
N00820 G01 X-12.3829 Y10.4033 
N00830 G01 X-12.3308 Y10.3129 
N00840 G01 X-12.3038 Y10.2122 
N00850 G01 X-12.3038 Y10.1078 
N00860 G01 X-12.3308 Y10.0071 
N00870 G01 X-12.3829 Y9.9167 
N00880 G00 Z3.0000 
N00890 G00 X-15.9015 Y17.2418 
N00900 G01 Z-0.1250 F254.00 
N00910 G01 X-16.7095 Y16.4369 F508.00 
N00920 G01 X-17.5452 Y15.6606 
N00930 G01 X-18.4074 Y14.9139 
N00940 G01 X-19.2951 Y14.1977 
N00950 G01 X-20.2072 Y13.5129 
N00960 G01 X-21.1427 Y12.8604 
N00970 G01 X-22.1004 Y12.2408 
N00980 G01 X-23.0790 Y11.6550 
N00990 G01 X-24.0776 Y11.1038 
N01000 G01 X-25.0947 Y10.5876 
N01010 G01 X-26.1292 Y10.1073 
N01020 G01 X-27.1798 Y9.6633 
N01030 G01 X-28.2453 Y9.2562 
N01040 G01 X-29.3243 Y8.8865 
N01050 G01 X-30.4156 Y8.5547 
N01060 G01 X-31.5177 Y8.2612 
N01070 G01 X-32.6295 Y8.0062 
N01080 G01 X-33.7494 Y7.7902 
N01090 G01 X-34.8762 Y7.6133 
N01100 G01 X-36.0085 Y7.4759 
N01110 G01 X-37.1448 Y7.3780 
N01120 G01 X-38.2840 Y7.3198 
N01130 G01 X-39.4244 Y7.3014 
N01140 G01 X-40.5648 Y7.3227 
N01150 G01 X-41.7037 Y7.3838 
N01160 G01 X-42.8399 Y7.4846 
N01170 G01 X-43.9718 Y7.6249 
N01180 G01 X-45.0981 Y7.8046 
N01190 G01 X-46.2175 Y8.0235 
N01200 G01 X-47.3286 Y8.2813 
N01210 G01 X-48.4300 Y8.5777 
N01220 G01 X-49.5204 Y8.9123 
N01230 G01 X-50.5985 Y9.2847 
N01240 G01 X-51.6629 Y9.6945 
N01250 G01 X-52.7124 Y10.1412 
N01260 G01 X-53.7457 Y10.6242 
N01270 G01 X-54.7615 Y11.1429 
N01280 G01 X-55.7586 Y11.6967 
N01290 G01 X-56.7358 Y12.2850 
N01300 G01 X-57.6918 Y12.9070 
N01310 G01 X-58.6257 Y13.5619 
N01320 G01 X-59.5361 Y14.2490 
N01330 G01 X-60.4219 Y14.9674 
N01340 G01 X-61.2822 Y15.7163 
N01350 G01 X-62.1159 Y16.4948 
N01360 G01 X-62.9219 Y17.3018 
N01370 G01 X-63.6993 Y18.1364 
N01380 G01 X-64.4471 Y18.9977 
N01390 G01 X-65.1644 Y19.8845 
N01400 G01 X-65.8503 Y20.7958 
N01410 G01 X-66.5041 Y21.7304 
N01420 G01 X-67.1248 Y22.6873 
N01430 G01 X-67.7118 Y23.6652 
N01440 G01 X-68.2644 Y24.6630 
N01450 G01 X-68.7818 Y25.6795 
N01460 G01 X-69.2635 Y26.7134 
N01470 G01 X-69.7088 Y27.7634 
N01480 G01 X-70.1172 Y28.8284 
N01490 G01 X-70.4883 Y29.9069 
N01500 G01 X-70.8215 Y30.9978 
N01510 G01 X-71.1165 Y32.0996 
N01520 G01 X-71.3728 Y33.2110 
N01530 G01 X-71.5903 Y34.3306 
N01540 G01 X-71.7686 Y35.4572 
N01550 G01 X-71.9075 Y36.5893 
N01560 G01 X-72.0068 Y37.7256 
N01570 G01 X-72.0665 Y38.8646 
N01580 G01 X-72.0863 Y40.0050 
N01590 G01 X-72.0665 Y41.1454 
N01600 G01 X-72.0068 Y42.2844 
N01610 G01 X-71.9075 Y43.4207 
N01620 G01 X-71.7686 Y44.5528 
N01630 G01 X-71.5903 Y45.6794 
N01640 G01 X-71.3728 Y46.7990 
N01650 G01 X-71.1165 Y47.9104 
N01660 G01 X-70.8215 Y49.0122 
N01670 G01 X-70.4883 Y50.1031 
N01680 G01 X-70.1172 Y51.1816 
N01690 G01 X-69.7088 Y52.2465 
N01700 G01 X-69.2635 Y53.2966 
N01710 G01 X-68.7818 Y54.3305 
N01720 G01 X-68.2644 Y55.3470 
N01730 G01 X-67.7118 Y56.3448 
N01740 G01 X-67.1248 Y57.3227 
N01750 G01 X-66.5041 Y58.2796 
N01760 G01 X-65.8503 Y59.2142 
N01770 G01 X-65.1644 Y60.1255 
N01780 G01 X-64.4471 Y61.0123 
N01790 G01 X-63.6993 Y61.8735 
N01800 G01 X-62.9219 Y62.7082 
N01810 G01 X-62.1159 Y63.5152 
N01820 G01 X-61.2822 Y64.2937 
N01830 G01 X-60.4219 Y65.0426 
N01840 G01 X-59.5361 Y65.7610 
N01850 G01 X-58.6257 Y66.4481 
N01860 G01 X-57.6919 Y67.1030 
N01870 G01 X-56.7358 Y67.7250 
N01880 G01 X-55.7586 Y68.3133 
N01890 G01 X-54.7615 Y68.8671 
N01900 G01 X-53.7457 Y69.3858 
N01910 G01 X-52.7124 Y69.8688 
N01920 G01 X-51.6629 Y70.3155 
N01930 G01 X-50.5985 Y70.7253 
N01940 G01 X-49.5204 Y71.0977 
N01950 G01 X-48.4300 Y71.4323 
N01960 G01 X-47.3286 Y71.7287 
N01970 G01 X-46.2175 Y71.9865 
N01980 G01 X-45.0981 Y72.2054 
N01990 G01 X-43.9718 Y72.3851 
N02000 G01 X-42.8399 Y72.5254 
N02010 G01 X-41.7037 Y72.6262 
N02020 G01 X-40.5648 Y72.6873 
N02030 G01 X-39.4244 Y72.7086 
N02040 G01 X-38.2840 Y72.6902 
N02050 G01 X-37.1449 Y72.6320 
N02060 G01 X-36.0085 Y72.5341 
N02070 G01 X-34.8762 Y72.3967 
N02080 G01 X-33.7494 Y72.2198 
N02090 G01 X-32.6295 Y72.0038 
N02100 G01 X-31.5177 Y71.7488 
N02110 G01 X-30.4156 Y71.4553 
N02120 G01 X-29.3243 Y71.1235 
N02130 G01 X-28.2453 Y70.7538 
N02140 G01 X-27.1798 Y70.3467 
N02150 G01 X-26.1292 Y69.9027 
N02160 G01 X-25.0947 Y69.4224 
N02170 G01 X-24.0776 Y68.9062 
N02180 G01 X-23.0790 Y68.3550 
N02190 G01 X-22.1004 Y67.7692 
N02200 G01 X-21.1427 Y67.1496 
N02210 G01 X-20.2072 Y66.4971 
N02220 G01 X-19.2951 Y65.8123 
N02230 G01 X-18.4074 Y65.0961 
N02240 G01 X-17.5452 Y64.3494 
N02250 G01 X-16.7095 Y63.5731 
N02260 G01 X-15.9015 Y62.7682 
N02270 G01 X-15.1220 Y61.9355 
N02280 G01 X-14.3720 Y61.0762 
N02290 G01 X-13.6524 Y60.1912 
N02300 G01 X-12.9642 Y59.2817 
N02310 G01 X-12.3080 Y58.3487 
N02320 G01 X-11.6848 Y57.3934 
N02330 G01 X-11.0953 Y56.4170 
N02340 G01 X-10.5402 Y55.4206 
N02350 G01 X-10.0202 Y54.4054 
N02360 G01 X-9.5359 Y53.3728 
N02370 G01 X-9.0879 Y52.3239 
N02380 G01 X-8.6767 Y51.2599 
N02390 G01 X-8.3029 Y50.1823 
N02400 G01 X-7.9670 Y49.0924 
N02410 G01 X-7.6692 Y47.9913 
N02420 G01 X-7.4100 Y46.8806 
N02430 G01 X-7.1897 Y45.7615 
N02440 G01 X-7.0085 Y44.6354 
N02450 G01 X-6.8667 Y43.5036 
N02460 G01 X-6.7645 Y42.3676 
N02470 G01 X-6.7019 Y41.2288 
N02480 G01 X-6.6922 Y40.7407 
N02490 G01 X-6.6904 Y40.7316 
N02500 G01 X-6.6904 Y40.6493 
N02510 G01 X-6.6887 Y40.5670 
N02520 G01 X-6.6904 Y40.5578 
N02530 G01 X-6.6904 Y39.4522 
N02540 G01 X-6.6887 Y39.4430 
N02550 G01 X-6.6904 Y39.3606 
N02560 G01 X-6.6904 Y39.2784 
N02570 G01 X-6.6922 Y39.2692 
N02580 G01 X-6.7019 Y38.7812 
N02590 G01 X-6.7645 Y37.6424 
N02600 G01 X-6.8667 Y36.5064 
N02610 G01 X-7.0085 Y35.3746 
N02620 G01 X-7.1897 Y34.2485 
N02630 G01 X-7.4100 Y33.1294 
N02640 G01 X-7.6692 Y32.0187 
N02650 G01 X-7.9670 Y30.9176 
N02660 G01 X-8.3029 Y29.8277 
N02670 G01 X-8.6767 Y28.7501 
N02680 G01 X-9.0879 Y27.6862 
N02690 G01 X-9.5359 Y26.6372 
N02700 G01 X-10.0202 Y25.6046 
N02710 G01 X-10.5402 Y24.5894 
N02720 G01 X-11.0953 Y23.5930 
N02730 G01 X-11.6848 Y22.6166 
N02740 G01 X-12.3080 Y21.6613 
N02750 G01 X-12.9642 Y20.7283 
N02760 G01 X-13.6524 Y19.8188 
N02770 G01 X-14.3720 Y18.9338 
N02780 G01 X-15.1220 Y18.0745 
N02790 G01 X-15.9015 Y17.2418 
N02800 G00 Z3.0000 
N02810 G00 X-17.2400 Y18.5394 
N02820 G01 Z-0.1250 F254.00 
N02830 G01 X-16.5049 Y19.3246 F508.00 
N02840 G01 X-15.7977 Y20.1350 
N02850 G01 X-15.1192 Y20.9695 
N02860 G01 X-14.4701 Y21.8272 
N02870 G01 X-13.8514 Y22.7070 
N02880 G01 X-13.2637 Y23.6078 
N02890 G01 X-12.7078 Y24.5286 
N02900 G01 X-12.6184 Y24.6890 
N02910 G01 X-13.8094 Y25.2845 
N02920 G01 X-14.6039 Y24.3134 
N02930 G01 X-14.3720 Y24.1355 
N02940 G01 X-14.3538 Y24.1040 
N02950 G01 X-14.3491 Y24.0679 
N02960 G01 X-14.3585 Y24.0328 
N02970 G01 X-15.3547 Y22.7346 
N02980 G01 X-15.3862 Y22.7164 
N02990 G01 X-15.4222 Y22.7116 
N03000 G01 X-15.4574 Y22.7211 
N03010 G01 X-16.9167 Y23.8408 
N03020 G01 X-16.9348 Y23.8723 
N03030 G01 X-16.9396 Y23.9084 
N03040 G01 X-16.9302 Y23.9435 
N03050 G01 X-15.9340 Y25.2417 
N03060 G01 X-15.9025 Y25.2599 
N03070 G01 X-15.8664 Y25.2647 
N03080 G01 X-15.8313 Y25.2552 
N03090 G01 X-15.5554 Y25.0436 
N03100 G01 X-14.4388 Y26.4086 
N03110 G01 X-14.4074 Y26.4492 
N03120 G01 X-14.4015 Y26.4542 
N03130 G01 X-14.3966 Y26.4602 
N03140 G01 X-14.3569 Y26.4929 
N03150 G01 X-14.3181 Y26.5265 
N03160 G01 X-14.3114 Y26.5304 
N03170 G01 X-14.3054 Y26.5353 
N03180 G01 X-14.2602 Y26.5596 
N03190 G01 X-14.2156 Y26.5850 
N03200 G01 X-14.2082 Y26.5875 
N03210 G01 X-14.2014 Y26.5911 
N03220 G01 X-14.1523 Y26.6061 
N03230 G01 X-14.1036 Y26.6223 
N03240 G01 X-14.0959 Y26.6233 
N03250 G01 X-14.0885 Y26.6256 
N03260 G01 X-14.0374 Y26.6307 
N03270 G01 X-13.9864 Y26.6371 
N03280 G01 X-13.9787 Y26.6366 
N03290 G01 X-13.9710 Y26.6373 
N03300 G01 X-13.9199 Y26.6324 
N03310 G01 X-13.8686 Y26.6287 
N03320 G01 X-13.8611 Y26.6267 
N03330 G01 X-13.8534 Y26.6259 
N03340 G01 X-13.8043 Y26.6111 
N03350 G01 X-13.7547 Y26.5976 
N03360 G01 X-13.7478 Y26.5941 
N03370 G01 X-13.7404 Y26.5919 
N03380 G01 X-13.6950 Y26.5677 
N03390 G01 X-12.0440 Y25.7422 
N03400 G01 X-11.6940 Y26.4255 
N03410 G01 X-11.2373 Y27.3992 
N03420 G01 X-10.8148 Y28.3884 
N03430 G01 X-10.4271 Y29.3916 
N03440 G01 X-10.0746 Y30.4078 
N03450 G01 X-9.7578 Y31.4356 
N03460 G01 X-9.4770 Y32.4739 
N03470 G01 X-9.2326 Y33.5213 
N03480 G01 X-9.0248 Y34.5767 
N03490 G01 X-8.8540 Y35.6386 
N03500 G01 X-8.7203 Y36.7058 
N03510 G01 X-8.6239 Y37.7770 
N03520 G01 X-8.5649 Y38.8510 
N03530 G01 X-8.5496 Y39.3821 
N03540 G01 X-8.5496 Y40.6278 
N03550 G01 X-8.5649 Y41.1590 
N03560 G01 X-8.6239 Y42.2330 
N03570 G01 X-8.7203 Y43.3042 
N03580 G01 X-8.8540 Y44.3714 
N03590 G01 X-9.0248 Y45.4333 
N03600 G01 X-9.2326 Y46.4887 
N03610 G01 X-9.4770 Y47.5361 
N03620 G01 X-9.6275 Y48.0927 
N03630 G01 X-10.7574 Y47.8103 
N03640 G01 X-10.5168 Y46.1850 
N03650 G01 X-10.1851 Y46.2287 
N03660 G01 X-10.1500 Y46.2193 
N03670 G01 X-10.1211 Y46.1971 
N03680 G01 X-10.1030 Y46.1656 
N03690 G01 X-9.8894 Y44.5433 
N03700 G01 X-9.8988 Y44.5081 
N03710 G01 X-9.9209 Y44.4793 
N03720 G01 X-9.9524 Y44.4611 
N03730 G01 X-11.7761 Y44.2210 
N03740 G01 X-11.8112 Y44.2304 
N03750 G01 X-11.8401 Y44.2525 
N03760 G01 X-11.8583 Y44.2840 
N03770 G01 X-12.0718 Y45.9064 
N03780 G01 X-12.0624 Y45.9416 
N03790 G01 X-12.0403 Y45.9704 
N03800 G01 X-12.0088 Y45.9886 
N03810 G01 X-11.7056 Y46.0285 
N03820 G01 X-12.0187 Y48.1431 
N03830 G01 X-12.0259 Y48.1719 
N03840 G01 X-12.0273 Y48.2014 
N03850 G01 X-12.0316 Y48.2306 
N03860 G01 X-12.0302 Y48.2602 
N03870 G01 X-12.0316 Y48.2898 
N03880 G01 X-12.0273 Y48.3191 
N03890 G01 X-12.0258 Y48.3485 
N03900 G01 X-12.0186 Y48.3773 
N03910 G01 X-12.0142 Y48.4066 
N03920 G01 X-12.0043 Y48.4344 
N03930 G01 X-11.9971 Y48.4631 
N03940 G01 X-11.9844 Y48.4899 
N03950 G01 X-11.9744 Y48.5178 
N03960 G01 X-11.9592 Y48.5431 
N03970 G01 X-11.9466 Y48.5698 
N03980 G01 X-11.9289 Y48.5936 
N03990 G01 X-11.9136 Y48.6190 
N04000 G01 X-11.8938 Y48.6409 
N04010 G01 X-11.8762 Y48.6646 
N04020 G01 X-11.8542 Y48.6845 
N04030 G01 X-11.8343 Y48.7065 
N04040 G01 X-11.8106 Y48.7241 
N04050 G01 X-11.7887 Y48.7439 
N04060 G01 X-11.7632 Y48.7591 
N04070 G01 X-11.7394 Y48.7768 
N04080 G01 X-11.7127 Y48.7894 
N04090 G01 X-11.6874 Y48.8046 
N04100 G01 X-11.6595 Y48.8145 
N04110 G01 X-11.6327 Y48.8272 
N04120 G01 X-11.6040 Y48.8344 
N04130 G01 X-11.5762 Y48.8443 
N04140 G01 X-11.5469 Y48.8487 
N04150 G01 X-9.9643 Y49.2443 
N04160 G01 X-10.0746 Y49.6022 
N04170 G01 X-10.4271 Y50.6184 
N04180 G01 X-10.8148 Y51.6216 
N04190 G01 X-11.2373 Y52.6108 
N04200 G01 X-11.6940 Y53.5846 
N04210 G01 X-12.1844 Y54.5418 
N04220 G01 X-12.7078 Y55.4814 
N04230 G01 X-13.2637 Y56.4022 
N04240 G01 X-13.8514 Y57.3030 
N04250 G01 X-14.4701 Y58.1828 
N04260 G01 X-15.1192 Y59.0405 
N04270 G01 X-15.7977 Y59.8750 
N04280 G01 X-16.5049 Y60.6854 
N04290 G01 X-17.2400 Y61.4706 
N04300 G01 X-18.0020 Y62.2296 
N04310 G01 X-18.7900 Y62.9617 
N04320 G01 X-19.6031 Y63.6658 
N04330 G01 X-20.4402 Y64.3412 
N04340 G01 X-21.3003 Y64.9869 
N04350 G01 X-22.1825 Y65.6023 
N04360 G01 X-23.0855 Y66.1865 
N04370 G01 X-24.0084 Y66.7389 
N04380 G01 X-24.0511 Y66.7624 
N04390 G01 X-24.6495 Y65.5656 
N04400 G01 X-23.6784 Y64.7711 
N04410 G01 X-23.5005 Y65.0030 
N04420 G01 X-23.4690 Y65.0212 
N04430 G01 X-23.4329 Y65.0259 
N04440 G01 X-23.3978 Y65.0165 
N04450 G01 X-22.0996 Y64.0203 
N04460 G01 X-22.0814 Y63.9888 
N04470 G01 X-22.0766 Y63.9528 
N04480 G01 X-22.0861 Y63.9176 
N04490 G01 X-23.2058 Y62.4583 
N04500 G01 X-23.2373 Y62.4402 
N04510 G01 X-23.2734 Y62.4354 
N04520 G01 X-23.3085 Y62.4448 
N04530 G01 X-24.6067 Y63.4410 
N04540 G01 X-24.6249 Y63.4725 
N04550 G01 X-24.6297 Y63.5086 
N04560 G01 X-24.6202 Y63.5437 
N04570 G01 X-24.4086 Y63.8196 
N04580 G01 X-25.7736 Y64.9362 
N04590 G01 X-25.8142 Y64.9676 
N04600 G01 X-25.8192 Y64.9735 
N04610 G01 X-25.8252 Y64.9784 
N04620 G01 X-25.8579 Y65.0181 
N04630 G01 X-25.8915 Y65.0568 
N04640 G01 X-25.8954 Y65.0636 
N04650 G01 X-25.9003 Y65.0696 
N04660 G01 X-25.9246 Y65.1148 
N04670 G01 X-25.9500 Y65.1594 
N04680 G01 X-25.9525 Y65.1668 
N04690 G01 X-25.9561 Y65.1736 
N04700 G01 X-25.9711 Y65.2227 
N04710 G01 X-25.9873 Y65.2714 
N04720 G01 X-25.9883 Y65.2791 
N04730 G01 X-25.9906 Y65.2865 
N04740 G01 X-25.9957 Y65.3376 
N04750 G01 X-26.0021 Y65.3886 
N04760 G01 X-26.0016 Y65.3963 
N04770 G01 X-26.0023 Y65.4040 
N04780 G01 X-25.9974 Y65.4551 
N04790 G01 X-25.9937 Y65.5064 
N04800 G01 X-25.9917 Y65.5139 
N04810 G01 X-25.9910 Y65.5216 
N04820 G01 X-25.9761 Y65.5707 
N04830 G01 X-25.9626 Y65.6203 
N04840 G01 X-25.9591 Y65.6272 
N04850 G01 X-25.9569 Y65.6346 
N04860 G01 X-25.9327 Y65.6800 
N04870 G01 X-25.1042 Y67.3370 
N04880 G01 X-25.9092 Y67.7455 
N04890 G01 X-26.8847 Y68.1984 
N04900 G01 X-27.8754 Y68.6171 
N04910 G01 X-28.8802 Y69.0010 
N04920 G01 X-29.8977 Y69.3496 
N04930 G01 X-30.9267 Y69.6625 
N04940 G01 X-31.9661 Y69.9393 
N04950 G01 X-33.0144 Y70.1797 
N04960 G01 X-34.0705 Y70.3834 
N04970 G01 X-35.1331 Y70.5502 
N04980 G01 X-36.2008 Y70.6798 
N04990 G01 X-37.2724 Y70.7721 
N05000 G01 X-38.3466 Y70.8270 
N05010 G01 X-39.4220 Y70.8444 
N05020 G01 X-40.4974 Y70.8243 
N05030 G01 X-41.5714 Y70.7666 
N05040 G01 X-42.6428 Y70.6716 
N05050 G01 X-43.7102 Y70.5393 
N05060 G01 X-44.7723 Y70.3698 
N05070 G01 X-45.8279 Y70.1634 
N05080 G01 X-46.8665 Y69.9224 
N05090 G01 X-46.5454 Y68.6381 
N05100 G01 X-45.5457 Y68.8253 
N05110 G01 X-45.5937 Y69.1899 
N05120 G01 X-45.5843 Y69.2250 
N05130 G01 X-45.5621 Y69.2538 
N05140 G01 X-45.5306 Y69.2720 
N05150 G01 X-43.9083 Y69.4856 
N05160 G01 X-43.8731 Y69.4762 
N05170 G01 X-43.8443 Y69.4541 
N05180 G01 X-43.8261 Y69.4226 
N05190 G01 X-43.5860 Y67.5989 
N05200 G01 X-43.5954 Y67.5638 
N05210 G01 X-43.6175 Y67.5349 
N05220 G01 X-43.6490 Y67.5167 
N05230 G01 X-45.2714 Y67.3032 
N05240 G01 X-45.3066 Y67.3126 
N05250 G01 X-45.3354 Y67.3347 
N05260 G01 X-45.3536 Y67.3662 
N05270 G01 X-45.3890 Y67.6349 
N05280 G01 X-46.8620 Y67.3591 
N05290 G01 X-46.9019 Y67.3491 
N05300 G01 X-46.9199 Y67.3483 
N05310 G01 X-46.9377 Y67.3449 
N05320 G01 X-46.9788 Y67.3454 
N05330 G01 X-47.0198 Y67.3434 
N05340 G01 X-47.0377 Y67.3461 
N05350 G01 X-47.0558 Y67.3463 
N05360 G01 X-47.0960 Y67.3547 
N05370 G01 X-47.1366 Y67.3608 
N05380 G01 X-47.1536 Y67.3669 
N05390 G01 X-47.1713 Y67.3706 
N05400 G01 X-47.2091 Y67.3868 
N05410 G01 X-47.2478 Y67.4006 
N05420 G01 X-47.2633 Y67.4099 
N05430 G01 X-47.2799 Y67.4170 
N05440 G01 X-47.3138 Y67.4402 
N05450 G01 X-47.3490 Y67.4614 
N05460 G01 X-47.3624 Y67.4735 
N05470 G01 X-47.3773 Y67.4837 
N05480 G01 X-47.4061 Y67.5131 
N05490 G01 X-47.4365 Y67.5407 
N05500 G01 X-47.4472 Y67.5552 
N05510 G01 X-47.4599 Y67.5681 
N05520 G01 X-47.4823 Y67.6026 
N05530 G01 X-47.5068 Y67.6356 
N05540 G01 X-47.5145 Y67.6519 
N05550 G01 X-47.5244 Y67.6671 
N05560 G01 X-47.5397 Y67.7052 
N05570 G01 X-47.5572 Y67.7423 
N05580 G01 X-47.5616 Y67.7599 
N05590 G01 X-47.5683 Y67.7766 
N05600 G01 X-47.5759 Y67.8170 
N05610 G01 X-48.0235 Y69.6073 
N05620 G01 X-48.9425 Y69.3253 
N05630 G01 X-49.9591 Y68.9741 
N05640 G01 X-50.9629 Y68.5877 
N05650 G01 X-51.9526 Y68.1665 
N05660 G01 X-52.9269 Y67.7110 
N05670 G01 X-53.8848 Y67.2218 
N05680 G01 X-54.8251 Y66.6996 
N05690 G01 X-55.7466 Y66.1449 
N05700 G01 X-56.6482 Y65.5583 
N05710 G01 X-57.5287 Y64.9407 
N05720 G01 X-58.3872 Y64.2928 
N05730 G01 X-59.2226 Y63.6153 
N05740 G01 X-60.0339 Y62.9091 
N05750 G01 X-60.8200 Y62.1750 
N05760 G01 X-61.5801 Y61.4140 
N05770 G01 X-62.3131 Y60.6269 
N05780 G01 X-63.0183 Y59.8148 
N05790 G01 X-63.6947 Y58.9785 
N05800 G01 X-64.3415 Y58.1192 
N05810 G01 X-64.9580 Y57.2379 
N05820 G01 X-65.5434 Y56.3355 
N05830 G01 X-66.0255 Y55.5324 
N05840 G01 X-64.9023 Y54.7836 
N05850 G01 X-63.5777 Y56.4960 
N05860 G01 X-63.8812 Y56.7995 
N05870 G01 X-63.8951 Y56.8331 
N05880 G01 X-63.8951 Y56.8695 
N05890 G01 X-63.8812 Y56.9031 
N05900 G01 X-62.7241 Y58.0602 
N05910 G01 X-62.6905 Y58.0741 
N05920 G01 X-62.6541 Y58.0741 
N05930 G01 X-62.6205 Y58.0602 
N05940 G01 X-61.3198 Y56.7595 
N05950 G01 X-61.3059 Y56.7259 
N05960 G01 X-61.3059 Y56.6895 
N05970 G01 X-61.3198 Y56.6559 
N05980 G01 X-62.4769 Y55.4988 
N05990 G01 X-62.5105 Y55.4849 
N06000 G01 X-62.5469 Y55.4849 
N06010 G01 X-62.5805 Y55.4988 
N06020 G01 X-62.7231 Y55.6414 
N06030 G01 X-64.2829 Y53.6249 
N06040 G01 X-64.3040 Y53.5934 
N06050 G01 X-64.3190 Y53.5783 
N06060 G01 X-64.3320 Y53.5615 
N06070 G01 X-64.3606 Y53.5366 
N06080 G01 X-64.3874 Y53.5098 
N06090 G01 X-64.4050 Y53.4980 
N06100 G01 X-64.4211 Y53.4840 
N06110 G01 X-64.4540 Y53.4652 
N06120 G01 X-64.4855 Y53.4441 
N06130 G01 X-64.5051 Y53.4359 
N06140 G01 X-64.5236 Y53.4254 
N06150 G01 X-64.5595 Y53.4133 
N06160 G01 X-64.5945 Y53.3988 
N06170 G01 X-64.6154 Y53.3946 
N06180 G01 X-64.6355 Y53.3879 
N06190 G01 X-64.6731 Y53.3831 
N06200 G01 X-64.7103 Y53.3756 
N06210 G01 X-64.7316 Y53.3756 
N06220 G01 X-64.7527 Y53.3729 
N06230 G01 X-64.7905 Y53.3755 
N06240 G01 X-64.8284 Y53.3755 
N06250 G01 X-64.8493 Y53.3796 
N06260 G01 X-64.8704 Y53.3811 
N06270 G01 X-64.9070 Y53.3910 
N06280 G01 X-64.9442 Y53.3984 
N06290 G01 X-64.9639 Y53.4065 
N06300 G01 X-64.9844 Y53.4121 
N06310 G01 X-65.0183 Y53.4290 
N06320 G01 X-65.0534 Y53.4435 
N06330 G01 X-65.0711 Y53.4553 
N06340 G01 X-65.0901 Y53.4647 
N06350 G01 X-65.1201 Y53.4879 
N06360 G01 X-66.6123 Y54.4828 
N06370 G01 X-66.6180 Y54.4724 
N06380 G01 X-67.1059 Y53.5139 
N06390 G01 X-67.5602 Y52.5389 
N06400 G01 X-67.9801 Y51.5487 
N06410 G01 X-68.3652 Y50.5445 
N06420 G01 X-68.7151 Y49.5274 
N06430 G01 X-69.0294 Y48.4988 
N06440 G01 X-69.3075 Y47.4598 
N06450 G01 X-69.5493 Y46.4117 
N06460 G01 X-69.7543 Y45.3559 
N06470 G01 X-69.9225 Y44.2936 
N06480 G01 X-70.0534 Y43.2260 
N06490 G01 X-70.1471 Y42.1545 
N06500 G01 X-70.2033 Y41.0804 
N06510 G01 X-70.2221 Y40.0050 
N06520 G01 X-70.2033 Y38.9296 
N06530 G01 X-70.1471 Y37.8555 
N06540 G01 X-70.0534 Y36.7840 
N06550 G01 X-69.9225 Y35.7164 
N06560 G01 X-69.7543 Y34.6541 
N06570 G01 X-69.5493 Y33.5983 
N06580 G01 X-69.3075 Y32.5502 
N06590 G01 X-69.2958 Y32.5064 
N06600 G01 X-67.9826 Y32.8347 
N06610 G01 X-68.2232 Y34.4600 
N06620 G01 X-68.5549 Y34.4163 
N06630 G01 X-68.5900 Y34.4257 
N06640 G01 X-68.6189 Y34.4479 
N06650 G01 X-68.6370 Y34.4794 
N06660 G01 X-68.8506 Y36.1017 
N06670 G01 X-68.8412 Y36.1369 
N06680 G01 X-68.8191 Y36.1657 
N06690 G01 X-68.7876 Y36.1839 
N06700 G01 X-66.9639 Y36.4240 
N06710 G01 X-66.9288 Y36.4146 
N06720 G01 X-66.8999 Y36.3925 
N06730 G01 X-66.8817 Y36.3610 
N06740 G01 X-66.6682 Y34.7386 
N06750 G01 X-66.6776 Y34.7034 
N06760 G01 X-66.6997 Y34.6746 
N06770 G01 X-66.7312 Y34.6564 
N06780 G01 X-67.0344 Y34.6165 
N06790 G01 X-66.7213 Y32.5019 
N06800 G01 X-66.7141 Y32.4731 
N06810 G01 X-66.7127 Y32.4436 
N06820 G01 X-66.7084 Y32.4144 
N06830 G01 X-66.7098 Y32.3848 
N06840 G01 X-66.7084 Y32.3552 
N06850 G01 X-66.7127 Y32.3259 
N06860 G01 X-66.7142 Y32.2965 
N06870 G01 X-66.7214 Y32.2677 
N06880 G01 X-66.7258 Y32.2384 
N06890 G01 X-66.7357 Y32.2106 
N06900 G01 X-66.7429 Y32.1819 
N06910 G01 X-66.7556 Y32.1551 
N06920 G01 X-66.7656 Y32.1272 
N06930 G01 X-66.7808 Y32.1019 
N06940 G01 X-66.7934 Y32.0752 
N06950 G01 X-66.8111 Y32.0514 
N06960 G01 X-66.8264 Y32.0260 
N06970 G01 X-66.8462 Y32.0041 
N06980 G01 X-66.8638 Y31.9804 
N06990 G01 X-66.8858 Y31.9605 
N07000 G01 X-66.9057 Y31.9385 
N07010 G01 X-66.9294 Y31.9209 
N07020 G01 X-66.9513 Y31.9011 
N07030 G01 X-66.9767 Y31.8859 
N07040 G01 X-67.0006 Y31.8682 
N07050 G01 X-67.0273 Y31.8556 
N07060 G01 X-67.0526 Y31.8404 
N07070 G01 X-67.0805 Y31.8304 
N07080 G01 X-67.1073 Y31.8178 
N07090 G01 X-67.1360 Y31.8106 
N07100 G01 X-67.1638 Y31.8007 
N07110 G01 X-67.1931 Y31.7963 
N07120 G01 X-68.9800 Y31.3496 
N07130 G01 X-68.7151 Y30.4826 
N07140 G01 X-68.3652 Y29.4655 
N07150 G01 X-67.9801 Y28.4613 
N07160 G01 X-67.5602 Y27.4711 
N07170 G01 X-67.1059 Y26.4961 
N07180 G01 X-66.6180 Y25.5376 
N07190 G01 X-66.0970 Y24.5966 
N07200 G01 X-65.5434 Y23.6745 
N07210 G01 X-64.9580 Y22.7721 
N07220 G01 X-64.3415 Y21.8908 
N07230 G01 X-63.6947 Y21.0314 
N07240 G01 X-63.0183 Y20.1952 
N07250 G01 X-62.3131 Y19.3831 
N07260 G01 X-61.5801 Y18.5960 
N07270 G01 X-60.8200 Y17.8350 
N07280 G01 X-60.0339 Y17.1009 
N07290 G01 X-59.2226 Y16.3947 
N07300 G01 X-58.3872 Y15.7172 
N07310 G01 X-57.5287 Y15.0693 
N07320 G01 X-56.6481 Y14.4517 
N07330 G01 X-55.7466 Y13.8651 
N07340 G01 X-54.8953 Y13.3527 
N07350 G01 X-54.1403 Y14.4852 
N07360 G01 X-55.0616 Y15.2389 
N07370 G01 X-55.2395 Y15.0070 
N07380 G01 X-55.2710 Y14.9888 
N07390 G01 X-55.3071 Y14.9841 
N07400 G01 X-55.3422 Y14.9935 
N07410 G01 X-56.6404 Y15.9897 
N07420 G01 X-56.6586 Y16.0212 
N07430 G01 X-56.6634 Y16.0572 
N07440 G01 X-56.6539 Y16.0924 
N07450 G01 X-55.5342 Y17.5516 
N07460 G01 X-55.5027 Y17.5698 
N07470 G01 X-55.4666 Y17.5746 
N07480 G01 X-55.4315 Y17.5652 
N07490 G01 X-54.1333 Y16.5690 
N07500 G01 X-54.1151 Y16.5375 
N07510 G01 X-54.1103 Y16.5014 
N07520 G01 X-54.1198 Y16.4663 
N07530 G01 X-54.3314 Y16.1904 
N07540 G01 X-52.9831 Y15.0875 
N07550 G01 X-52.9584 Y15.0710 
N07560 G01 X-52.9375 Y15.0502 
N07570 G01 X-52.9148 Y15.0316 
N07580 G01 X-52.8959 Y15.0086 
N07590 G01 X-52.8748 Y14.9876 
N07600 G01 X-52.8584 Y14.9632 
N07610 G01 X-52.8397 Y14.9404 
N07620 G01 X-52.8256 Y14.9142 
N07630 G01 X-52.8091 Y14.8895 
N07640 G01 X-52.7978 Y14.8623 
N07650 G01 X-52.7839 Y14.8364 
N07660 G01 X-52.7752 Y14.8079 
N07670 G01 X-52.7638 Y14.7805 
N07680 G01 X-52.7580 Y14.7516 
N07690 G01 X-52.7494 Y14.7235 
N07700 G01 X-52.7465 Y14.6938 
N07710 G01 X-52.7406 Y14.6647 
N07720 G01 X-52.7406 Y14.6352 
N07730 G01 X-52.7377 Y14.6060 
N07740 G01 X-52.7405 Y14.5763 
N07750 G01 X-52.7405 Y14.5466 
N07760 G01 X-52.7462 Y14.5177 
N07770 G01 X-52.7490 Y14.4884 
N07780 G01 X-52.7576 Y14.4600 
N07790 G01 X-52.7634 Y14.4307 
N07800 G01 X-52.7746 Y14.4036 
N07810 G01 X-52.7831 Y14.3754 
N07820 G01 X-52.7971 Y14.3491 
N07830 G01 X-52.8085 Y14.3216 
N07840 G01 X-52.8248 Y14.2971 
N07850 G01 X-52.8386 Y14.2712 
N07860 G01 X-52.8575 Y14.2481 
N07870 G01 X-53.8445 Y12.7676 
N07880 G01 X-52.9269 Y12.2990 
N07890 G01 X-51.9525 Y11.8435 
N07900 G01 X-50.9629 Y11.4223 
N07910 G01 X-49.9591 Y11.0359 
N07920 G01 X-48.9425 Y10.6847 
N07930 G01 X-47.9143 Y10.3692 
N07940 G01 X-46.8756 Y10.0897 
N07950 G01 X-45.8279 Y9.8466 
N07960 G01 X-44.7723 Y9.6402 
N07970 G01 X-43.7102 Y9.4707 
N07980 G01 X-42.6428 Y9.3384 
N07990 G01 X-41.5714 Y9.2434 
N08000 G01 X-40.4974 Y9.1857 
N08010 G01 X-39.4220 Y9.1656 
N08020 G01 X-38.3466 Y9.1830 
N08030 G01 X-37.2724 Y9.2379 
N08040 G01 X-36.2008 Y9.3302 
N08050 G01 X-35.1331 Y9.4598 
N08060 G01 X-34.0705 Y9.6266 
N08070 G01 X-33.1780 Y9.7987 
N08080 G01 X-33.4917 Y11.3668 
N08090 G01 X-34.4643 Y11.1847 
N08100 G01 X-34.4163 Y10.8201 
N08110 G01 X-34.4257 Y10.7850 
N08120 G01 X-34.4479 Y10.7561 
N08130 G01 X-34.4794 Y10.7380 
N08140 G01 X-36.1017 Y10.5244 
N08150 G01 X-36.1369 Y10.5338 
N08160 G01 X-36.1657 Y10.5559 
N08170 G01 X-36.1839 Y10.5874 
N08180 G01 X-36.4240 Y12.4111 
N08190 G01 X-36.4146 Y12.4462 
N08200 G01 X-36.3925 Y12.4751 
N08210 G01 X-36.3610 Y12.4933 
N08220 G01 X-34.7386 Y12.7068 
N08230 G01 X-34.7034 Y12.6974 
N08240 G01 X-34.6746 Y12.6753 
N08250 G01 X-34.6564 Y12.6438 
N08260 G01 X-34.6210 Y12.3751 
N08270 G01 X-33.1338 Y12.6535 
N08280 G01 X-33.0797 Y12.6644 
N08290 G01 X-33.0760 Y12.6644 
N08300 G01 X-33.0723 Y12.6651 
N08310 G01 X-33.0169 Y12.6644 
N08320 G01 X-32.9616 Y12.6645 
N08330 G01 X-32.9579 Y12.6638 
N08340 G01 X-32.9542 Y12.6637 
N08350 G01 X-32.9001 Y12.6523 
N08360 G01 X-32.8458 Y12.6416 
N08370 G01 X-32.8423 Y12.6402 
N08380 G01 X-32.8387 Y12.6394 
N08390 G01 X-32.7878 Y12.6177 
N08400 G01 X-32.7366 Y12.5965 
N08410 G01 X-32.7335 Y12.5944 
N08420 G01 X-32.7301 Y12.5930 
N08430 G01 X-32.6844 Y12.5617 
N08440 G01 X-32.6384 Y12.5310 
N08450 G01 X-32.6357 Y12.5284 
N08460 G01 X-32.6327 Y12.5263 
N08470 G01 X-32.5940 Y12.4867 
N08480 G01 X-32.5548 Y12.4476 
N08490 G01 X-32.5527 Y12.4445 
N08500 G01 X-32.5501 Y12.4419 
N08510 G01 X-32.5199 Y12.3956 
N08520 G01 X-32.4891 Y12.3495 
N08530 G01 X-32.4876 Y12.3460 
N08540 G01 X-32.4856 Y12.3429 
N08550 G01 X-32.4650 Y12.2916 
N08560 G01 X-32.4438 Y12.2405 
N08570 G01 X-32.4430 Y12.2368 
N08580 G01 X-32.4417 Y12.2333 
N08590 G01 X-32.4315 Y12.1789 
N08600 G01 X-32.0079 Y10.0611 
N08610 G01 X-31.9661 Y10.0707 
N08620 G01 X-30.9267 Y10.3475 
N08630 G01 X-30.1564 Y10.5818 
N08640 G01 X-30.8884 Y12.5175 
N08650 G01 X-30.9262 Y12.6999 
N08660 G01 X-30.9351 Y12.8860 
N08670 G01 X-30.9146 Y13.0712 
N08680 G01 X-30.8655 Y13.2509 
N08690 G01 X-30.8515 Y13.2821 
N08700 G01 X-30.8606 Y13.3040 
N08710 G01 X-30.8934 Y13.4689 
N08720 G01 X-30.8934 Y13.6370 
N08730 G01 X-30.8606 Y13.8019 
N08740 G01 X-30.7962 Y13.9572 
N08750 G01 X-30.7028 Y14.0970 
N08760 G01 X-30.5840 Y14.2159 
N08770 G01 X-30.4442 Y14.3093 
N08780 G01 X-30.2889 Y14.3736 
N08790 G01 X-30.1240 Y14.4064 
N08800 G01 X-29.9559 Y14.4064 
N08810 G01 X-29.7910 Y14.3736 
N08820 G01 X-29.6357 Y14.3093 
N08830 G01 X-29.4959 Y14.2159 
N08840 G01 X-29.3770 Y14.0970 
N08850 G01 X-29.2836 Y13.9572 
N08860 G01 X-29.2738 Y13.9334 
N08870 G01 X-29.1766 Y13.8896 
N08880 G01 X-29.0208 Y13.7873 
N08890 G01 X-28.8830 Y13.6620 
N08900 G01 X-28.7665 Y13.5166 
N08910 G01 X-28.6741 Y13.3548 
N08920 G01 X-27.9251 Y11.3739 
N08930 G01 X-27.8754 Y11.3929 
N08940 G01 X-26.8847 Y11.8116 
N08950 G01 X-25.9092 Y12.2645 
N08960 G01 X-24.9500 Y12.7513 
N08970 G01 X-24.0084 Y13.2711 
N08980 G01 X-23.0855 Y13.8235 
N08990 G01 X-22.1825 Y14.4077 
N09000 G01 X-21.3003 Y15.0231 
N09010 G01 X-20.4402 Y15.6688 
N09020 G01 X-19.6030 Y16.3442 
N09030 G01 X-18.7900 Y17.0483 
N09040 G01 X-18.0020 Y17.7804 
N09050 G01 X-17.2400 Y18.5394 
N09060 G00 Z3.0000 
N09070 G00 X-18.4163 Y18.5573 
N09080 G01 Z-0.1250 F254.00 
N09090 G01 X-19.6671 Y17.6651 F508.00 
N09100 G01 X-19.7025 Y17.6569 
N09110 G01 X-19.7384 Y17.6629 
N09120 G01 X-19.7692 Y17.6822 
N09130 G01 X-20.6614 Y18.9330 
N09140 G01 X-20.6696 Y18.9684 
N09150 G01 X-20.6636 Y19.0043 
N09160 G01 X-20.6443 Y19.0352 
N09170 G01 X-19.4988 Y19.8523 
N09180 G01 X-18.3789 Y21.3780 
N09190 G01 X-18.6480 Y21.5845 
N09200 G01 X-18.6662 Y21.6160 
N09210 G01 X-18.6709 Y21.6521 
N09220 G01 X-18.6615 Y21.6872 
N09230 G01 X-17.6653 Y22.9854 
N09240 G01 X-17.6338 Y23.0036 
N09250 G01 X-17.5978 Y23.0084 
N09260 G01 X-17.5626 Y22.9989 
N09270 G01 X-16.1033 Y21.8792 
N09280 G01 X-16.0852 Y21.8477 
N09290 G01 X-16.0804 Y21.8116 
N09300 G01 X-16.0898 Y21.7765 
N09310 G01 X-17.0860 Y20.4783 
N09320 G01 X-17.1175 Y20.4601 
N09330 G01 X-17.1536 Y20.4553 
N09340 G01 X-17.1887 Y20.4648 
N09350 G01 X-17.4276 Y20.6480 
N09360 G01 X-18.6397 Y18.9966 
N09370 G01 X-18.3992 Y18.6595 
N09380 G01 X-18.3910 Y18.6240 
N09390 G01 X-18.3970 Y18.5881 
N09400 G01 X-18.4163 Y18.5573 
N09410 G00 Z3.0000 
N09420 G00 X-22.1408 Y17.8778 
N09430 G01 Z-0.1250 F254.00 
N09440 G01 X-21.2486 Y16.6270 F508.00 
N09450 G01 X-21.2404 Y16.5916 
N09460 G01 X-21.2464 Y16.5557 
N09470 G01 X-21.2657 Y16.5248 
N09480 G01 X-22.5165 Y15.6326 
N09490 G01 X-22.5519 Y15.6245 
N09500 G01 X-22.5878 Y15.6305 
N09510 G01 X-22.6186 Y15.6497 
N09520 G01 X-22.7864 Y15.8850 
N09530 G01 X-23.8121 Y15.3641 
N09540 G01 X-23.8176 Y15.3600 
N09550 G01 X-23.8647 Y15.3374 
N09560 G01 X-23.9112 Y15.3138 
N09570 G01 X-23.9178 Y15.3119 
N09580 G01 X-23.9240 Y15.3090 
N09590 G01 X-23.9746 Y15.2960 
N09600 G01 X-24.0249 Y15.2819 
N09610 G01 X-24.0318 Y15.2814 
N09620 G01 X-24.0384 Y15.2797 
N09630 G01 X-24.0905 Y15.2768 
N09640 G01 X-24.1427 Y15.2728 
N09650 G01 X-24.1495 Y15.2736 
N09660 G01 X-24.1563 Y15.2732 
N09670 G01 X-24.2080 Y15.2806 
N09680 G01 X-24.2599 Y15.2868 
N09690 G01 X-24.2664 Y15.2890 
N09700 G01 X-24.2732 Y15.2899 
N09710 G01 X-24.3225 Y15.3073 
N09720 G01 X-24.3722 Y15.3235 
N09730 G01 X-24.3781 Y15.3268 
N09740 G01 X-24.3846 Y15.3291 
N09750 G01 X-24.4296 Y15.3558 
N09760 G01 X-24.4751 Y15.3813 
N09770 G01 X-24.4803 Y15.3858 
N09780 G01 X-24.4862 Y15.3893 
N09790 G01 X-24.5251 Y15.4242 
N09800 G01 X-24.5648 Y15.4581 
N09810 G01 X-24.5690 Y15.4635 
N09820 G01 X-24.5741 Y15.4681 
N09830 G01 X-24.6054 Y15.5098 
N09840 G01 X-24.6378 Y15.5510 
N09850 G01 X-24.6409 Y15.5571 
N09860 G01 X-25.9707 Y17.3302 
N09870 G01 X-26.2846 Y17.1424 
N09880 G01 X-27.1793 Y16.6530 
N09890 G01 X-27.3163 Y16.5849 
N09900 G01 X-26.2796 Y14.2090 
N09910 G01 X-26.2327 Y14.0287 
N09920 G01 X-26.2146 Y13.8433 
N09930 G01 X-26.2257 Y13.6573 
N09940 G01 X-26.2658 Y13.4753 
N09950 G01 X-26.2993 Y13.3899 
N09960 G01 X-26.2894 Y13.3659 
N09970 G01 X-26.2566 Y13.2011 
N09980 G01 X-26.2566 Y13.0330 
N09990 G01 X-26.2894 Y12.8681 
N10000 G01 X-26.3538 Y12.7128 
N10010 G01 X-26.4472 Y12.5730 
N10020 G01 X-26.5660 Y12.4541 
N10030 G01 X-26.7058 Y12.3607 
N10040 G01 X-26.8611 Y12.2964 
N10050 G01 X-27.0260 Y12.2636 
N10060 G01 X-27.1941 Y12.2636 
N10070 G01 X-27.3590 Y12.2964 
N10080 G01 X-27.5143 Y12.3607 
N10090 G01 X-27.6541 Y12.4541 
N10100 G01 X-27.7730 Y12.5730 
N10110 G01 X-27.8664 Y12.7128 
N10120 G01 X-27.8758 Y12.7356 
N10130 G01 X-27.9208 Y12.7532 
N10140 G01 X-28.0814 Y12.8476 
N10150 G01 X-28.2253 Y12.9659 
N10160 G01 X-28.3490 Y13.1052 
N10170 G01 X-28.4493 Y13.2623 
N10180 G01 X-29.4690 Y15.5993 
N10190 G01 X-29.9676 Y15.3976 
N10200 G01 X-30.9271 Y15.0521 
N10210 G01 X-31.8992 Y14.7440 
N10220 G01 X-32.8826 Y14.4738 
N10230 G01 X-33.8756 Y14.2418 
N10240 G01 X-34.8769 Y14.0485 
N10250 G01 X-35.8850 Y13.8940 
N10260 G01 X-36.8982 Y13.7787 
N10270 G01 X-37.9152 Y13.7027 
N10280 G01 X-38.9343 Y13.6661 
N10290 G01 X-39.9541 Y13.6690 
N10300 G01 X-40.9731 Y13.7113 
N10310 G01 X-41.9896 Y13.7931 
N10320 G01 X-43.0022 Y13.9141 
N10330 G01 X-44.0093 Y14.0742 
N10340 G01 X-45.0095 Y14.2732 
N10350 G01 X-46.0012 Y14.5108 
N10360 G01 X-46.9831 Y14.7866 
N10370 G01 X-47.1877 Y14.8527 
N10380 G01 X-47.5686 Y12.5674 
N10390 G01 X-46.3040 Y12.3777 
N10400 G01 X-46.2840 Y12.5299 
N10410 G01 X-46.2658 Y12.5614 
N10420 G01 X-46.2370 Y12.5835 
N10430 G01 X-46.2018 Y12.5929 
N10440 G01 X-44.6786 Y12.3924 
N10450 G01 X-44.6471 Y12.3742 
N10460 G01 X-44.6249 Y12.3453 
N10470 G01 X-44.6155 Y12.3102 
N10480 G01 X-44.8161 Y10.7870 
N10490 G01 X-44.8342 Y10.7555 
N10500 G01 X-44.8631 Y10.7333 
N10510 G01 X-44.8982 Y10.7239 
N10520 G01 X-46.4215 Y10.9244 
N10530 G01 X-46.4530 Y10.9426 
N10540 G01 X-46.4751 Y10.9715 
N10550 G01 X-46.4845 Y11.0066 
N10560 G01 X-46.4605 Y11.1889 
N10570 G01 X-48.2954 Y11.4642 
N10580 G01 X-48.3003 Y11.4640 
N10590 G01 X-48.3537 Y11.4729 
N10600 G01 X-48.4073 Y11.4810 
N10610 G01 X-48.4119 Y11.4826 
N10620 G01 X-48.4168 Y11.4834 
N10630 G01 X-48.4675 Y11.5026 
N10640 G01 X-48.5184 Y11.5209 
N10650 G01 X-48.5226 Y11.5234 
N10660 G01 X-48.5272 Y11.5252 
N10670 G01 X-48.5732 Y11.5539 
N10680 G01 X-48.6196 Y11.5818 
N10690 G01 X-48.6232 Y11.5851 
N10700 G01 X-48.6274 Y11.5877 
N10710 G01 X-48.6669 Y11.6248 
N10720 G01 X-48.7070 Y11.6612 
N10730 G01 X-48.7099 Y11.6652 
N10740 G01 X-48.7135 Y11.6685 
N10750 G01 X-48.7449 Y11.7126 
N10760 G01 X-48.7772 Y11.7562 
N10770 G01 X-48.7792 Y11.7606 
N10780 G01 X-48.7821 Y11.7646 
N10790 G01 X-48.8044 Y11.8140 
N10800 G01 X-48.8275 Y11.8630 
N10810 G01 X-48.8286 Y11.8678 
N10820 G01 X-48.8307 Y11.8722 
N10830 G01 X-48.8429 Y11.9250 
N10840 G01 X-48.8560 Y11.9776 
N10850 G01 X-48.8562 Y11.9825 
N10860 G01 X-48.8573 Y11.9873 
N10870 G01 X-48.8590 Y12.0414 
N10880 G01 X-48.8616 Y12.0956 
N10890 G01 X-48.8608 Y12.1004 
N10900 G01 X-48.8610 Y12.1053 
N10910 G01 X-48.8521 Y12.1587 
N10920 G01 X-48.8440 Y12.2123 
N10930 G01 X-48.8424 Y12.2169 
N10940 G01 X-48.3383 Y15.2412 
N10950 G01 X-48.9110 Y15.4510 
N10960 G01 X-49.8542 Y15.8387 
N10970 G01 X-50.7817 Y16.2626 
N10980 G01 X-51.6921 Y16.7221 
N10990 G01 X-52.5841 Y17.2165 
N11000 G01 X-53.4562 Y17.7450 
N11010 G01 X-54.3073 Y18.3069 
N11020 G01 X-55.1359 Y18.9014 
N11030 G01 X-55.9409 Y19.5274 
N11040 G01 X-56.7211 Y20.1841 
N11050 G01 X-57.4753 Y20.8706 
N11060 G01 X-58.2024 Y21.5857 
N11070 G01 X-58.9012 Y22.3284 
N11080 G01 X-59.5707 Y23.0976 
N11090 G01 X-60.2100 Y23.8922 
N11100 G01 X-60.8181 Y24.7109 
N11110 G01 X-61.3939 Y25.5525 
N11120 G01 X-61.9368 Y26.4158 
N11130 G01 X-62.3370 Y27.1104 
N11140 G01 X-63.9145 Y25.9273 
N11150 G01 X-63.3773 Y25.2587 
N11160 G01 X-63.2420 Y25.3663 
N11170 G01 X-63.2071 Y25.3763 
N11180 G01 X-63.1709 Y25.3722 
N11190 G01 X-63.1391 Y25.3546 
N11200 G01 X-62.1827 Y24.1522 
N11210 G01 X-62.1726 Y24.1172 
N11220 G01 X-62.1768 Y24.0811 
N11230 G01 X-62.1944 Y24.0493 
N11240 G01 X-63.3968 Y23.0928 
N11250 G01 X-63.4318 Y23.0828 
N11260 G01 X-63.4679 Y23.0869 
N11270 G01 X-63.4997 Y23.1046 
N11280 G01 X-64.4561 Y24.3069 
N11290 G01 X-64.4662 Y24.3419 
N11300 G01 X-64.4620 Y24.3781 
N11310 G01 X-64.4444 Y24.4099 
N11320 G01 X-64.3156 Y24.5124 
N11330 G01 X-65.2066 Y25.6214 
N11340 G01 X-65.2141 Y25.6281 
N11350 G01 X-65.2436 Y25.6673 
N11360 G01 X-65.2743 Y25.7056 
N11370 G01 X-65.2789 Y25.7145 
N11380 G01 X-65.2850 Y25.7226 
N11390 G01 X-65.3062 Y25.7668 
N11400 G01 X-65.3289 Y25.8103 
N11410 G01 X-65.3317 Y25.8199 
N11420 G01 X-65.3360 Y25.8290 
N11430 G01 X-65.3482 Y25.8765 
N11440 G01 X-65.3620 Y25.9236 
N11450 G01 X-65.3628 Y25.9337 
N11460 G01 X-65.3653 Y25.9434 
N11470 G01 X-65.3680 Y25.9923 
N11480 G01 X-65.3723 Y26.0413 
N11490 G01 X-65.3712 Y26.0513 
N11500 G01 X-65.3718 Y26.0613 
N11510 G01 X-65.3648 Y26.1099 
N11520 G01 X-65.3595 Y26.1586 
N11530 G01 X-65.3565 Y26.1682 
N11540 G01 X-65.3551 Y26.1782 
N11550 G01 X-65.3388 Y26.2245 
N11560 G01 X-65.3241 Y26.2713 
N11570 G01 X-65.3192 Y26.2801 
N11580 G01 X-65.3159 Y26.2896 
N11590 G01 X-65.2909 Y26.3319 
N11600 G01 X-65.2673 Y26.3748 
N11610 G01 X-65.2609 Y26.3825 
N11620 G01 X-65.2557 Y26.3912 
N11630 G01 X-65.2229 Y26.4278 
N11640 G01 X-65.1915 Y26.4653 
N11650 G01 X-65.1836 Y26.4716 
N11660 G01 X-65.1769 Y26.4791 
N11670 G01 X-65.1377 Y26.5085 
N11680 G01 X-65.0994 Y26.5393 
N11690 G01 X-65.0905 Y26.5439 
N11700 G01 X-62.9088 Y28.1802 
N11710 G01 X-62.9204 Y28.2022 
N11720 G01 X-63.3596 Y29.1225 
N11730 G01 X-63.7628 Y30.0592 
N11740 G01 X-64.1295 Y31.0108 
N11750 G01 X-64.4591 Y31.9759 
N11760 G01 X-64.7511 Y32.9530 
N11770 G01 X-65.0050 Y33.9407 
N11780 G01 X-65.2205 Y34.9375 
N11790 G01 X-65.3973 Y35.9418 
N11800 G01 X-65.5350 Y36.9523 
N11810 G01 X-65.6336 Y37.9673 
N11820 G01 X-65.6928 Y38.9854 
N11830 G01 X-65.7125 Y40.0050 
N11840 G01 X-65.6928 Y41.0246 
N11850 G01 X-65.6336 Y42.0427 
N11860 G01 X-65.5350 Y43.0577 
N11870 G01 X-65.3973 Y44.0682 
N11880 G01 X-65.2205 Y45.0725 
N11890 G01 X-65.0050 Y46.0693 
N11900 G01 X-64.7511 Y47.0570 
N11910 G01 X-64.5495 Y47.7316 
N11920 G01 X-66.8106 Y48.1838 
N11930 G01 X-66.9973 Y46.9390 
N11940 G01 X-66.8451 Y46.9190 
N11950 G01 X-66.8136 Y46.9008 
N11960 G01 X-66.7915 Y46.8719 
N11970 G01 X-66.7821 Y46.8368 
N11980 G01 X-66.9826 Y45.3136 
N11990 G01 X-67.0008 Y45.2821 
N12000 G01 X-67.0297 Y45.2599 
N12010 G01 X-67.0648 Y45.2505 
N12020 G01 X-68.5880 Y45.4511 
N12030 G01 X-68.6195 Y45.4692 
N12040 G01 X-68.6417 Y45.4981 
N12050 G01 X-68.6511 Y45.5332 
N12060 G01 X-68.4506 Y47.0565 
N12070 G01 X-68.4324 Y47.0880 
N12080 G01 X-68.4035 Y47.1101 
N12090 G01 X-68.3684 Y47.1195 
N12100 G01 X-68.1861 Y47.0955 
N12110 G01 X-67.9094 Y48.9400 
N12120 G01 X-67.9094 Y48.9547 
N12130 G01 X-67.9006 Y48.9983 
N12140 G01 X-67.8940 Y49.0423 
N12150 G01 X-67.8891 Y49.0561 
N12160 G01 X-67.8862 Y49.0705 
N12170 G01 X-67.8691 Y49.1116 
N12180 G01 X-67.8541 Y49.1534 
N12190 G01 X-67.8465 Y49.1660 
N12200 G01 X-67.8409 Y49.1795 
N12210 G01 X-67.8161 Y49.2165 
N12220 G01 X-67.7932 Y49.2546 
N12230 G01 X-67.7834 Y49.2654 
N12240 G01 X-67.7752 Y49.2776 
N12250 G01 X-67.7437 Y49.3090 
N12260 G01 X-67.7138 Y49.3420 
N12270 G01 X-67.7020 Y49.3507 
N12280 G01 X-67.6916 Y49.3610 
N12290 G01 X-67.6546 Y49.3857 
N12300 G01 X-67.6188 Y49.4122 
N12310 G01 X-67.6056 Y49.4184 
N12320 G01 X-67.5934 Y49.4265 
N12330 G01 X-67.5522 Y49.4435 
N12340 G01 X-67.5120 Y49.4625 
N12350 G01 X-67.4978 Y49.4660 
N12360 G01 X-67.4842 Y49.4716 
N12370 G01 X-67.4406 Y49.4802 
N12380 G01 X-67.3974 Y49.4910 
N12390 G01 X-67.3828 Y49.4917 
N12400 G01 X-67.3684 Y49.4945 
N12410 G01 X-67.3239 Y49.4945 
N12420 G01 X-67.2794 Y49.4966 
N12430 G01 X-67.2650 Y49.4944 
N12440 G01 X-67.2503 Y49.4944 
N12450 G01 X-67.2067 Y49.4856 
N12460 G01 X-67.1627 Y49.4790 
N12470 G01 X-67.1489 Y49.4741 
N12480 G01 X-64.1707 Y48.8785 
N12490 G01 X-64.1295 Y48.9992 
N12500 G01 X-63.7628 Y49.9508 
N12510 G01 X-63.3596 Y50.8875 
N12520 G01 X-62.9204 Y51.8078 
N12530 G01 X-62.4459 Y52.7105 
N12540 G01 X-61.9368 Y53.5942 
N12550 G01 X-61.3939 Y54.4575 
N12560 G01 X-60.8181 Y55.2991 
N12570 G01 X-60.2100 Y56.1178 
N12580 G01 X-59.5707 Y56.9123 
N12590 G01 X-58.9012 Y57.6816 
N12600 G01 X-58.2024 Y58.4243 
N12610 G01 X-57.4753 Y59.1394 
N12620 G01 X-56.7211 Y59.8259 
N12630 G01 X-55.9410 Y60.4826 
N12640 G01 X-55.1359 Y61.1086 
N12650 G01 X-54.3073 Y61.7031 
N12660 G01 X-53.4562 Y62.2650 
N12670 G01 X-52.5841 Y62.7935 
N12680 G01 X-51.6922 Y63.2879 
N12690 G01 X-51.2513 Y63.5104 
N12700 G01 X-52.2580 Y65.1882 
N12710 G01 X-54.0728 Y63.9575 
N12720 G01 X-54.0087 Y63.8770 
N12730 G01 X-53.9987 Y63.8421 
N12740 G01 X-54.0028 Y63.8059 
N12750 G01 X-54.0204 Y63.7741 
N12760 G01 X-55.2228 Y62.8177 
N12770 G01 X-55.2578 Y62.8076 
N12780 G01 X-55.2939 Y62.8118 
N12790 G01 X-55.3257 Y62.8294 
N12800 G01 X-56.2822 Y64.0318 
N12810 G01 X-56.2922 Y64.0667 
N12820 G01 X-56.2881 Y64.1029 
N12830 G01 X-56.2704 Y64.1347 
N12840 G01 X-55.0681 Y65.0911 
N12850 G01 X-55.0331 Y65.1012 
N12860 G01 X-54.9969 Y65.0970 
N12870 G01 X-54.9651 Y65.0794 
N12880 G01 X-54.8213 Y64.8985 
N12890 G01 X-52.4414 Y66.5124 
N12900 G01 X-52.4290 Y66.5236 
N12910 G01 X-52.3927 Y66.5455 
N12920 G01 X-52.3576 Y66.5693 
N12930 G01 X-52.3421 Y66.5758 
N12940 G01 X-52.3278 Y66.5844 
N12950 G01 X-52.2879 Y66.5987 
N12960 G01 X-52.2488 Y66.6152 
N12970 G01 X-52.2324 Y66.6186 
N12980 G01 X-52.2166 Y66.6242 
N12990 G01 X-52.1747 Y66.6305 
N13000 G01 X-52.1332 Y66.6390 
N13010 G01 X-52.1164 Y66.6391 
N13020 G01 X-52.0998 Y66.6416 
N13030 G01 X-52.0575 Y66.6395 
N13040 G01 X-52.0151 Y66.6398 
N13050 G01 X-51.9986 Y66.6367 
N13060 G01 X-51.9819 Y66.6359 
N13070 G01 X-51.9407 Y66.6256 
N13080 G01 X-51.8991 Y66.6176 
N13090 G01 X-51.8836 Y66.6113 
N13100 G01 X-51.8673 Y66.6072 
N13110 G01 X-51.8290 Y66.5891 
N13120 G01 X-51.7897 Y66.5731 
N13130 G01 X-51.7757 Y66.5639 
N13140 G01 X-51.7606 Y66.5568 
N13150 G01 X-51.7265 Y66.5315 
N13160 G01 X-51.6911 Y66.5082 
N13170 G01 X-51.6791 Y66.4965 
N13180 G01 X-51.6657 Y66.4865 
N13190 G01 X-51.6372 Y66.4551 
N13200 G01 X-51.6070 Y66.4253 
N13210 G01 X-51.5976 Y66.4114 
N13220 G01 X-51.5864 Y66.3990 
N13230 G01 X-51.5645 Y66.3627 
N13240 G01 X-51.5407 Y66.3276 
N13250 G01 X-51.5342 Y66.3122 
N13260 G01 X-50.1646 Y64.0294 
N13270 G01 X-49.8542 Y64.1713 
N13280 G01 X-48.9110 Y64.5590 
N13290 G01 X-47.9535 Y64.9099 
N13300 G01 X-46.9831 Y65.2234 
N13310 G01 X-46.0013 Y65.4992 
N13320 G01 X-45.0095 Y65.7368 
N13330 G01 X-44.0093 Y65.9358 
N13340 G01 X-43.0022 Y66.0959 
N13350 G01 X-41.9896 Y66.2169 
N13360 G01 X-40.9731 Y66.2987 
N13370 G01 X-39.9541 Y66.3410 
N13380 G01 X-38.9343 Y66.3439 
N13390 G01 X-37.9152 Y66.3073 
N13400 G01 X-36.8982 Y66.2313 
N13410 G01 X-35.8850 Y66.1160 
N13420 G01 X-34.8769 Y65.9615 
N13430 G01 X-33.8756 Y65.7682 
N13440 G01 X-32.8826 Y65.5362 
N13450 G01 X-32.2432 Y65.3605 
N13460 G01 X-31.8262 Y67.4456 
N13470 G01 X-33.0710 Y67.6323 
N13480 G01 X-33.0910 Y67.4801 
N13490 G01 X-33.1092 Y67.4486 
N13500 G01 X-33.1380 Y67.4265 
N13510 G01 X-33.1732 Y67.4171 
N13520 G01 X-34.6964 Y67.6176 
N13530 G01 X-34.7279 Y67.6358 
N13540 G01 X-34.7501 Y67.6647 
N13550 G01 X-34.7595 Y67.6998 
N13560 G01 X-34.5589 Y69.2230 
N13570 G01 X-34.5408 Y69.2545 
N13580 G01 X-34.5119 Y69.2767 
N13590 G01 X-34.4768 Y69.2861 
N13600 G01 X-32.9535 Y69.0855 
N13610 G01 X-32.9220 Y69.0674 
N13620 G01 X-32.8999 Y69.0385 
N13630 G01 X-32.8905 Y69.0034 
N13640 G01 X-32.9145 Y68.8211 
N13650 G01 X-31.0700 Y68.5444 
N13660 G01 X-31.0553 Y68.5444 
N13670 G01 X-31.0117 Y68.5357 
N13680 G01 X-30.9677 Y68.5290 
N13690 G01 X-30.9539 Y68.5241 
N13700 G01 X-30.9395 Y68.5212 
N13710 G01 X-30.8984 Y68.5041 
N13720 G01 X-30.8566 Y68.4891 
N13730 G01 X-30.8440 Y68.4815 
N13740 G01 X-30.8305 Y68.4759 
N13750 G01 X-30.7935 Y68.4511 
N13760 G01 X-30.7554 Y68.4282 
N13770 G01 X-30.7446 Y68.4184 
N13780 G01 X-30.7324 Y68.4102 
N13790 G01 X-30.7010 Y68.3787 
N13800 G01 X-30.6680 Y68.3488 
N13810 G01 X-30.6593 Y68.3370 
N13820 G01 X-30.6490 Y68.3266 
N13830 G01 X-30.6243 Y68.2896 
N13840 G01 X-30.5978 Y68.2538 
N13850 G01 X-30.5916 Y68.2406 
N13860 G01 X-30.5835 Y68.2284 
N13870 G01 X-30.5665 Y68.1872 
N13880 G01 X-30.5475 Y68.1470 
N13890 G01 X-30.5440 Y68.1328 
N13900 G01 X-30.5384 Y68.1192 
N13910 G01 X-30.5298 Y68.0756 
N13920 G01 X-30.5190 Y68.0324 
N13930 G01 X-30.5183 Y68.0178 
N13940 G01 X-30.5155 Y68.0034 
N13950 G01 X-30.5155 Y67.9589 
N13960 G01 X-30.5134 Y67.9144 
N13970 G01 X-30.5156 Y67.9000 
N13980 G01 X-30.5156 Y67.8853 
N13990 G01 X-30.5243 Y67.8417 
N14000 G01 X-30.5310 Y67.7977 
N14010 G01 X-30.5359 Y67.7839 
N14020 G01 X-31.0907 Y65.0097 
N14030 G01 X-30.9271 Y64.9579 
N14040 G01 X-29.9676 Y64.6124 
N14050 G01 X-29.0222 Y64.2300 
N14060 G01 X-28.0923 Y63.8113 
N14070 G01 X-27.1793 Y63.3570 
N14080 G01 X-26.2846 Y62.8676 
N14090 G01 X-25.4095 Y62.3440 
N14100 G01 X-24.5553 Y61.7869 
N14110 G01 X-23.7233 Y61.1972 
N14120 G01 X-22.9148 Y60.5757 
N14130 G01 X-22.1309 Y59.9233 
N14140 G01 X-21.3728 Y59.2412 
N14150 G01 X-20.6418 Y58.5302 
N14160 G01 X-19.9388 Y57.7914 
N14170 G01 X-19.2649 Y57.0260 
N14180 G01 X-18.6212 Y56.2350 
N14190 G01 X-18.0085 Y55.4197 
N14200 G01 X-17.4279 Y54.5814 
N14210 G01 X-16.8801 Y53.7212 
N14220 G01 X-16.3661 Y52.8404 
N14230 G01 X-16.1574 Y52.4488 
N14240 G01 X-14.7650 Y53.4930 
N14250 G01 X-15.4828 Y54.6718 
N14260 G01 X-15.5419 Y54.6264 
N14270 G01 X-15.5770 Y54.6170 
N14280 G01 X-15.6131 Y54.6218 
N14290 G01 X-15.6446 Y54.6399 
N14300 G01 X-16.5799 Y55.8588 
N14310 G01 X-16.5893 Y55.8940 
N14320 G01 X-16.5845 Y55.9300 
N14330 G01 X-16.5663 Y55.9615 
N14340 G01 X-15.3475 Y56.8968 
N14350 G01 X-15.3123 Y56.9062 
N14360 G01 X-15.2763 Y56.9015 
N14370 G01 X-15.2448 Y56.8833 
N14380 G01 X-14.3095 Y55.6644 
N14390 G01 X-14.3001 Y55.6293 
N14400 G01 X-14.3048 Y55.5932 
N14410 G01 X-14.3230 Y55.5617 
N14420 G01 X-14.5262 Y55.4058 
N14430 G01 X-13.4731 Y53.6765 
N14440 G01 X-13.4550 Y53.6524 
N14450 G01 X-13.4424 Y53.6262 
N14460 G01 X-13.4273 Y53.6013 
N14470 G01 X-13.4170 Y53.5731 
N14480 G01 X-13.4040 Y53.5460 
N14490 G01 X-13.3967 Y53.5178 
N14500 G01 X-13.3868 Y53.4905 
N14510 G01 X-13.3821 Y53.4607 
N14520 G01 X-13.3747 Y53.4316 
N14530 G01 X-13.3731 Y53.4025 
N14540 G01 X-13.3686 Y53.3738 
N14550 G01 X-13.3699 Y53.3437 
N14560 G01 X-13.3682 Y53.3137 
N14570 G01 X-13.3724 Y53.2849 
N14580 G01 X-13.3736 Y53.2558 
N14590 G01 X-13.3807 Y53.2266 
N14600 G01 X-13.3849 Y53.1968 
N14610 G01 X-13.3946 Y53.1693 
N14620 G01 X-13.4015 Y53.1411 
N14630 G01 X-13.4141 Y53.1138 
N14640 G01 X-13.4241 Y53.0854 
N14650 G01 X-13.4389 Y53.0604 
N14660 G01 X-13.4512 Y53.0340 
N14670 G01 X-13.4689 Y53.0097 
N14680 G01 X-13.4843 Y52.9838 
N14690 G01 X-13.5037 Y52.9621 
N14700 G01 X-13.5209 Y52.9386 
N14710 G01 X-13.5430 Y52.9183 
N14720 G01 X-13.5631 Y52.8959 
N14730 G01 X-13.5864 Y52.8784 
N14740 G01 X-13.6078 Y52.8587 
N14750 G01 X-13.6335 Y52.8431 
N14760 G01 X-15.6070 Y51.3630 
N14770 G01 X-15.4421 Y51.0225 
N14780 G01 X-15.0336 Y50.0881 
N14790 G01 X-14.6616 Y49.1386 
N14800 G01 X-14.3266 Y48.1754 
N14810 G01 X-14.0291 Y47.1999 
N14820 G01 X-13.7696 Y46.2137 
N14830 G01 X-13.5485 Y45.2182 
N14840 G01 X-13.3660 Y44.2148 
N14850 G01 X-13.2226 Y43.2052 
N14860 G01 X-13.1183 Y42.1907 
N14870 G01 X-13.0534 Y41.1730 
N14880 G01 X-13.0426 Y40.7431 
N14890 G01 X-13.0404 Y40.7316 
N14900 G01 X-13.0404 Y40.6516 
N14910 G01 X-13.0384 Y40.5717 
N14920 G01 X-13.0404 Y40.5602 
N14930 G01 X-13.0404 Y39.4498 
N14940 G01 X-13.0384 Y39.4383 
N14950 G01 X-13.0404 Y39.3584 
N14960 G01 X-13.0404 Y39.2784 
N14970 G01 X-13.0426 Y39.2669 
N14980 G01 X-13.0534 Y38.8370 
N14990 G01 X-13.1183 Y37.8193 
N15000 G01 X-13.2226 Y36.8048 
N15010 G01 X-13.3660 Y35.7952 
N15020 G01 X-13.5485 Y34.7918 
N15030 G01 X-13.7696 Y33.7963 
N15040 G01 X-13.8526 Y33.4808 
N15050 G01 X-11.9025 Y33.0908 
N15060 G01 X-11.7810 Y33.7110 
N15070 G01 X-11.8949 Y33.7260 
N15080 G01 X-11.9264 Y33.7442 
N15090 G01 X-11.9485 Y33.7730 
N15100 G01 X-11.9579 Y33.8082 
N15110 G01 X-11.7574 Y35.3314 
N15120 G01 X-11.7392 Y35.3629 
N15130 G01 X-11.7103 Y35.3851 
N15140 G01 X-11.6752 Y35.3945 
N15150 G01 X-10.1520 Y35.1939 
N15160 G01 X-10.1205 Y35.1758 
N15170 G01 X-10.0983 Y35.1469 
N15180 G01 X-10.0889 Y35.1118 
N15190 G01 X-10.2895 Y33.5885 
N15200 G01 X-10.3076 Y33.5570 
N15210 G01 X-10.3365 Y33.5349 
N15220 G01 X-10.3716 Y33.5255 
N15230 G01 X-10.5901 Y33.5542 
N15240 G01 X-10.8306 Y32.3265 
N15250 G01 X-10.8419 Y32.2689 
N15260 G01 X-10.8531 Y32.2118 
N15270 G01 X-10.8760 Y32.1562 
N15280 G01 X-10.8980 Y32.1026 
N15290 G01 X-10.9313 Y32.0524 
N15300 G01 X-10.9633 Y32.0042 
N15310 G01 X-11.0058 Y31.9615 
N15320 G01 X-11.0465 Y31.9205 
N15330 G01 X-11.0968 Y31.8867 
N15340 G01 X-11.1445 Y31.8546 
N15350 G01 X-11.2003 Y31.8313 
N15360 G01 X-11.2535 Y31.8091 
N15370 G01 X-11.3127 Y31.7971 
N15380 G01 X-11.3692 Y31.7857 
N15390 G01 X-11.4297 Y31.7856 
N15400 G01 X-11.4873 Y31.7854 
N15410 G01 X-11.5461 Y31.7969 
N15420 G01 X-11.6032 Y31.8081 
N15430 G01 X-14.1776 Y32.3232 
N15440 G01 X-14.3266 Y31.8346 
N15450 G01 X-14.6616 Y30.8714 
N15460 G01 X-15.0336 Y29.9219 
N15470 G01 X-15.4421 Y28.9875 
N15480 G01 X-15.8865 Y28.0696 
N15490 G01 X-16.3661 Y27.1696 
N15500 G01 X-16.8801 Y26.2888 
N15510 G01 X-17.4279 Y25.4286 
N15520 G01 X-18.0085 Y24.5903 
N15530 G01 X-18.6212 Y23.7750 
N15540 G01 X-19.2649 Y22.9840 
N15550 G01 X-19.9388 Y22.2186 
N15560 G01 X-20.6418 Y21.4798 
N15570 G01 X-21.3728 Y20.7688 
N15580 G01 X-22.1309 Y20.0866 
N15590 G01 X-22.9148 Y19.4343 
N15600 G01 X-23.7233 Y18.8128 
N15610 G01 X-24.5553 Y18.2231 
N15620 G01 X-24.9491 Y17.9662 
N15630 G01 X-23.9525 Y16.6374 
N15640 G01 X-23.4905 Y16.8720 
N15650 G01 X-23.5108 Y16.9005 
N15660 G01 X-23.5190 Y16.9360 
N15670 G01 X-23.5130 Y16.9719 
N15680 G01 X-23.4937 Y17.0027 
N15690 G01 X-22.2429 Y17.8949 
N15700 G01 X-22.2075 Y17.9031 
N15710 G01 X-22.1716 Y17.8971 
N15720 G01 X-22.1408 Y17.8778 
N15730 G00 Z3.0000 
N15740 G00 X-22.6465 Y22.1301 
N15750 G01 Z-0.1250 F254.00 
N15760 G01 X-21.9671 Y22.7908 F508.00 
N15770 G01 X-21.3139 Y23.4773 
N15780 G01 X-20.6877 Y24.1886 
N15790 G01 X-20.0895 Y24.9236 
N15800 G01 X-19.5202 Y25.6811 
N15810 G01 X-18.9807 Y26.4602 
N15820 G01 X-18.4717 Y27.2595 
N15830 G01 X-17.9940 Y28.0779 
N15840 G01 X-17.5484 Y28.9142 
N15850 G01 X-17.1355 Y29.7672 
N15860 G01 X-16.7559 Y30.6355 
N15870 G01 X-16.4102 Y31.5178 
N15880 G01 X-16.0989 Y32.4128 
N15890 G01 X-15.8224 Y33.3192 
N15900 G01 X-15.5813 Y34.2357 
N15910 G01 X-15.3758 Y35.1608 
N15920 G01 X-15.2063 Y36.0931 
N15930 G01 X-15.0730 Y37.0313 
N15940 G01 X-14.9761 Y37.9740 
N15950 G01 X-14.9158 Y38.9197 
N15960 G01 X-14.8996 Y39.3848 
N15970 G01 X-14.8996 Y40.6252 
N15980 G01 X-14.9158 Y41.0903 
N15990 G01 X-14.9761 Y42.0360 
N16000 G01 X-15.0730 Y42.9787 
N16010 G01 X-15.2063 Y43.9169 
N16020 G01 X-15.3758 Y44.8492 
N16030 G01 X-15.5813 Y45.7743 
N16040 G01 X-15.8224 Y46.6908 
N16050 G01 X-16.0989 Y47.5972 
N16060 G01 X-16.4102 Y48.4922 
N16070 G01 X-16.7559 Y49.3745 
N16080 G01 X-17.1355 Y50.2428 
N16090 G01 X-17.5484 Y51.0958 
N16100 G01 X-17.9940 Y51.9321 
N16110 G01 X-18.4717 Y52.7505 
N16120 G01 X-18.9807 Y53.5498 
N16130 G01 X-19.5202 Y54.3289 
N16140 G01 X-20.0895 Y55.0864 
N16150 G01 X-20.6877 Y55.8214 
N16160 G01 X-21.3139 Y56.5327 
N16170 G01 X-21.9671 Y57.2192 
N16180 G01 X-22.6465 Y57.8799 
N16190 G01 X-23.3509 Y58.5138 
N16200 G01 X-24.0793 Y59.1199 
N16210 G01 X-24.8306 Y59.6974 
N16220 G01 X-25.6037 Y60.2454 
N16230 G01 X-26.3974 Y60.7631 
N16240 G01 X-27.2106 Y61.2497 
N16250 G01 X-28.0420 Y61.7044 
N16260 G01 X-28.8904 Y62.1266 
N16270 G01 X-29.7545 Y62.5156 
N16280 G01 X-30.6330 Y62.8709 
N16290 G01 X-31.5246 Y63.1920 
N16300 G01 X-32.4279 Y63.4783 
N16310 G01 X-33.3417 Y63.7294 
N16320 G01 X-34.2645 Y63.9449 
N16330 G01 X-35.1949 Y64.1246 
N16340 G01 X-36.1316 Y64.2681 
N16350 G01 X-37.0732 Y64.3753 
N16360 G01 X-38.0181 Y64.4459 
N16370 G01 X-38.9652 Y64.4800 
N16380 G01 X-39.9128 Y64.4773 
N16390 G01 X-40.8596 Y64.4379 
N16400 G01 X-41.8042 Y64.3620 
N16410 G01 X-42.7451 Y64.2495 
N16420 G01 X-43.6810 Y64.1007 
N16430 G01 X-44.6104 Y63.9158 
N16440 G01 X-45.5320 Y63.6950 
N16450 G01 X-46.4443 Y63.4388 
N16460 G01 X-47.3460 Y63.1474 
N16470 G01 X-48.2358 Y62.8213 
N16480 G01 X-49.1123 Y62.4611 
N16490 G01 X-49.9741 Y62.0672 
N16500 G01 X-50.8201 Y61.6402 
N16510 G01 X-51.6490 Y61.1808 
N16520 G01 X-52.4594 Y60.6897 
N16530 G01 X-53.2502 Y60.1675 
N16540 G01 X-54.0202 Y59.6152 
N16550 G01 X-54.7683 Y59.0334 
N16560 G01 X-55.4932 Y58.4232 
N16570 G01 X-56.1940 Y57.7853 
N16580 G01 X-56.8696 Y57.1208 
N16590 G01 X-57.5190 Y56.4306 
N16600 G01 X-58.1412 Y55.7158 
N16610 G01 X-58.7352 Y54.9775 
N16620 G01 X-59.3002 Y54.2168 
N16630 G01 X-59.8354 Y53.4347 
N16640 G01 X-60.3398 Y52.6325 
N16650 G01 X-60.8129 Y51.8114 
N16660 G01 X-61.2538 Y50.9726 
N16670 G01 X-61.6619 Y50.1173 
N16680 G01 X-62.0366 Y49.2469 
N16690 G01 X-62.3773 Y48.3627 
N16700 G01 X-62.6836 Y47.4659 
N16710 G01 X-62.9549 Y46.5579 
N16720 G01 X-63.1908 Y45.6401 
N16730 G01 X-63.3911 Y44.7139 
N16740 G01 X-63.5554 Y43.7806 
N16750 G01 X-63.6834 Y42.8417 
N16760 G01 X-63.7750 Y41.8985 
N16770 G01 X-63.8300 Y40.9524 
N16780 G01 X-63.8483 Y40.0050 
N16790 G01 X-63.8300 Y39.0575 
N16800 G01 X-63.7750 Y38.1115 
N16810 G01 X-63.6834 Y37.1683 
N16820 G01 X-63.5554 Y36.2294 
N16830 G01 X-63.3911 Y35.2961 
N16840 G01 X-63.1908 Y34.3699 
N16850 G01 X-62.9549 Y33.4521 
N16860 G01 X-62.6836 Y32.5441 
N16870 G01 X-62.3773 Y31.6473 
N16880 G01 X-62.0366 Y30.7631 
N16890 G01 X-61.6619 Y29.8927 
N16900 G01 X-61.2538 Y29.0374 
N16910 G01 X-60.8129 Y28.1986 
N16920 G01 X-60.3398 Y27.3775 
N16930 G01 X-59.8354 Y26.5753 
N16940 G01 X-59.3002 Y25.7932 
N16950 G01 X-58.7352 Y25.0325 
N16960 G01 X-58.1412 Y24.2941 
N16970 G01 X-57.5190 Y23.5794 
N16980 G01 X-56.8696 Y22.8892 
N16990 G01 X-56.1940 Y22.2247 
N17000 G01 X-55.4932 Y21.5868 
N17010 G01 X-54.7683 Y20.9766 
N17020 G01 X-54.0202 Y20.3948 
N17030 G01 X-53.2502 Y19.8425 
N17040 G01 X-52.4594 Y19.3203 
N17050 G01 X-51.6490 Y18.8292 
N17060 G01 X-50.8201 Y18.3698 
N17070 G01 X-49.9741 Y17.9428 
N17080 G01 X-49.1123 Y17.5489 
N17090 G01 X-48.2358 Y17.1887 
N17100 G01 X-47.3460 Y16.8626 
N17110 G01 X-46.4443 Y16.5712 
N17120 G01 X-45.5320 Y16.3150 
N17130 G01 X-44.6104 Y16.0942 
N17140 G01 X-43.6810 Y15.9093 
N17150 G01 X-42.7451 Y15.7605 
N17160 G01 X-41.8042 Y15.6480 
N17170 G01 X-40.8596 Y15.5721 
N17180 G01 X-39.9128 Y15.5327 
N17190 G01 X-38.9652 Y15.5300 
N17200 G01 X-38.0181 Y15.5641 
N17210 G01 X-37.0732 Y15.6347 
N17220 G01 X-36.1316 Y15.7419 
N17230 G01 X-35.1949 Y15.8854 
N17240 G01 X-34.2645 Y16.0651 
N17250 G01 X-33.3417 Y16.2806 
N17260 G01 X-32.4279 Y16.5317 
N17270 G01 X-31.5246 Y16.8180 
N17280 G01 X-30.6330 Y17.1391 
N17290 G01 X-29.7545 Y17.4944 
N17300 G01 X-28.8904 Y17.8834 
N17310 G01 X-28.0420 Y18.3056 
N17320 G01 X-27.2106 Y18.7603 
N17330 G01 X-26.3974 Y19.2469 
N17340 G01 X-25.6037 Y19.7646 
N17350 G01 X-24.8306 Y20.3126 
N17360 G01 X-24.0793 Y20.8901 
N17370 G01 X-23.3509 Y21.4962 
N17380 G01 X-22.6465 Y22.1301 
N17390 G00 Z3.0000 
N17400 G00 X-28.8929 Y26.4267 
N17410 G01 Z-0.1250 F254.00 
N17420 G01 X-28.9667 Y26.3529 F508.00 
N17430 G01 X-29.0571 Y26.3008 
N17440 G01 X-29.1578 Y26.2738 
N17450 G01 X-34.3422 Y26.2738 
N17460 G01 X-34.4429 Y26.3008 
N17470 G01 X-34.5333 Y26.3529 
N17480 G01 X-34.6071 Y26.4267 
N17490 G01 X-34.6592 Y26.5171 
N17500 G01 X-34.6862 Y26.6178 
N17510 G01 X-34.6862 Y26.7222 
N17520 G01 X-34.6592 Y26.8229 
N17530 G01 X-34.6071 Y26.9133 
N17540 G01 X-34.5333 Y26.9871 
N17550 G01 X-34.4429 Y27.0392 
N17560 G01 X-34.3422 Y27.0662 
N17570 G01 X-29.1578 Y27.0662 
N17580 G01 X-29.0571 Y27.0392 
N17590 G01 X-28.9667 Y26.9871 
N17600 G01 X-28.8929 Y26.9133 
N17610 G01 X-28.8408 Y26.8229 
N17620 G01 X-28.8138 Y26.7222 
N17630 G01 X-28.8138 Y26.6178 
N17640 G01 X-28.8408 Y26.5171 
N17650 G01 X-28.8929 Y26.4267 
N17660 G00 Z3.0000 
N17670 G00 X-37.4943 Y12.3041 
N17680 G01 Z-0.1250 F254.00 
N17690 G01 X-37.4761 Y12.2726 F508.00 
N17700 G01 X-37.2360 Y10.4489 
N17710 G01 X-37.2454 Y10.4138 
N17720 G01 X-37.2675 Y10.3849 
N17730 G01 X-37.2990 Y10.3667 
N17740 G01 X-38.9214 Y10.1532 
N17750 G01 X-38.9566 Y10.1626 
N17760 G01 X-38.9854 Y10.1847 
N17770 G01 X-39.0036 Y10.2162 
N17780 G01 X-39.0588 Y10.6358 
N17790 G01 X-41.3091 Y10.6107 
N17800 G01 X-41.3460 Y10.3301 
N17810 G01 X-41.3642 Y10.2986 
N17820 G01 X-41.3930 Y10.2765 
N17830 G01 X-41.4282 Y10.2671 
N17840 G01 X-42.9514 Y10.4676 
N17850 G01 X-42.9829 Y10.4858 
N17860 G01 X-43.0051 Y10.5147 
N17870 G01 X-43.0145 Y10.5498 
N17880 G01 X-42.8139 Y12.0730 
N17890 G01 X-42.7958 Y12.1045 
N17900 G01 X-42.7669 Y12.1267 
N17910 G01 X-42.7318 Y12.1361 
N17920 G01 X-41.2085 Y11.9355 
N17930 G01 X-41.1770 Y11.9174 
N17940 G01 X-41.1549 Y11.8885 
N17950 G01 X-41.1455 Y11.8534 
N17960 G01 X-41.1510 Y11.8114 
N17970 G01 X-39.2165 Y11.8330 
N17980 G01 X-39.2437 Y12.0399 
N17990 G01 X-39.2343 Y12.0750 
N18000 G01 X-39.2121 Y12.1038 
N18010 G01 X-39.1806 Y12.1220 
N18020 G01 X-37.5583 Y12.3356 
N18030 G01 X-37.5231 Y12.3262 
N18040 G01 X-37.4943 Y12.3041 
N18050 G00 Z3.0000 
N18060 G00 X-57.4958 Y16.7383 
N18070 G01 Z-0.1250 F254.00 
N18080 G01 X-57.5273 Y16.7202 F508.00 
N18090 G01 X-57.5634 Y16.7154 
N18100 G01 X-57.5985 Y16.7248 
N18110 G01 X-58.8967 Y17.7210 
N18120 G01 X-58.9149 Y17.7525 
N18130 G01 X-58.9197 Y17.7886 
N18140 G01 X-58.9102 Y17.8237 
N18150 G01 X-58.5330 Y18.3153 
N18160 G01 X-58.8324 Y18.6146 
N18170 G01 X-60.9811 Y20.5421 
N18180 G01 X-61.2180 Y20.3537 
N18190 G01 X-61.2529 Y20.3437 
N18200 G01 X-61.2891 Y20.3478 
N18210 G01 X-61.3209 Y20.3654 
N18220 G01 X-62.2773 Y21.5678 
N18230 G01 X-62.2874 Y21.6028 
N18240 G01 X-62.2832 Y21.6389 
N18250 G01 X-62.2656 Y21.6707 
N18260 G01 X-61.0632 Y22.6272 
N18270 G01 X-61.0282 Y22.6372 
N18280 G01 X-60.9921 Y22.6331 
N18290 G01 X-60.9603 Y22.6154 
N18300 G01 X-60.0039 Y21.4131 
N18310 G01 X-59.9938 Y21.3781 
N18320 G01 X-59.9980 Y21.3419 
N18330 G01 X-60.0156 Y21.3101 
N18340 G01 X-60.0295 Y21.2990 
N18350 G01 X-58.0515 Y19.5247 
N18360 G01 X-58.0379 Y19.5156 
N18370 G01 X-58.0076 Y19.4854 
N18380 G01 X-57.9758 Y19.4568 
N18390 G01 X-57.9660 Y19.4437 
N18400 G01 X-57.7969 Y19.2746 
N18410 G01 X-57.7905 Y19.2830 
N18420 G01 X-57.7590 Y19.3012 
N18430 G01 X-57.7229 Y19.3059 
N18440 G01 X-57.6878 Y19.2965 
N18450 G01 X-56.3896 Y18.3003 
N18460 G01 X-56.3714 Y18.2688 
N18470 G01 X-56.3666 Y18.2328 
N18480 G01 X-56.3761 Y18.1976 
N18490 G01 X-57.4958 Y16.7383 
N18500 G00 Z3.0000 
N18510 G00 X-67.0709 Y37.4943 
N18520 G01 Z-0.1250 F254.00 
N18530 G01 X-67.1024 Y37.4761 F508.00 
N18540 G01 X-68.9261 Y37.2360 
N18550 G01 X-68.9612 Y37.2454 
N18560 G01 X-68.9901 Y37.2675 
N18570 G01 X-69.0083 Y37.2990 
N18580 G01 X-69.2218 Y38.9214 
N18590 G01 X-69.2124 Y38.9566 
N18600 G01 X-69.1903 Y38.9854 
N18610 G01 X-69.1588 Y39.0036 
N18620 G01 X-68.7379 Y39.0590 
N18630 G01 X-68.7655 Y41.9442 
N18640 G01 X-69.0449 Y41.9810 
N18650 G01 X-69.0764 Y41.9992 
N18660 G01 X-69.0985 Y42.0280 
N18670 G01 X-69.1079 Y42.0632 
N18680 G01 X-68.9074 Y43.5864 
N18690 G01 X-68.8892 Y43.6179 
N18700 G01 X-68.8603 Y43.6401 
N18710 G01 X-68.8252 Y43.6495 
N18720 G01 X-67.3020 Y43.4489 
N18730 G01 X-67.2705 Y43.4308 
N18740 G01 X-67.2483 Y43.4019 
N18750 G01 X-67.2389 Y43.3668 
N18760 G01 X-67.4394 Y41.8435 
N18770 G01 X-67.4576 Y41.8120 
N18780 G01 X-67.4865 Y41.7899 
N18790 G01 X-67.5216 Y41.7805 
N18800 G01 X-67.5651 Y41.7862 
N18810 G01 X-67.5405 Y39.2167 
N18820 G01 X-67.3351 Y39.2437 
N18830 G01 X-67.3000 Y39.2343 
N18840 G01 X-67.2711 Y39.2121 
N18850 G01 X-67.2530 Y39.1806 
N18860 G01 X-67.0394 Y37.5583 
N18870 G01 X-67.0488 Y37.5231 
N18880 G01 X-67.0709 Y37.4943 
N18890 G00 Z3.0000 
N18900 G00 X-60.5695 Y57.5098 
N18910 G01 Z-0.1250 F254.00 
N18920 G01 X-61.8702 Y58.8105 F508.00 
N18930 G01 X-61.8841 Y58.8441 
N18940 G01 X-61.8841 Y58.8805 
N18950 G01 X-61.8702 Y58.9141 
N18960 G01 X-60.7131 Y60.0712 
N18970 G01 X-60.6795 Y60.0851 
N18980 G01 X-60.6431 Y60.0851 
N18990 G01 X-60.6095 Y60.0712 
N19000 G01 X-60.4146 Y59.8763 
N19010 G01 X-58.8353 Y61.6191 
N19020 G01 X-59.0213 Y61.8530 
N19030 G01 X-59.0313 Y61.8879 
N19040 G01 X-59.0272 Y61.9241 
N19050 G01 X-59.0096 Y61.9559 
N19060 G01 X-57.8072 Y62.9123 
N19070 G01 X-57.7722 Y62.9223 
N19080 G01 X-57.7361 Y62.9182 
N19090 G01 X-57.7043 Y62.9006 
N19100 G01 X-56.7478 Y61.6982 
N19110 G01 X-56.7378 Y61.6632 
N19120 G01 X-56.7419 Y61.6271 
N19130 G01 X-56.7596 Y61.5953 
N19140 G01 X-57.9619 Y60.6389 
N19150 G01 X-57.9969 Y60.6288 
N19160 G01 X-58.0331 Y60.6330 
N19170 G01 X-58.0649 Y60.6506 
N19180 G01 X-58.0790 Y60.6683 
N19190 G01 X-59.5658 Y59.0275 
N19200 G01 X-59.3088 Y58.7705 
N19210 G01 X-59.2949 Y58.7369 
N19220 G01 X-59.2949 Y58.7005 
N19230 G01 X-59.3088 Y58.6669 
N19240 G01 X-60.4659 Y57.5098 
N19250 G01 X-60.4995 Y57.4959 
N19260 G01 X-60.5359 Y57.4959 
N19270 G01 X-60.5695 Y57.5098 
N19280 G00 Z3.0000 
N19290 G00 X-42.5157 Y67.7059 
N19300 G01 Z-0.1250 F254.00 
N19310 G01 X-42.5339 Y67.7374 F508.00 
N19320 G01 X-42.7740 Y69.5611 
N19330 G01 X-42.7646 Y69.5962 
N19340 G01 X-42.7425 Y69.6251 
N19350 G01 X-42.7110 Y69.6433 
N19360 G01 X-41.0886 Y69.8568 
N19370 G01 X-41.0534 Y69.8474 
N19380 G01 X-41.0246 Y69.8253 
N19390 G01 X-41.0064 Y69.7938 
N19400 G01 X-40.9510 Y69.3729 
N19410 G01 X-38.0658 Y69.4005 
N19420 G01 X-38.0290 Y69.6799 
N19430 G01 X-38.0108 Y69.7114 
N19440 G01 X-37.9820 Y69.7335 
N19450 G01 X-37.9468 Y69.7429 
N19460 G01 X-36.4236 Y69.5424 
N19470 G01 X-36.3921 Y69.5242 
N19480 G01 X-36.3699 Y69.4953 
N19490 G01 X-36.3605 Y69.4602 
N19500 G01 X-36.5611 Y67.9370 
N19510 G01 X-36.5792 Y67.9055 
N19520 G01 X-36.6081 Y67.8833 
N19530 G01 X-36.6432 Y67.8739 
N19540 G01 X-38.1665 Y68.0744 
N19550 G01 X-38.1980 Y68.0926 
N19560 G01 X-38.2201 Y68.1215 
N19570 G01 X-38.2295 Y68.1566 
N19580 G01 X-38.2238 Y68.2001 
N19590 G01 X-40.7933 Y68.1755 
N19600 G01 X-40.7663 Y67.9701 
N19610 G01 X-40.7757 Y67.9350 
N19620 G01 X-40.7979 Y67.9061 
N19630 G01 X-40.8294 Y67.8880 
N19640 G01 X-42.4517 Y67.6744 
N19650 G01 X-42.4869 Y67.6838 
N19660 G01 X-42.5157 Y67.7059 
N19670 G00 Z3.0000 
N19680 G00 X-21.2442 Y63.2717 
N19690 G01 Z-0.1250 F254.00 
N19700 G01 X-21.2127 Y63.2898 F508.00 
N19710 G01 X-21.1766 Y63.2946 
N19720 G01 X-21.1415 Y63.2852 
N19730 G01 X-19.8433 Y62.2890 
N19740 G01 X-19.8251 Y62.2575 
N19750 G01 X-19.8203 Y62.2214 
N19760 G01 X-19.8298 Y62.1863 
N19770 G01 X-20.0414 Y61.9104 
N19780 G01 X-18.6717 Y60.7900 
N19790 G01 X-18.6253 Y60.7521 
N19800 G01 X-18.5878 Y60.7067 
N19810 G01 X-17.6354 Y59.5529 
N19820 G01 X-17.4781 Y59.6736 
N19830 G01 X-17.4430 Y59.6830 
N19840 G01 X-17.4069 Y59.6782 
N19850 G01 X-17.3754 Y59.6600 
N19860 G01 X-16.4401 Y58.4412 
N19870 G01 X-16.4307 Y58.4060 
N19880 G01 X-16.4355 Y58.3700 
N19890 G01 X-16.4537 Y58.3385 
N19900 G01 X-17.6725 Y57.4032 
N19910 G01 X-17.7077 Y57.3937 
N19920 G01 X-17.7437 Y57.3985 
N19930 G01 X-17.7752 Y57.4167 
N19940 G01 X-18.7105 Y58.6356 
N19950 G01 X-18.7199 Y58.6707 
N19960 G01 X-18.7152 Y58.7068 
N19970 G01 X-18.6970 Y58.7383 
N19980 G01 X-18.5872 Y58.8226 
N19990 G01 X-19.4750 Y59.8982 
N20000 G01 X-20.7716 Y60.9588 
N20010 G01 X-20.9495 Y60.7270 
N20020 G01 X-20.9810 Y60.7088 
N20030 G01 X-21.0171 Y60.7041 
N20040 G01 X-21.0522 Y60.7135 
N20050 G01 X-22.3504 Y61.7097 
N20060 G01 X-22.3686 Y61.7412 
N20070 G01 X-22.3734 Y61.7772 
N20080 G01 X-22.3639 Y61.8124 
N20090 G01 X-21.2442 Y63.2717 
N20100 G00 Z3.0000 
N20110 G00 X-11.6691 Y43.1507 
N20120 G01 Z-0.1250 F254.00 
N20130 G01 X-11.6376 Y43.1689 F508.00 
N20140 G01 X-9.8139 Y43.4090 
N20150 G01 X-9.7788 Y43.3996 
N20160 G01 X-9.7499 Y43.3775 
N20170 G01 X-9.7317 Y43.3460 
N20180 G01 X-9.5182 Y41.7236 
N20190 G01 X-9.5276 Y41.6884 
N20200 G01 X-9.5497 Y41.6596 
N20210 G01 X-9.5812 Y41.6414 
N20220 G01 X-10.0021 Y41.5860 
N20230 G01 X-9.9745 Y38.7008 
N20240 G01 X-9.6951 Y38.6640 
N20250 G01 X-9.6636 Y38.6458 
N20260 G01 X-9.6415 Y38.6170 
N20270 G01 X-9.6321 Y38.5818 
N20280 G01 X-9.8326 Y37.0586 
N20290 G01 X-9.8508 Y37.0271 
N20300 G01 X-9.8797 Y37.0049 
N20310 G01 X-9.9148 Y36.9955 
N20320 G01 X-11.4380 Y37.1961 
N20330 G01 X-11.4695 Y37.2142 
N20340 G01 X-11.4917 Y37.2431 
N20350 G01 X-11.5011 Y37.2782 
N20360 G01 X-11.3005 Y38.8015 
N20370 G01 X-11.2824 Y38.8330 
N20380 G01 X-11.2535 Y38.8551 
N20390 G01 X-11.2184 Y38.8645 
N20400 G01 X-11.1749 Y38.8588 
N20410 G01 X-11.1995 Y41.4283 
N20420 G01 X-11.4049 Y41.4013 
N20430 G01 X-11.4400 Y41.4107 
N20440 G01 X-11.4689 Y41.4329 
N20450 G01 X-11.4870 Y41.4644 
N20460 G01 X-11.7006 Y43.0867 
N20470 G01 X-11.6912 Y43.1219 
N20480 G01 X-11.6691 Y43.1507 
N20490 G00 Z3.0000 
N20500 G00 X-39.3700 Y40.0050 
N20510 G01 Z-0.8970 F508.00 
N20520 G00 Z3.0000 
N20530 G00 X-29.7483 Y12.8490 
N20540 G01 Z-0.8970 F508.00 
N20550 G00 Z3.0000 
N20560 G00 X-27.4017 Y13.8210 
N20570 G01 Z-0.8970 F508.00 
N20580 G00 Z3.0000 
N20590 G00 Z20.0000 
N20600 M05
N20610 M02
