( Made using CamBam - http://www.cambam.co.uk )
( HomeSensor_Positive_Mold v3 5/14/2015 6:21:22 PM )
( T0 : 2.5 )
G21 G90 G61 G40
G0 Z3.0
( T0 : 2.5 )
T0 M6
( cutout box-outside )
G17
M3 S1000
G0 X1.0 Y-0.25
G1 F300.0 Z-2.0
G1 F800.0 X79.0
G3 X80.25 Y1.0 I0.0 J1.25
G1 Y109.0
G3 X79.0 Y110.25 I-1.25 J0.0
G1 X1.0
G3 X-0.25 Y109.0 I0.0 J-1.25
G1 Y1.0
G3 X1.0 Y-0.25 I1.25 J0.0
G1 F300.0 Z-4.0
G1 F800.0 X79.0
G3 X80.25 Y1.0 I0.0 J1.25
G1 Y109.0
G3 X79.0 Y110.25 I-1.25 J0.0
G1 X1.0
G3 X-0.25 Y109.0 I0.0 J-1.25
G1 Y1.0
G3 X1.0 Y-0.25 I1.25 J0.0
G1 F300.0 Z-5.0
G1 F800.0 X79.0
G3 X80.25 Y1.0 I0.0 J1.25
G1 Y109.0
G3 X79.0 Y110.25 I-1.25 J0.0
G1 X1.0
G3 X-0.25 Y109.0 I0.0 J-1.25
G1 Y1.0
G3 X1.0 Y-0.25 I1.25 J0.0
( Engrave1 )
S1000
G1 F300.0 Y1.0
G1 F800.0 X79.0
G1 Y109.0
G1 X1.0
G1 Y1.0
( Pocket -3 )
S1000
G0 Z3.0
G0 X39.25 Y39.25
G1 F300.0 Z-2.0
G1 F800.0 Y70.75
G1 X40.75
G1 Y39.25
G1 X39.25
G1 F300.0 X38.25
G1 F800.0 Y71.75
G1 X41.75
G1 Y38.25
G1 X38.25
G1 Y39.25
G1 F300.0 X37.25
G1 F800.0 Y72.75
G1 X42.75
G1 Y37.25
G1 X37.25
G1 Y39.25
G1 F300.0 X36.25
G1 F800.0 Y73.75
G1 X43.75
G1 Y36.25
G1 X36.25
G1 Y39.25
G1 F300.0 X35.25
G1 F800.0 Y74.75
G1 X44.75
G1 Y35.25
G1 X35.25
G1 Y39.25
G1 F300.0 X34.25
G1 F800.0 Y75.75
G1 X45.75
G1 Y34.25
G1 X34.25
G1 Y39.25
G1 F300.0 X33.25
G1 F800.0 Y76.75
G1 X46.75
G1 Y33.25
G1 X33.25
G1 Y39.25
G1 F300.0 X32.25
G1 F800.0 Y77.75
G1 X47.75
G1 Y32.25
G1 X32.25
G1 Y39.25
G1 F300.0 X31.25
G1 F800.0 Y78.75
G1 X48.75
G1 Y31.25
G1 X31.25
G1 Y39.25
G1 F300.0 X30.25
G1 F800.0 Y79.75
G1 X49.75
G1 Y30.25
G1 X30.25
G1 Y39.25
G1 F300.0 X29.25
G1 F800.0 Y80.75
G1 X50.75
G1 Y29.25
G1 X29.25
G1 Y39.25
G1 F300.0 X28.25
G1 F800.0 Y81.75
G1 X51.75
G1 Y28.25
G1 X28.25
G1 Y39.25
G1 F300.0 X27.25
G1 F800.0 Y82.75
G1 X52.75
G1 Y27.25
G1 X27.25
G1 Y39.25
G1 F300.0 X26.25
G1 F800.0 Y83.75
G1 X53.75
G1 Y26.25
G1 X26.25
G1 Y39.25
G1 F300.0 X25.25
G1 F800.0 Y84.75
G1 X54.75
G1 Y25.25
G1 X25.25
G1 Y39.25
G1 F300.0 X24.25
G1 F800.0 Y85.75
G1 X55.75
G1 Y24.25
G1 X24.25
G1 Y39.25
G1 F300.0 X23.25
G1 F800.0 Y86.75
G1 X56.75
G1 Y23.25
G1 X23.25
G1 Y39.25
G1 F300.0 X22.25
G1 F800.0 Y87.75
G1 X57.75
G1 Y22.25
G1 X22.25
G1 Y39.25
G1 F300.0 X21.25
G1 F800.0 Y88.75
G1 X58.75
G1 Y21.25
G1 X21.25
G1 Y39.25
G1 F300.0 X20.25
G1 F800.0 Y89.75
G1 X59.75
G1 Y20.25
G1 X20.25
G1 Y39.25
G1 F300.0 X19.25
G1 F800.0 Y90.75
G1 X60.75
G1 Y19.25
G1 X19.25
G1 Y39.25
G1 F300.0 X18.25
G1 F800.0 Y91.75
G1 X61.75
G1 Y18.25
G1 X18.25
G1 Y39.25
G1 F300.0 X17.25
G1 F800.0 Y92.75
G1 X62.75
G1 Y17.25
G1 X17.25
G1 Y39.25
G1 F300.0 X16.25
G1 F800.0 Y93.75
G1 X63.75
G1 Y16.25
G1 X16.25
G1 Y39.25
G1 F300.0 X15.25
G1 F800.0 Y94.75
G1 X64.75
G1 Y15.25
G1 X15.25
G1 Y39.25
G1 F300.0 X14.25
G1 F800.0 Y95.75
G1 X65.75
G1 Y14.25
G1 X14.25
G1 Y39.25
G1 F300.0 X13.25
G1 F800.0 Y96.75
G1 X66.75
G1 Y13.25
G1 X13.25
G1 Y39.25
G1 F300.0 X12.25
G1 F800.0 Y97.75
G1 X67.75
G1 Y12.25
G1 X12.25
G1 Y39.25
G1 F300.0 X11.25
G1 F800.0 Y98.75
G1 X68.75
G1 Y11.25
G1 X11.25
G1 Y39.25
G1 F300.0 X10.25
G1 F800.0 Y99.75
G1 X69.75
G1 Y10.25
G1 X10.25
G1 Y39.25
G1 F300.0 X9.25
G1 F800.0 Y100.75
G1 X70.75
G1 Y9.25
G1 X9.25
G1 Y39.25
G1 F300.0 X8.25
G1 F800.0 Y101.75
G1 X71.75
G1 Y8.25
G1 X8.25
G1 Y39.25
G1 F300.0 X7.25
G1 F800.0 Y102.75
G1 X72.75
G1 Y7.25
G1 X7.25
G1 Y39.25
G1 F300.0 X6.25
G1 F800.0 Y103.75
G1 X73.75
G1 Y6.25
G1 X6.25
G1 Y39.25
G1 F300.0 X5.25
G1 F800.0 Y104.75
G1 X74.75
G1 Y5.25
G1 X5.25
G1 Y39.25
G1 F300.0 X4.25
G1 F800.0 Y105.75
G1 X75.75
G1 Y4.25
G1 X4.25
G1 Y39.25
G1 F300.0 X3.25
G1 F800.0 Y106.75
G1 X76.75
G1 Y3.25
G1 X3.25
G1 Y39.25
G1 F300.0 X2.25
G1 F800.0 Y107.75
G1 X77.75
G1 Y2.25
G1 X2.25
G1 Y39.25
G0 Z3.0
G0 X39.25
G1 F300.0 Z-3.0
G1 F800.0 Y70.75
G1 X40.75
G1 Y39.25
G1 X39.25
G1 F300.0 X38.25
G1 F800.0 Y71.75
G1 X41.75
G1 Y38.25
G1 X38.25
G1 Y39.25
G1 F300.0 X37.25
G1 F800.0 Y72.75
G1 X42.75
G1 Y37.25
G1 X37.25
G1 Y39.25
G1 F300.0 X36.25
G1 F800.0 Y73.75
G1 X43.75
G1 Y36.25
G1 X36.25
G1 Y39.25
G1 F300.0 X35.25
G1 F800.0 Y74.75
G1 X44.75
G1 Y35.25
G1 X35.25
G1 Y39.25
G1 F300.0 X34.25
G1 F800.0 Y75.75
G1 X45.75
G1 Y34.25
G1 X34.25
G1 Y39.25
G1 F300.0 X33.25
G1 F800.0 Y76.75
G1 X46.75
G1 Y33.25
G1 X33.25
G1 Y39.25
G1 F300.0 X32.25
G1 F800.0 Y77.75
G1 X47.75
G1 Y32.25
G1 X32.25
G1 Y39.25
G1 F300.0 X31.25
G1 F800.0 Y78.75
G1 X48.75
G1 Y31.25
G1 X31.25
G1 Y39.25
G1 F300.0 X30.25
G1 F800.0 Y79.75
G1 X49.75
G1 Y30.25
G1 X30.25
G1 Y39.25
G1 F300.0 X29.25
G1 F800.0 Y80.75
G1 X50.75
G1 Y29.25
G1 X29.25
G1 Y39.25
G1 F300.0 X28.25
G1 F800.0 Y81.75
G1 X51.75
G1 Y28.25
G1 X28.25
G1 Y39.25
G1 F300.0 X27.25
G1 F800.0 Y82.75
G1 X52.75
G1 Y27.25
G1 X27.25
G1 Y39.25
G1 F300.0 X26.25
G1 F800.0 Y83.75
G1 X53.75
G1 Y26.25
G1 X26.25
G1 Y39.25
G1 F300.0 X25.25
G1 F800.0 Y84.75
G1 X54.75
G1 Y25.25
G1 X25.25
G1 Y39.25
G1 F300.0 X24.25
G1 F800.0 Y85.75
G1 X55.75
G1 Y24.25
G1 X24.25
G1 Y39.25
G1 F300.0 X23.25
G1 F800.0 Y86.75
G1 X56.75
G1 Y23.25
G1 X23.25
G1 Y39.25
G1 F300.0 X22.25
G1 F800.0 Y87.75
G1 X57.75
G1 Y22.25
G1 X22.25
G1 Y39.25
G1 F300.0 X21.25
G1 F800.0 Y88.75
G1 X58.75
G1 Y21.25
G1 X21.25
G1 Y39.25
G1 F300.0 X20.25
G1 F800.0 Y89.75
G1 X59.75
G1 Y20.25
G1 X20.25
G1 Y39.25
G1 F300.0 X19.25
G1 F800.0 Y90.75
G1 X60.75
G1 Y19.25
G1 X19.25
G1 Y39.25
G1 F300.0 X18.25
G1 F800.0 Y91.75
G1 X61.75
G1 Y18.25
G1 X18.25
G1 Y39.25
G1 F300.0 X17.25
G1 F800.0 Y92.75
G1 X62.75
G1 Y17.25
G1 X17.25
G1 Y39.25
G1 F300.0 X16.25
G1 F800.0 Y93.75
G1 X63.75
G1 Y16.25
G1 X16.25
G1 Y39.25
G1 F300.0 X15.25
G1 F800.0 Y94.75
G1 X64.75
G1 Y15.25
G1 X15.25
G1 Y39.25
G1 F300.0 X14.25
G1 F800.0 Y95.75
G1 X65.75
G1 Y14.25
G1 X14.25
G1 Y39.25
G1 F300.0 X13.25
G1 F800.0 Y96.75
G1 X66.75
G1 Y13.25
G1 X13.25
G1 Y39.25
G1 F300.0 X12.25
G1 F800.0 Y97.75
G1 X67.75
G1 Y12.25
G1 X12.25
G1 Y39.25
G1 F300.0 X11.25
G1 F800.0 Y98.75
G1 X68.75
G1 Y11.25
G1 X11.25
G1 Y39.25
G1 F300.0 X10.25
G1 F800.0 Y99.75
G1 X69.75
G1 Y10.25
G1 X10.25
G1 Y39.25
G1 F300.0 X9.25
G1 F800.0 Y100.75
G1 X70.75
G1 Y9.25
G1 X9.25
G1 Y39.25
G1 F300.0 X8.25
G1 F800.0 Y101.75
G1 X71.75
G1 Y8.25
G1 X8.25
G1 Y39.25
G1 F300.0 X7.25
G1 F800.0 Y102.75
G1 X72.75
G1 Y7.25
G1 X7.25
G1 Y39.25
G1 F300.0 X6.25
G1 F800.0 Y103.75
G1 X73.75
G1 Y6.25
G1 X6.25
G1 Y39.25
G1 F300.0 X5.25
G1 F800.0 Y104.75
G1 X74.75
G1 Y5.25
G1 X5.25
G1 Y39.25
G1 F300.0 X4.25
G1 F800.0 Y105.75
G1 X75.75
G1 Y4.25
G1 X4.25
G1 Y39.25
G1 F300.0 X3.25
G1 F800.0 Y106.75
G1 X76.75
G1 Y3.25
G1 X3.25
G1 Y39.25
G1 F300.0 X2.25
G1 F800.0 Y107.75
G1 X77.75
G1 Y2.25
G1 X2.25
G1 Y39.25
( Case - inside level all  -4.5 )
S1000
G0 Z3.0
G0 X30.25 Y32.25
G1 F300.0 Z-4.5
G1 F800.0 Y38.75
G1 X30.75
G1 Y32.25
G1 X30.25
G1 F300.0 X29.25
G1 F800.0 Y39.75
G1 X31.75
G1 Y31.25
G1 X29.25
G1 Y32.25
G1 F300.0 X28.25
G1 F800.0 Y40.75
G1 X32.75
G1 Y30.25
G1 X28.25
G1 Y32.25
G1 F300.0 X27.25
G1 F800.0 Y41.75
G1 X33.75
G1 Y29.25
G1 X27.25
G1 Y32.25
G1 F300.0 X26.25
G1 F800.0 Y42.75
G1 X34.75
G1 Y28.25
G1 X26.25
G1 Y32.25
G1 F300.0 X25.25
G1 F800.0 Y43.75
G1 X35.75
G1 Y27.25
G1 X25.25
G1 Y32.25
G1 F300.0 X24.25
G1 F800.0 Y44.75
G1 X36.75
G1 Y26.25
G1 X24.25
G1 Y32.25
G1 F300.0 X23.25
G1 F800.0 Y45.75
G1 X37.75
G1 Y25.25
G1 X23.25
G1 Y32.25
G1 F300.0 X22.25
G1 F800.0 Y46.75
G1 X38.75
G1 Y24.25
G1 X22.25
G1 Y32.25
G1 F300.0 X21.25
G1 F800.0 Y47.75
G1 X39.75
G1 Y23.25
G1 X21.25
G1 Y32.25
G1 F300.0 X20.25
G1 F800.0 Y48.75
G1 X40.75
G1 Y22.25
G1 X20.25
G1 Y32.25
G1 F300.0 X19.25
G1 F800.0 Y49.75
G1 X41.75
G1 Y21.25
G1 X19.25
G1 Y32.25
( Case - Wire Whole )
S1000
G0 Z3.0
G0 X15.25 Y26.75
G1 F300.0 Z-5.5
G1 F800.0 Y31.25
G1 X16.75
G1 Y26.75
G1 X15.25
G1 F300.0 X14.25
G1 F800.0 Y32.25
G1 X17.75
G1 Y25.75
G1 X14.25
G1 Y26.75
( Case - Inside Pocket )
S1000
G0 Z3.0
G0 X29.25 Y34.03342
G1 F300.0 Z-6.5
G1 F800.0 Y35.39828
G3 X31.75 Y37.31221 I-6.44 J11.00172
G1 Y35.89249
G3 X31.676 Y35.85009 I6.3 J-11.08249
G3 X29.25 Y34.03342 I6.374 J-11.04009
G1 F300.0 X28.25
G1 F800.0 Y35.98742
G3 X32.75 Y40.13806 I-5.44 J10.41258
G1 Y35.29454
G3 X32.176 Y34.98407 I5.3 J-10.48454
G3 X28.25 Y31.28885 I5.874 J-10.17407
G1 Y34.03342
G1 F300.0 X27.25
G1 F800.0 Y36.61195
G3 X32.50005 Y41.75 I-4.44 J9.78805
G1 X33.75
G1 Y34.66036
G3 X32.676 Y34.11804 I4.3 J-9.85036
G3 X28.26195 Y29.25 I5.374 J-9.30804
G1 X27.25
G1 Y34.03342
G1 F300.0 X26.25
G1 F800.0 Y37.27915
G3 X31.84886 Y42.75 I-3.44 J9.12085
G1 X34.75
G1 Y33.98243
G3 X33.176 Y33.25202 I3.3 J-9.17243
G3 X28.92915 Y28.25 I4.874 J-8.44202
G1 X26.25
G1 Y34.03342
G1 F300.0 X25.25
G1 F800.0 Y37.99917
G3 X31.14697 Y43.75 I-2.44 J8.40083
G1 X35.75
G1 Y33.25023
G3 X33.676 Y32.38599 I2.3 J-8.44023
G3 X29.64917 Y27.25 I4.374 J-7.57599
G1 X25.25
G1 Y34.03342
G1 F300.0 X24.25
G1 F800.0 Y38.78699
G3 X30.38027 Y44.75 I-1.44 J7.61301
G1 X36.75
G1 Y32.44816
G3 X34.176 Y31.51996 I1.3 J-7.63816
G3 X30.43699 Y26.25 I3.874 J-6.70996
G1 X24.25
G1 Y34.03342
G1 F300.0 X23.25
G1 F800.0 Y39.66636
G3 X29.52662 Y45.75 I-0.44 J6.73364
G1 X37.75
G1 Y31.55133
G3 X34.676 Y30.65394 I0.3 J-6.74133
G3 X31.31636 Y25.25 I3.374 J-5.84394
G1 X23.25
G1 Y34.03342
G1 F300.0 X22.25
G1 F800.0 Y40.67934
G3 X28.558 Y46.4 I0.56 J5.72066
G3 X28.54733 Y46.75 I-5.748 J0.0
G1 X38.75
G1 Y30.51522
G3 X35.176 Y29.78791 I-0.7 J-5.70522
G3 X32.32934 Y24.25 I2.874 J-4.97791
G1 X22.25
G1 Y34.03342
G1 F300.0 X21.25
G1 F800.0 Y41.91559
G3 X27.558 Y46.4 I1.56 J4.48441
G3 X27.36203 Y47.75 I-4.748 J0.0
G1 X39.75
G1 Y29.24323
G3 X35.676 Y28.92189 I-1.7 J-4.43323
G3 X33.56559 Y23.25 I2.374 J-4.11189
G1 X21.25
G1 Y34.03342
G1 F300.0 X20.25
G1 F800.0 Y43.6625
G3 X20.936 Y43.15414 I2.56 J2.7375
G3 X26.558 Y46.4 I1.874 J3.24586
G3 X25.72976 Y48.75 I-3.748 J0.0
G1 X40.75
G1 Y27.40952
G3 X36.176 Y28.05586 I-2.7 J-2.59952
G3 X35.3125 Y22.25 I1.874 J-3.24586
G1 X20.25
G1 Y34.03342
G1 F300.0 X19.25
G1 F800.0 Y49.75
G1 X41.75
G1 Y21.25
G1 X19.25
G1 Y34.03342
G0 Z3.0
G0 X22.04924 Y43.75732
G1 F300.0 Z-6.5
G3 F800.0 X25.56 Y46.4 I0.76076 J2.64268
G3 X21.435 Y48.78157 I-2.75 J0.0
G3 Y44.01843 I1.375 J-2.38157
G3 X22.04924 Y43.75732 I1.375 J2.38157
G1 F300.0 Z-8.0
G3 F800.0 X25.56 Y46.4 I0.76076 J2.64268
G3 X21.435 Y48.78157 I-2.75 J0.0
G3 Y44.01843 I1.375 J-2.38157
G3 X22.04924 Y43.75732 I1.375 J2.38157
G0 Z3.0
G0 X36.2757 Y26.91104
G1 F300.0 Z-6.5
G3 F800.0 X36.675 Y22.42843 I1.7743 J-2.10104
G3 X40.8 Y24.81 I1.375 J2.38157
G3 X36.675 Y27.19157 I-2.75 J0.0
G3 X36.2757 Y26.91104 I1.375 J-2.38157
G1 F300.0 Z-8.0
G3 F800.0 X36.675 Y22.42843 I1.7743 J-2.10104
G3 X40.8 Y24.81 I1.375 J2.38157
G3 X36.675 Y27.19157 I-2.75 J0.0
G3 X36.2757 Y26.91104 I1.375 J-2.38157
G0 Z3.0
G0 X29.825 Y34.54965
G1 F300.0 Z-8.0
G3 F800.0 X29.25 Y34.03342 I8.225 J-9.73965
G1 Y35.39828
G3 X31.75 Y37.31221 I-6.44 J11.00172
G1 Y35.89249
G3 X31.676 Y35.85009 I6.3 J-11.08249
G3 X29.825 Y34.54965 I6.374 J-11.04009
G1 F300.0 X30.4702 Y33.78564
G3 F800.0 X28.25 Y31.28885 I7.5798 J-8.97564
G1 Y35.98742
G3 X32.75 Y40.13806 I-5.44 J10.41258
G1 Y35.29454
G3 X32.176 Y34.98407 I5.3 J-10.48454
G3 X30.4702 Y33.78564 I5.874 J-10.17407
G1 F300.0 X31.1154 Y33.02162
G3 F800.0 X28.26195 Y29.25 I6.9346 J-8.21162
G1 X27.25
G1 Y36.61195
G3 X32.50005 Y41.75 I-4.44 J9.78805
G1 X33.75
G1 Y34.66036
G3 X32.676 Y34.11804 I4.3 J-9.85036
G3 X31.1154 Y33.02162 I5.374 J-9.30804
G1 F300.0 X31.76059 Y32.25761
G3 F800.0 X28.92915 Y28.25 I6.28941 J-7.44761
G1 X26.25
G1 Y37.27915
G3 X31.84886 Y42.75 I-3.44 J9.12085
G1 X34.75
G1 Y33.98243
G3 X33.176 Y33.25202 I3.3 J-9.17243
G3 X31.76059 Y32.25761 I4.874 J-8.44202
G1 F300.0 X32.40579 Y31.4936
G3 F800.0 X29.64917 Y27.25 I5.64421 J-6.6836
G1 X25.25
G1 Y37.99917
G3 X31.14697 Y43.75 I-2.44 J8.40083
G1 X35.75
G1 Y33.25023
G3 X33.676 Y32.38599 I2.3 J-8.44023
G3 X32.40579 Y31.4936 I4.374 J-7.57599
G1 F300.0 X33.05099 Y30.72958
G3 F800.0 X30.43699 Y26.25 I4.99901 J-5.91958
G1 X24.25
G1 Y38.78699
G3 X30.38027 Y44.75 I-1.44 J7.61301
G1 X36.75
G1 Y32.44816
G3 X34.176 Y31.51996 I1.3 J-7.63816
G3 X33.05099 Y30.72958 I3.874 J-6.70996
G1 F300.0 X33.69619 Y29.96557
G3 F800.0 X31.31636 Y25.25 I4.35381 J-5.15557
G1 X23.25
G1 Y39.66636
G3 X29.52662 Y45.75 I-0.44 J6.73364
G1 X37.75
G1 Y31.55133
G3 X34.676 Y30.65394 I0.3 J-6.74133
G3 X33.69619 Y29.96557 I3.374 J-5.84394
G1 F300.0 X34.34139 Y29.20155
G3 F800.0 X32.32934 Y24.25 I3.70861 J-4.39155
G1 X22.25
G1 Y40.67934
G3 X28.558 Y46.4 I0.56 J5.72066
G3 X28.54733 Y46.75 I-5.748 J0.0
G1 X38.75
G1 Y30.51522
G3 X35.176 Y29.78791 I-0.7 J-5.70522
G3 X34.34139 Y29.20155 I2.874 J-4.97791
G1 F300.0 X34.98659 Y28.43754
G3 F800.0 X33.56559 Y23.25 I3.06341 J-3.62754
G1 X21.25
G1 Y41.91559
G3 X27.558 Y46.4 I1.56 J4.48441
G3 X27.36203 Y47.75 I-4.748 J0.0
G1 X39.75
G1 Y29.24323
G3 X35.676 Y28.92189 I-1.7 J-4.43323
G3 X34.98659 Y28.43754 I2.374 J-4.11189
G1 F300.0 X35.63179 Y27.67352
G3 F800.0 X35.3125 Y22.25 I2.41821 J-2.86352
G1 X20.25
G1 Y43.6625
G3 X20.936 Y43.15414 I2.56 J2.7375
G3 X26.558 Y46.4 I1.874 J3.24586
G3 X25.72976 Y48.75 I-3.748 J0.0
G1 X40.75
G1 Y27.40952
G3 X36.176 Y28.05586 I-2.7 J-2.59952
G3 X35.63179 Y27.67352 I1.874 J-3.24586
G0 Z3.0
G0 X41.75
G1 F300.0 Z-8.0
G1 F800.0 Y21.25
G1 X19.25
G1 Y49.75
G1 X41.75
G1 Y27.67352
( Case - Sensor Pocket )
S1000
G0 Z3.0
G0 X31.5 Y25.25
G1 F300.0 Z-9.0
G1 F800.0 Y28.25
G1 Y25.25
G1 F300.0 X30.5
G1 F800.0 Y29.25
G1 X32.5
G1 Y24.25
G1 X30.5
G1 Y25.25
G1 F300.0 X29.5
G1 F800.0 Y30.25
G1 X33.5
G1 Y23.25
G1 X29.5
G1 Y25.25
( Case - LED top )
S1000
G0 Z3.0
G0 X30.73 Y43.86
G1 F300.0 Z-10.0
G2 F800.0 X30.28 Y43.60019 I-0.3 J0.0
G2 Y44.11981 I0.15 J0.25981
G2 X30.73 Y43.86 I0.15 J-0.25981
G1 F300.0 X31.73
G2 F800.0 X29.78 Y42.73417 I-1.3 J0.0
G2 Y44.98583 I0.65 J1.12583
G2 X31.73 Y43.86 I0.65 J-1.12583
( Case - LED bottom )
S1000
G0 Z3.0
G0 X30.73 Y36.24
G1 F300.0 Z-10.0
G2 F800.0 X30.28 Y35.98019 I-0.3 J0.0
G2 Y36.49981 I0.15 J0.25981
G2 X30.73 Y36.24 I0.15 J-0.25981
G1 F300.0 X31.73
G2 F800.0 X29.78 Y35.11417 I-1.3 J0.0
G2 Y37.36583 I0.65 J1.12583
G2 X31.73 Y36.24 I0.65 J-1.12583
( -Case - Outside body )
S1000
G0 Z3.0
G0 X16.0 Y16.75
G1 F300.0 Z-5.0
G1 F800.0 X45.0
G3 X46.25 Y18.0 I0.0 J1.25
G1 Y53.0
G3 X45.0 Y54.25 I-1.25 J0.0
G1 X16.0
G3 X14.75 Y53.0 I0.0 J-1.25
G1 Y18.0
G3 X16.0 Y16.75 I1.25 J0.0
G1 F300.0 Y16.25
G1 F800.0 X45.0
G3 X46.75 Y18.0 I0.0 J1.75
G1 Y53.0
G3 X45.0 Y54.75 I-1.75 J0.0
G1 X16.0
G3 X14.25 Y53.0 I0.0 J-1.75
G1 Y18.0
G3 X16.0 Y16.25 I1.75 J0.0
G1 F300.0 Y16.75
G1 Z-7.0
G1 F800.0 X45.0
G3 X46.25 Y18.0 I0.0 J1.25
G1 Y53.0
G3 X45.0 Y54.25 I-1.25 J0.0
G1 X16.0
G3 X14.75 Y53.0 I0.0 J-1.25
G1 Y18.0
G3 X16.0 Y16.75 I1.25 J0.0
G1 F300.0 Y16.25
G1 F800.0 X45.0
G3 X46.75 Y18.0 I0.0 J1.75
G1 Y53.0
G3 X45.0 Y54.75 I-1.75 J0.0
G1 X16.0
G3 X14.25 Y53.0 I0.0 J-1.75
G1 Y18.0
G3 X16.0 Y16.25 I1.75 J0.0
G1 F300.0 Y16.75
G1 Z-9.0
G1 F800.0 X45.0
G3 X46.25 Y18.0 I0.0 J1.25
G1 Y53.0
G3 X45.0 Y54.25 I-1.25 J0.0
G1 X16.0
G3 X14.75 Y53.0 I0.0 J-1.25
G1 Y18.0
G3 X16.0 Y16.75 I1.25 J0.0
G1 F300.0 Y16.25
G1 F800.0 X45.0
G3 X46.75 Y18.0 I0.0 J1.75
G1 Y53.0
G3 X45.0 Y54.75 I-1.75 J0.0
G1 X16.0
G3 X14.25 Y53.0 I0.0 J-1.75
G1 Y18.0
G3 X16.0 Y16.25 I1.75 J0.0
G1 F300.0 Y16.75
G1 Z-10.0
G1 F800.0 X45.0
G3 X46.25 Y18.0 I0.0 J1.25
G1 Y53.0
G3 X45.0 Y54.25 I-1.25 J0.0
G1 X16.0
G3 X14.75 Y53.0 I0.0 J-1.25
G1 Y18.0
G3 X16.0 Y16.75 I1.25 J0.0
G1 F300.0 Y16.25
G1 F800.0 X45.0
G3 X46.75 Y18.0 I0.0 J1.75
G1 Y53.0
G3 X45.0 Y54.75 I-1.75 J0.0
G1 X16.0
G3 X14.25 Y53.0 I0.0 J-1.75
G1 Y18.0
G3 X16.0 Y16.25 I1.75 J0.0
( Cover - level all -8 )
S1000
G0 Z3.0
G0 X28.25 Y74.25
G1 F300.0 Z-5.0
G1 F800.0 Y80.75
G1 X28.75
G1 Y74.25
G1 X28.25
G1 F300.0 X27.25
G1 F800.0 Y81.75
G1 X29.75
G1 Y73.25
G1 X27.25
G1 Y74.25
G1 F300.0 X26.25
G1 F800.0 Y82.75
G1 X30.75
G1 Y72.25
G1 X26.25
G1 Y74.25
G1 F300.0 X25.25
G1 F800.0 Y83.75
G1 X31.75
G1 Y71.25
G1 X25.25
G1 Y74.25
G1 F300.0 X24.25
G1 F800.0 Y84.75
G1 X32.75
G1 Y70.25
G1 X24.25
G1 Y74.25
G1 F300.0 X23.25
G1 F800.0 Y85.75
G1 X33.75
G1 Y69.25
G1 X23.25
G1 Y74.25
G1 F300.0 X22.25
G1 F800.0 Y86.75
G1 X34.75
G1 Y68.25
G1 X22.25
G1 Y74.25
G1 F300.0 X21.25
G1 F800.0 Y87.75
G1 X35.75
G1 Y67.25
G1 X21.25
G1 Y74.25
G1 F300.0 X20.25
G1 F800.0 Y88.75
G1 X36.75
G1 Y66.25
G1 X20.25
G1 Y74.25
G1 F300.0 X19.25
G1 F800.0 Y89.75
G1 X37.75
G1 Y65.25
G1 X19.25
G1 Y74.25
G1 F300.0 X18.25
G1 F800.0 Y90.75
G1 X38.75
G1 Y64.25
G1 X18.25
G1 Y74.25
G1 F300.0 X17.25
G1 F800.0 Y91.75
G1 X39.75
G1 Y63.25
G1 X17.25
G1 Y74.25
G1 F300.0 X16.25
G1 F800.0 Y92.75
G1 X40.75
G1 Y62.25
G1 X16.25
G1 Y74.25
G1 F300.0 X15.25
G1 F800.0 Y93.75
G1 X41.75
G1 Y61.25
G1 X15.25
G1 Y74.25
G0 Z3.0
G0 X28.25
G1 F300.0 Z-7.0
G1 F800.0 Y80.75
G1 X28.75
G1 Y74.25
G1 X28.25
G1 F300.0 X27.25
G1 F800.0 Y81.75
G1 X29.75
G1 Y73.25
G1 X27.25
G1 Y74.25
G1 F300.0 X26.25
G1 F800.0 Y82.75
G1 X30.75
G1 Y72.25
G1 X26.25
G1 Y74.25
G1 F300.0 X25.25
G1 F800.0 Y83.75
G1 X31.75
G1 Y71.25
G1 X25.25
G1 Y74.25
G1 F300.0 X24.25
G1 F800.0 Y84.75
G1 X32.75
G1 Y70.25
G1 X24.25
G1 Y74.25
G1 F300.0 X23.25
G1 F800.0 Y85.75
G1 X33.75
G1 Y69.25
G1 X23.25
G1 Y74.25
G1 F300.0 X22.25
G1 F800.0 Y86.75
G1 X34.75
G1 Y68.25
G1 X22.25
G1 Y74.25
G1 F300.0 X21.25
G1 F800.0 Y87.75
G1 X35.75
G1 Y67.25
G1 X21.25
G1 Y74.25
G1 F300.0 X20.25
G1 F800.0 Y88.75
G1 X36.75
G1 Y66.25
G1 X20.25
G1 Y74.25
G1 F300.0 X19.25
G1 F800.0 Y89.75
G1 X37.75
G1 Y65.25
G1 X19.25
G1 Y74.25
G1 F300.0 X18.25
G1 F800.0 Y90.75
G1 X38.75
G1 Y64.25
G1 X18.25
G1 Y74.25
G1 F300.0 X17.25
G1 F800.0 Y91.75
G1 X39.75
G1 Y63.25
G1 X17.25
G1 Y74.25
G1 F300.0 X16.25
G1 F800.0 Y92.75
G1 X40.75
G1 Y62.25
G1 X16.25
G1 Y74.25
G1 F300.0 X15.25
G1 F800.0 Y93.75
G1 X41.75
G1 Y61.25
G1 X15.25
G1 Y74.25
G0 Z3.0
G0 X28.25
G1 F300.0 Z-8.0
G1 F800.0 Y80.75
G1 X28.75
G1 Y74.25
G1 X28.25
G1 F300.0 X27.25
G1 F800.0 Y81.75
G1 X29.75
G1 Y73.25
G1 X27.25
G1 Y74.25
G1 F300.0 X26.25
G1 F800.0 Y82.75
G1 X30.75
G1 Y72.25
G1 X26.25
G1 Y74.25
G1 F300.0 X25.25
G1 F800.0 Y83.75
G1 X31.75
G1 Y71.25
G1 X25.25
G1 Y74.25
G1 F300.0 X24.25
G1 F800.0 Y84.75
G1 X32.75
G1 Y70.25
G1 X24.25
G1 Y74.25
G1 F300.0 X23.25
G1 F800.0 Y85.75
G1 X33.75
G1 Y69.25
G1 X23.25
G1 Y74.25
G1 F300.0 X22.25
G1 F800.0 Y86.75
G1 X34.75
G1 Y68.25
G1 X22.25
G1 Y74.25
G1 F300.0 X21.25
G1 F800.0 Y87.75
G1 X35.75
G1 Y67.25
G1 X21.25
G1 Y74.25
G1 F300.0 X20.25
G1 F800.0 Y88.75
G1 X36.75
G1 Y66.25
G1 X20.25
G1 Y74.25
G1 F300.0 X19.25
G1 F800.0 Y89.75
G1 X37.75
G1 Y65.25
G1 X19.25
G1 Y74.25
G1 F300.0 X18.25
G1 F800.0 Y90.75
G1 X38.75
G1 Y64.25
G1 X18.25
G1 Y74.25
G1 F300.0 X17.25
G1 F800.0 Y91.75
G1 X39.75
G1 Y63.25
G1 X17.25
G1 Y74.25
G1 F300.0 X16.25
G1 F800.0 Y92.75
G1 X40.75
G1 Y62.25
G1 X16.25
G1 Y74.25
G1 F300.0 X15.25
G1 F800.0 Y93.75
G1 X41.75
G1 Y61.25
G1 X15.25
G1 Y74.25
( Profile2 )
S1000
G0 Z3.0
G0 X14.0 Y60.0
G1 F300.0 Z-8.0
G1 F800.0 X43.0
G1 Y95.0
G1 X14.0
G1 Y60.0
( Cover - Wire Whole )
S1000
G0 Z3.0
G0 X15.75 Y69.75
G1 F300.0 Z-10.0
G1 F800.0 Y72.25
G1 X16.25
G1 Y69.75
G1 X15.75
G1 F300.0 X14.75
G1 F800.0 Y73.25
G1 X17.25
G1 Y68.75
G1 X14.75
G1 Y69.75
G1 F300.0 X13.75
G1 F800.0 Y74.25
G1 X18.25
G1 Y67.75
G1 X13.75
G1 Y69.75
( -Cover - Outside cover )
S1000
G0 Z3.0
G0 X16.0 Y60.75
G1 F300.0 Z-10.0
G1 F800.0 X41.0
G3 X42.25 Y62.0 I0.0 J1.25
G1 Y93.0
G3 X41.0 Y94.25 I-1.25 J0.0
G1 X16.0
G3 X14.75 Y93.0 I0.0 J-1.25
G1 Y62.0
G3 X16.0 Y60.75 I1.25 J0.0
G1 F300.0 Y60.25
G1 F800.0 X41.0
G3 X42.75 Y62.0 I0.0 J1.75
G1 Y93.0
G3 X41.0 Y94.75 I-1.75 J0.0
G1 X16.0
G3 X14.25 Y93.0 I0.0 J-1.75
G1 Y62.0
G3 X16.0 Y60.25 I1.75 J0.0
( Sensor Arm - level all -3 to -7 )
S1000
G0 Z3.0
G0 X59.25 Y23.25
G1 F300.0 Z-5.0
G1 F800.0 Y86.75
G1 X60.75
G1 Y23.25
G1 X59.25
G1 F300.0 X58.25
G1 F800.0 Y87.75
G1 X61.75
G1 Y22.25
G1 X58.25
G1 Y23.25
G1 F300.0 X57.25
G1 F800.0 Y88.75
G1 X62.75
G1 Y21.25
G1 X57.25
G1 Y23.25
G1 F300.0 X56.25
G1 F800.0 Y89.75
G1 X63.75
G1 Y20.25
G1 X56.25
G1 Y23.25
G1 F300.0 X55.25
G1 F800.0 Y90.75
G1 X64.75
G1 Y19.25
G1 X55.25
G1 Y23.25
G1 F300.0 X54.25
G1 F800.0 Y91.75
G1 X65.75
G1 Y18.25
G1 X54.25
G1 Y23.25
G1 F300.0 X53.25
G1 F800.0 Y92.75
G1 X66.75
G1 Y17.25
G1 X53.25
G1 Y23.25
G0 Z3.0
G0 X59.25
G1 F300.0 Z-7.0
G1 F800.0 Y86.75
G1 X60.75
G1 Y23.25
G1 X59.25
G1 F300.0 X58.25
G1 F800.0 Y87.75
G1 X61.75
G1 Y22.25
G1 X58.25
G1 Y23.25
G1 F300.0 X57.25
G1 F800.0 Y88.75
G1 X62.75
G1 Y21.25
G1 X57.25
G1 Y23.25
G1 F300.0 X56.25
G1 F800.0 Y89.75
G1 X63.75
G1 Y20.25
G1 X56.25
G1 Y23.25
G1 F300.0 X55.25
G1 F800.0 Y90.75
G1 X64.75
G1 Y19.25
G1 X55.25
G1 Y23.25
G1 F300.0 X54.25
G1 F800.0 Y91.75
G1 X65.75
G1 Y18.25
G1 X54.25
G1 Y23.25
G1 F300.0 X53.25
G1 F800.0 Y92.75
G1 X66.75
G1 Y17.25
G1 X53.25
G1 Y23.25
( Profile2 )
S1000
G0 Z3.0
G0 X52.0 Y14.75
G1 F300.0 Z-7.0
G1 F800.0 X68.0
G3 X69.25 Y16.0 I0.0 J1.25
G1 Y94.0
G3 X68.0 Y95.25 I-1.25 J0.0
G1 X52.0
G3 X50.75 Y94.0 I0.0 J-1.25
G1 Y16.0
G3 X52.0 Y14.75 I1.25 J0.0
( Pocket1 )
S1000
G0 Z3.0
G0 X60.1 Y86.0
G1 F300.0 Z-2.0
G2 F800.0 X59.95 Y85.9134 I-0.1 J0.0
G2 Y86.0866 I0.05 J0.0866
G2 X60.1 Y86.0 I0.05 J-0.0866
G0 Z3.0
G0 X62.0
G1 F300.0 Z-2.0
G2 F800.0 X59.0 Y84.26795 I-2.0 J0.0
G2 Y87.73205 I1.0 J1.73205
G2 X62.0 Y86.0 I1.0 J-1.73205
G0 Z3.0
G0 X60.1
G1 F300.0 Z-4.0
G2 F800.0 X59.95 Y85.9134 I-0.1 J0.0
G2 Y86.0866 I0.05 J0.0866
G2 X60.1 Y86.0 I0.05 J-0.0866
G0 Z3.0
G0 X62.0
G1 F300.0 Z-4.0
G2 F800.0 X59.0 Y84.26795 I-2.0 J0.0
G2 Y87.73205 I1.0 J1.73205
G2 X62.0 Y86.0 I1.0 J-1.73205
G0 Z3.0
G0 X60.1
G1 F300.0 Z-6.0
G2 F800.0 X59.95 Y85.9134 I-0.1 J0.0
G2 Y86.0866 I0.05 J0.0866
G2 X60.1 Y86.0 I0.05 J-0.0866
G0 Z3.0
G0 X62.0
G1 F300.0 Z-6.0
G2 F800.0 X59.0 Y84.26795 I-2.0 J0.0
G2 Y87.73205 I1.0 J1.73205
G2 X62.0 Y86.0 I1.0 J-1.73205
G0 Z3.0
G0 X60.1
G1 F300.0 Z-8.0
G2 F800.0 X59.95 Y85.9134 I-0.1 J0.0
G2 Y86.0866 I0.05 J0.0866
G2 X60.1 Y86.0 I0.05 J-0.0866
G0 Z3.0
G0 X62.0
G1 F300.0 Z-8.0
G2 F800.0 X59.0 Y84.26795 I-2.0 J0.0
G2 Y87.73205 I1.0 J1.73205
G2 X62.0 Y86.0 I1.0 J-1.73205
G0 Z3.0
G0 X60.1
G1 F300.0 Z-9.0
G2 F800.0 X59.95 Y85.9134 I-0.1 J0.0
G2 Y86.0866 I0.05 J0.0866
G2 X60.1 Y86.0 I0.05 J-0.0866
G0 Z3.0
G0 X62.0
G1 F300.0 Z-9.0
G2 F800.0 X59.0 Y84.26795 I-2.0 J0.0
G2 Y87.73205 I1.0 J1.73205
G2 X62.0 Y86.0 I1.0 J-1.73205
( Pocket2 )
S1000
G0 Z3.0
G0 X60.1 Y79.0
G1 F300.0 Z-2.0
G2 F800.0 X59.95 Y78.9134 I-0.1 J0.0
G2 Y79.0866 I0.05 J0.0866
G2 X60.1 Y79.0 I0.05 J-0.0866
G0 Z3.0
G0 X62.0
G1 F300.0 Z-2.0
G2 F800.0 X59.0 Y77.26795 I-2.0 J0.0
G2 Y80.73205 I1.0 J1.73205
G2 X62.0 Y79.0 I1.0 J-1.73205
G0 Z3.0
G0 X60.1
G1 F300.0 Z-4.0
G2 F800.0 X59.95 Y78.9134 I-0.1 J0.0
G2 Y79.0866 I0.05 J0.0866
G2 X60.1 Y79.0 I0.05 J-0.0866
G0 Z3.0
G0 X62.0
G1 F300.0 Z-4.0
G2 F800.0 X59.0 Y77.26795 I-2.0 J0.0
G2 Y80.73205 I1.0 J1.73205
G2 X62.0 Y79.0 I1.0 J-1.73205
G0 Z3.0
G0 X60.1
G1 F300.0 Z-6.0
G2 F800.0 X59.95 Y78.9134 I-0.1 J0.0
G2 Y79.0866 I0.05 J0.0866
G2 X60.1 Y79.0 I0.05 J-0.0866
G0 Z3.0
G0 X62.0
G1 F300.0 Z-6.0
G2 F800.0 X59.0 Y77.26795 I-2.0 J0.0
G2 Y80.73205 I1.0 J1.73205
G2 X62.0 Y79.0 I1.0 J-1.73205
G0 Z3.0
G0 X60.1
G1 F300.0 Z-8.0
G2 F800.0 X59.95 Y78.9134 I-0.1 J0.0
G2 Y79.0866 I0.05 J0.0866
G2 X60.1 Y79.0 I0.05 J-0.0866
G0 Z3.0
G0 X62.0
G1 F300.0 Z-8.0
G2 F800.0 X59.0 Y77.26795 I-2.0 J0.0
G2 Y80.73205 I1.0 J1.73205
G2 X62.0 Y79.0 I1.0 J-1.73205
G0 Z3.0
G0 X60.1
G1 F300.0 Z-9.0
G2 F800.0 X59.95 Y78.9134 I-0.1 J0.0
G2 Y79.0866 I0.05 J0.0866
G2 X60.1 Y79.0 I0.05 J-0.0866
G0 Z3.0
G0 X62.0
G1 F300.0 Z-9.0
G2 F800.0 X59.0 Y77.26795 I-2.0 J0.0
G2 Y80.73205 I1.0 J1.73205
G2 X62.0 Y79.0 I1.0 J-1.73205
( -Sensor Arm - Outside Trigger )
S1000
G0 Z3.0
G0 X54.0 Y16.75
G1 F300.0 Z-9.0
G1 F800.0 X66.0
G3 X67.25 Y18.0 I0.0 J1.25
G1 Y92.0
G3 X66.0 Y93.25 I-1.25 J0.0
G1 X54.0
G3 X52.75 Y92.0 I0.0 J-1.25
G1 Y18.0
G3 X54.0 Y16.75 I1.25 J0.0
G1 F300.0 Y16.25
G1 F800.0 X66.0
G3 X67.75 Y18.0 I0.0 J1.75
G1 Y92.0
G3 X66.0 Y93.75 I-1.75 J0.0
G1 X54.0
G3 X52.25 Y92.0 I0.0 J-1.75
G1 Y18.0
G3 X54.0 Y16.25 I1.75 J0.0
G1 F300.0 Y16.75
G1 Z-10.0
G1 F800.0 X66.0
G3 X67.25 Y18.0 I0.0 J1.25
G1 Y92.0
G3 X66.0 Y93.25 I-1.25 J0.0
G1 X54.0
G3 X52.75 Y92.0 I0.0 J-1.25
G1 Y18.0
G3 X54.0 Y16.75 I1.25 J0.0
G1 F300.0 Y16.25
G1 F800.0 X66.0
G3 X67.75 Y18.0 I0.0 J1.75
G1 Y92.0
G3 X66.0 Y93.75 I-1.75 J0.0
G1 X54.0
G3 X52.25 Y92.0 I0.0 J-1.75
G1 Y18.0
G3 X54.0 Y16.25 I1.75 J0.0
( Pocketbox )
S1000
G0 Z3.0
G0 X9.25 Y9.25
G1 F300.0 Z-6.5
G1 F800.0 Y9.25708
G3 X9.26006 Y9.25 I4.75 J6.74292
G1 X9.25
G1 F300.0 Y8.25
G1 F800.0 X8.25
G1 Y11.5874
G3 X14.0 Y8.752 I5.75 J4.4126
G1 X47.0
G3 X49.5 Y9.1968 I0.0 J7.248
G3 X52.0 Y8.752 I2.5 J6.8032
G1 X68.0
G3 X71.75 Y9.7975 I0.0 J7.248
G1 Y8.25
G1 X9.25
G0 Z3.0
G0 X8.25 Y99.4126
G1 F300.0 Z-6.5
G1 F800.0 Y101.75
G1 X11.35973
G3 X8.25 Y99.4126 I2.64027 J-6.75
G0 Z3.0
G0 X45.64027 Y101.75
G1 F300.0 Z-6.5
G1 F800.0 X71.75
G1 Y100.2025
G3 X68.0 Y101.248 I-3.75 J-6.2025
G1 X52.0
G3 X48.12502 Y100.1252 I0.0 J-7.248
G3 X45.64027 Y101.75 I-5.12502 J-5.1252
G1 F300.0 X45.27599 Y100.81871
G3 F800.0 X43.0 Y101.248 I-2.27599 J-5.81871
G1 X14.0
G3 X7.752 Y95.0 I0.0 J-6.248
G1 Y60.0
G3 X8.27396 Y57.5 I6.248 J0.0
G3 X7.752 Y55.0 I5.72604 J-2.5
G1 Y16.0
G3 X14.0 Y9.752 I6.248 J0.0
G1 X47.0
G3 X49.5 Y10.27396 I0.0 J6.248
G3 X52.0 Y9.752 I2.5 J5.72604
G1 X68.0
G3 X72.75 Y11.94106 I0.0 J6.248
G1 Y7.25
G1 X7.25
G1 Y102.75
G1 X72.75
G1 Y98.05894
G3 X68.0 Y100.248 I-4.75 J-4.05894
G1 X52.0
G3 X47.97547 Y98.77919 I0.0 J-6.248
G3 X45.27599 Y100.81871 I-4.97547 J-3.77919
G0 Z3.0
G0 X43.81889 Y97.09354
G1 F300.0 Z-6.5
G3 F800.0 X43.0 Y97.248 I-0.81889 J-2.09354
G1 X14.0
G3 X11.752 Y95.0 I0.0 J-2.248
G1 Y60.0
G3 X14.0 Y57.752 I2.248 J0.0
G1 X43.0
G3 X45.248 Y60.0 I0.0 J2.248
G1 Y95.0
G3 X43.81889 Y97.09354 I-2.248 J0.0
G1 F300.0 X43.45534 Y96.16411
G3 F800.0 X43.0 Y96.25 I-0.45534 J-1.16411
G1 X14.0
G3 X12.75 Y95.0 I0.0 J-1.25
G1 Y60.0
G3 X14.0 Y58.75 I1.25 J0.0
G1 X43.0
G3 X44.25 Y60.0 I0.0 J1.25
G1 Y95.0
G3 X43.45534 Y96.16411 I-1.25 J0.0
G0 Z3.0
G0 X49.82081 Y94.55193
G1 F300.0 Z-6.5
G3 F800.0 X49.752 Y94.0 I2.17919 J-0.55193
G1 Y16.0
G3 X52.0 Y13.752 I2.248 J0.0
G1 X68.0
G3 X70.248 Y16.0 I0.0 J2.248
G1 Y94.0
G3 X68.0 Y96.248 I-2.248 J0.0
G1 X52.0
G3 X49.82081 Y94.55193 I0.0 J-2.248
G1 F300.0 X50.78826 Y94.3069
G3 F800.0 X50.75 Y94.0 I1.21174 J-0.3069
G1 Y16.0
G3 X52.0 Y14.75 I1.25 J0.0
G1 X68.0
G3 X69.25 Y16.0 I0.0 J1.25
G1 Y94.0
G3 X68.0 Y95.25 I-1.25 J0.0
G1 X52.0
G3 X50.78826 Y94.3069 I0.0 J-1.25
G0 Z3.0
G0 X47.21566 Y57.23763
G1 F300.0 Z-6.5
G3 F800.0 X47.0 Y57.248 I-0.21566 J-2.23763
G1 X14.0
G3 X11.752 Y55.0 I0.0 J-2.248
G1 Y16.0
G3 X14.0 Y13.752 I2.248 J0.0
G1 X47.0
G3 X49.248 Y16.0 I0.0 J2.248
G1 Y55.0
G3 X47.21566 Y57.23763 I-2.248 J0.0
G1 F300.0 X47.11991 Y56.24423
G3 F800.0 X47.0 Y56.25 I-0.11991 J-1.24423
G1 X14.0
G3 X12.75 Y55.0 I0.0 J-1.25
G1 Y16.0
G3 X14.0 Y14.75 I1.25 J0.0
G1 X47.0
G3 X48.25 Y16.0 I0.0 J1.25
G1 Y55.0
G3 X47.11991 Y56.24423 I-1.25 J0.0
G0 Z3.0
G0 X47.31159 Y58.23302
G1 F300.0 Z-6.5
G2 F800.0 X48.752 Y57.73496 I-0.31159 J-3.23302
G1 Y94.0
G2 X52.0 Y97.248 I3.248 J0.0
G1 X68.0
G2 X71.248 Y94.0 I0.0 J-3.248
G1 Y16.0
G2 X68.0 Y12.752 I-3.248 J0.0
G1 X52.0
G2 X49.5 Y13.92648 I0.0 J3.248
G2 X47.0 Y12.752 I-2.5 J2.07352
G1 X14.0
G2 X10.752 Y16.0 I0.0 J3.248
G1 Y55.0
G2 X11.92648 Y57.5 I3.248 J0.0
G2 X10.752 Y60.0 I2.07352 J2.5
G1 Y95.0
G2 X14.0 Y98.248 I3.248 J0.0
G1 X43.0
G2 X46.248 Y95.0 I0.0 J-3.248
G1 Y60.0
G2 X45.73496 Y58.248 I-3.248 J0.0
G1 X47.0
G2 X47.31159 Y58.23302 I0.0 J-3.248
G1 F300.0 X47.40752 Y59.22841
G2 F800.0 X47.752 Y59.18091 I-0.40752 J-4.22841
G1 Y94.0
G2 X52.0 Y98.248 I4.248 J0.0
G1 X68.0
G2 X72.248 Y94.0 I0.0 J-4.248
G1 Y16.0
G2 X68.0 Y11.752 I-4.248 J0.0
G1 X52.0
G2 X49.5 Y12.56554 I0.0 J4.248
G2 X47.0 Y11.752 I-2.5 J3.43446
G1 X14.0
G2 X9.752 Y16.0 I0.0 J4.248
G1 Y55.0
G2 X10.56554 Y57.5 I4.248 J0.0
G2 X9.752 Y60.0 I3.43446 J2.5
G1 Y95.0
G2 X14.0 Y99.248 I4.248 J0.0
G1 X43.0
G2 X47.248 Y95.0 I0.0 J-4.248
G1 Y60.0
G2 X47.18022 Y59.24418 I-4.248 J0.0
G2 X47.40752 Y59.22841 I-0.18022 J-4.24418
G0 Z3.0
G0 X73.248
G1 F300.0 Z-6.5
G1 F800.0 Y16.0
G2 X68.0 Y10.752 I-5.248 J0.0
G1 X52.0
G2 X49.5 Y11.38573 I0.0 J5.248
G2 X47.0 Y10.752 I-2.5 J4.61427
G1 X14.0
G2 X8.752 Y16.0 I0.0 J5.248
G1 Y55.0
G2 X9.38573 Y57.5 I5.248 J0.0
G2 X8.752 Y60.0 I4.61427 J2.5
G1 Y95.0
G2 X14.0 Y100.248 I5.248 J0.0
G1 X43.0
G2 X47.79304 Y97.13735 I0.0 J-5.248
G2 X52.0 Y99.248 I4.20696 J-3.13735
G1 X68.0
G2 X73.248 Y94.0 I0.0 J-5.248
G1 Y59.22841
G1 F300.0 X73.75
G1 F800.0 Y6.25
G1 X6.25
G1 Y103.75
G1 X73.75
G1 Y59.22841
G1 F300.0 X74.75
G1 F800.0 Y5.25
G1 X5.25
G1 Y104.75
G1 X74.75
G1 Y59.22841
G1 F300.0 X75.75
G1 F800.0 Y4.25
G1 X4.25
G1 Y105.75
G1 X75.75
G1 Y59.22841
G1 F300.0 X76.75
G1 F800.0 Y3.25
G1 X3.25
G1 Y106.75
G1 X76.75
G1 Y59.22841
G1 F300.0 X77.75
G1 F800.0 Y2.25
G1 X2.25
G1 Y107.75
G1 X77.75
G1 Y59.22841
G0 Z3.0
G0 X71.75 Y100.2025
G1 F300.0 Z-8.5
G3 F800.0 X68.0 Y101.248 I-3.75 J-6.2025
G1 X52.0
G3 X48.12502 Y100.1252 I0.0 J-7.248
G3 X45.64027 Y101.75 I-5.12502 J-5.1252
G1 X71.75
G1 Y100.2025
G0 Z3.0
G0 X11.35973 Y101.75
G1 F300.0 Z-8.5
G3 F800.0 X8.25 Y99.4126 I2.64027 J-6.75
G1 Y101.75
G1 X11.35973
G0 Z3.0
G0 X9.25 Y9.25708
G1 F300.0 Z-8.5
G3 F800.0 X9.26006 Y9.25 I4.75 J6.74292
G1 X9.25
G1 Y9.25708
G1 F300.0 X9.8259 Y10.0746
G3 F800.0 X14.0 Y8.752 I4.1741 J5.9254
G1 X47.0
G3 X49.5 Y9.1968 I0.0 J7.248
G3 X52.0 Y8.752 I2.5 J6.8032
G1 X68.0
G3 X71.75 Y9.7975 I0.0 J7.248
G1 Y8.25
G1 X8.25
G1 Y11.5874
G3 X9.8259 Y10.0746 I5.75 J4.4126
G1 F300.0 X10.40179 Y10.89212
G3 F800.0 X14.0 Y9.752 I3.59821 J5.10788
G1 X47.0
G3 X49.5 Y10.27396 I0.0 J6.248
G3 X52.0 Y9.752 I2.5 J5.72604
G1 X68.0
G3 X72.75 Y11.94106 I0.0 J6.248
G1 Y7.25
G1 X7.25
G1 Y102.75
G1 X72.75
G1 Y98.05894
G3 X68.0 Y100.248 I-4.75 J-4.05894
G1 X52.0
G3 X47.97547 Y98.77919 I0.0 J-6.248
G3 X43.0 Y101.248 I-4.97547 J-3.77919
G1 X14.0
G3 X7.752 Y95.0 I0.0 J-6.248
G1 Y60.0
G3 X8.27396 Y57.5 I6.248 J0.0
G3 X7.752 Y55.0 I5.72604 J-2.5
G1 Y16.0
G3 X10.40179 Y10.89212 I6.248 J0.0
G0 Z3.0
G0 X12.70538 Y14.16221
G1 F300.0 Z-8.5
G3 F800.0 X14.0 Y13.752 I1.29462 J1.83779
G1 X47.0
G3 X49.248 Y16.0 I0.0 J2.248
G1 Y55.0
G3 X47.0 Y57.248 I-2.248 J0.0
G1 X14.0
G3 X11.752 Y55.0 I0.0 J-2.248
G1 Y16.0
G3 X12.70538 Y14.16221 I2.248 J0.0
G1 F300.0 X13.28013 Y14.9781
G3 F800.0 X14.0 Y14.75 I0.71987 J1.0219
G1 X47.0
G3 X48.25 Y16.0 I0.0 J1.25
G1 Y55.0
G3 X47.0 Y56.25 I-1.25 J0.0
G1 X14.0
G3 X12.75 Y55.0 I0.0 J-1.25
G1 Y16.0
G3 X13.28013 Y14.9781 I1.25 J0.0
G0 Z3.0
G0 X49.75278 Y15.94069
G1 F300.0 Z-8.5
G3 F800.0 X52.0 Y13.752 I2.24722 J0.05931
G1 X68.0
G3 X70.248 Y16.0 I0.0 J2.248
G1 Y94.0
G3 X68.0 Y96.248 I-2.248 J0.0
G1 X52.0
G3 X49.752 Y94.0 I0.0 J-2.248
G1 Y16.0
G3 X49.75278 Y15.94069 I2.248 J0.0
G1 F300.0 X50.75044 Y15.96702
G3 F800.0 X52.0 Y14.75 I1.24956 J0.03298
G1 X68.0
G3 X69.25 Y16.0 I0.0 J1.25
G1 Y94.0
G3 X68.0 Y95.25 I-1.25 J0.0
G1 X52.0
G3 X50.75 Y94.0 I0.0 J-1.25
G1 Y16.0
G3 X50.75044 Y15.96702 I1.25 J0.0
G0 Z3.0
G0 X43.38969 Y57.78603
G1 F300.0 Z-8.5
G3 F800.0 X45.248 Y60.0 I-0.38969 J2.21397
G1 Y95.0
G3 X43.0 Y97.248 I-2.248 J0.0
G1 X14.0
G3 X11.752 Y95.0 I0.0 J-2.248
G1 Y60.0
G3 X14.0 Y57.752 I2.248 J0.0
G1 X43.0
G3 X43.38969 Y57.78603 I0.0 J2.248
G1 F300.0 X43.21669 Y58.76892
G3 F800.0 X44.25 Y60.0 I-0.21669 J1.23108
G1 Y95.0
G3 X43.0 Y96.25 I-1.25 J0.0
G1 X14.0
G3 X12.75 Y95.0 I0.0 J-1.25
G1 Y60.0
G3 X14.0 Y58.75 I1.25 J0.0
G1 X43.0
G3 X43.21669 Y58.76892 I0.0 J1.25
G0 Z3.0
G0 X45.73496 Y58.248
G1 F300.0 Z-8.5
G1 F800.0 X47.0
G2 X48.752 Y57.73496 I0.0 J-3.248
G1 Y94.0
G2 X52.0 Y97.248 I3.248 J0.0
G1 X68.0
G2 X71.248 Y94.0 I0.0 J-3.248
G1 Y16.0
G2 X68.0 Y12.752 I-3.248 J0.0
G1 X52.0
G2 X49.5 Y13.92648 I0.0 J3.248
G2 X47.0 Y12.752 I-2.5 J2.07352
G1 X14.0
G2 X10.752 Y16.0 I0.0 J3.248
G1 Y55.0
G2 X11.92648 Y57.5 I3.248 J0.0
G2 X10.752 Y60.0 I2.07352 J2.5
G1 Y95.0
G2 X14.0 Y98.248 I3.248 J0.0
G1 X43.0
G2 X46.248 Y95.0 I0.0 J-3.248
G1 Y60.0
G2 X45.73496 Y58.248 I-3.248 J0.0
G0 Z3.0
G0 X47.18022 Y59.24418
G1 F300.0 Z-8.5
G2 F800.0 X47.752 Y59.18091 I-0.18022 J-4.24418
G1 Y94.0
G2 X52.0 Y98.248 I4.248 J0.0
G1 X68.0
G2 X72.248 Y94.0 I0.0 J-4.248
G1 Y16.0
G2 X68.0 Y11.752 I-4.248 J0.0
G1 X52.0
G2 X49.5 Y12.56554 I0.0 J4.248
G2 X47.0 Y11.752 I-2.5 J3.43446
G1 X14.0
G2 X9.752 Y16.0 I0.0 J4.248
G1 Y55.0
G2 X10.56554 Y57.5 I4.248 J0.0
G2 X9.752 Y60.0 I3.43446 J2.5
G1 Y95.0
G2 X14.0 Y99.248 I4.248 J0.0
G1 X43.0
G2 X47.248 Y95.0 I0.0 J-4.248
G1 Y60.0
G2 X47.18022 Y59.24418 I-4.248 J0.0
G0 Z3.0
G0 X73.248
G1 F300.0 Z-8.5
G1 F800.0 Y16.0
G2 X68.0 Y10.752 I-5.248 J0.0
G1 X52.0
G2 X49.5 Y11.38573 I0.0 J5.248
G2 X47.0 Y10.752 I-2.5 J4.61427
G1 X14.0
G2 X8.752 Y16.0 I0.0 J5.248
G1 Y55.0
G2 X9.38573 Y57.5 I5.248 J0.0
G2 X8.752 Y60.0 I4.61427 J2.5
G1 Y95.0
G2 X14.0 Y100.248 I5.248 J0.0
G1 X43.0
G2 X47.79304 Y97.13735 I0.0 J-5.248
G2 X52.0 Y99.248 I4.20696 J-3.13735
G1 X68.0
G2 X73.248 Y94.0 I0.0 J-5.248
G1 Y59.24418
G1 F300.0 X73.75
G1 F800.0 Y6.25
G1 X6.25
G1 Y103.75
G1 X73.75
G1 Y59.24418
G1 F300.0 X74.75
G1 F800.0 Y5.25
G1 X5.25
G1 Y104.75
G1 X74.75
G1 Y59.24418
G1 F300.0 X75.75
G1 F800.0 Y4.25
G1 X4.25
G1 Y105.75
G1 X75.75
G1 Y59.24418
G1 F300.0 X76.75
G1 F800.0 Y3.25
G1 X3.25
G1 Y106.75
G1 X76.75
G1 Y59.24418
G1 F300.0 X77.75
G1 F800.0 Y2.25
G1 X2.25
G1 Y107.75
G1 X77.75
G1 Y59.24418
G0 Z3.0
G0 X71.75 Y100.2025
G1 F300.0 Z-10.0
G3 F800.0 X68.0 Y101.248 I-3.75 J-6.2025
G1 X52.0
G3 X48.12502 Y100.1252 I0.0 J-7.248
G3 X45.64027 Y101.75 I-5.12502 J-5.1252
G1 X71.75
G1 Y100.2025
G0 Z3.0
G0 X11.35973 Y101.75
G1 F300.0 Z-10.0
G3 F800.0 X8.25 Y99.4126 I2.64027 J-6.75
G1 Y101.75
G1 X11.35973
G0 Z3.0
G0 X9.25 Y9.25708
G1 F300.0 Z-10.0
G3 F800.0 X9.26006 Y9.25 I4.75 J6.74292
G1 X9.25
G1 Y9.25708
G1 F300.0 X9.8259 Y10.0746
G3 F800.0 X14.0 Y8.752 I4.1741 J5.9254
G1 X47.0
G3 X49.5 Y9.1968 I0.0 J7.248
G3 X52.0 Y8.752 I2.5 J6.8032
G1 X68.0
G3 X71.75 Y9.7975 I0.0 J7.248
G1 Y8.25
G1 X8.25
G1 Y11.5874
G3 X9.8259 Y10.0746 I5.75 J4.4126
G1 F300.0 X10.40179 Y10.89212
G3 F800.0 X14.0 Y9.752 I3.59821 J5.10788
G1 X47.0
G3 X49.5 Y10.27396 I0.0 J6.248
G3 X52.0 Y9.752 I2.5 J5.72604
G1 X68.0
G3 X72.75 Y11.94106 I0.0 J6.248
G1 Y7.25
G1 X7.25
G1 Y102.75
G1 X72.75
G1 Y98.05894
G3 X68.0 Y100.248 I-4.75 J-4.05894
G1 X52.0
G3 X47.97547 Y98.77919 I0.0 J-6.248
G3 X43.0 Y101.248 I-4.97547 J-3.77919
G1 X14.0
G3 X7.752 Y95.0 I0.0 J-6.248
G1 Y60.0
G3 X8.27396 Y57.5 I6.248 J0.0
G3 X7.752 Y55.0 I5.72604 J-2.5
G1 Y16.0
G3 X10.40179 Y10.89212 I6.248 J0.0
G0 Z3.0
G0 X12.70538 Y14.16221
G1 F300.0 Z-10.0
G3 F800.0 X14.0 Y13.752 I1.29462 J1.83779
G1 X47.0
G3 X49.248 Y16.0 I0.0 J2.248
G1 Y55.0
G3 X47.0 Y57.248 I-2.248 J0.0
G1 X14.0
G3 X11.752 Y55.0 I0.0 J-2.248
G1 Y16.0
G3 X12.70538 Y14.16221 I2.248 J0.0
G1 F300.0 X13.28013 Y14.9781
G3 F800.0 X14.0 Y14.75 I0.71987 J1.0219
G1 X47.0
G3 X48.25 Y16.0 I0.0 J1.25
G1 Y55.0
G3 X47.0 Y56.25 I-1.25 J0.0
G1 X14.0
G3 X12.75 Y55.0 I0.0 J-1.25
G1 Y16.0
G3 X13.28013 Y14.9781 I1.25 J0.0
G0 Z3.0
G0 X49.75278 Y15.94069
G1 F300.0 Z-10.0
G3 F800.0 X52.0 Y13.752 I2.24722 J0.05931
G1 X68.0
G3 X70.248 Y16.0 I0.0 J2.248
G1 Y94.0
G3 X68.0 Y96.248 I-2.248 J0.0
G1 X52.0
G3 X49.752 Y94.0 I0.0 J-2.248
G1 Y16.0
G3 X49.75278 Y15.94069 I2.248 J0.0
G1 F300.0 X50.75044 Y15.96702
G3 F800.0 X52.0 Y14.75 I1.24956 J0.03298
G1 X68.0
G3 X69.25 Y16.0 I0.0 J1.25
G1 Y94.0
G3 X68.0 Y95.25 I-1.25 J0.0
G1 X52.0
G3 X50.75 Y94.0 I0.0 J-1.25
G1 Y16.0
G3 X50.75044 Y15.96702 I1.25 J0.0
G0 Z3.0
G0 X43.38969 Y57.78603
G1 F300.0 Z-10.0
G3 F800.0 X45.248 Y60.0 I-0.38969 J2.21397
G1 Y95.0
G3 X43.0 Y97.248 I-2.248 J0.0
G1 X14.0
G3 X11.752 Y95.0 I0.0 J-2.248
G1 Y60.0
G3 X14.0 Y57.752 I2.248 J0.0
G1 X43.0
G3 X43.38969 Y57.78603 I0.0 J2.248
G1 F300.0 X43.21669 Y58.76892
G3 F800.0 X44.25 Y60.0 I-0.21669 J1.23108
G1 Y95.0
G3 X43.0 Y96.25 I-1.25 J0.0
G1 X14.0
G3 X12.75 Y95.0 I0.0 J-1.25
G1 Y60.0
G3 X14.0 Y58.75 I1.25 J0.0
G1 X43.0
G3 X43.21669 Y58.76892 I0.0 J1.25
G0 Z3.0
G0 X45.73496 Y58.248
G1 F300.0 Z-10.0
G1 F800.0 X47.0
G2 X48.752 Y57.73496 I0.0 J-3.248
G1 Y94.0
G2 X52.0 Y97.248 I3.248 J0.0
G1 X68.0
G2 X71.248 Y94.0 I0.0 J-3.248
G1 Y16.0
G2 X68.0 Y12.752 I-3.248 J0.0
G1 X52.0
G2 X49.5 Y13.92648 I0.0 J3.248
G2 X47.0 Y12.752 I-2.5 J2.07352
G1 X14.0
G2 X10.752 Y16.0 I0.0 J3.248
G1 Y55.0
G2 X11.92648 Y57.5 I3.248 J0.0
G2 X10.752 Y60.0 I2.07352 J2.5
G1 Y95.0
G2 X14.0 Y98.248 I3.248 J0.0
G1 X43.0
G2 X46.248 Y95.0 I0.0 J-3.248
G1 Y60.0
G2 X45.73496 Y58.248 I-3.248 J0.0
G0 Z3.0
G0 X47.18022 Y59.24418
G1 F300.0 Z-10.0
G2 F800.0 X47.752 Y59.18091 I-0.18022 J-4.24418
G1 Y94.0
G2 X52.0 Y98.248 I4.248 J0.0
G1 X68.0
G2 X72.248 Y94.0 I0.0 J-4.248
G1 Y16.0
G2 X68.0 Y11.752 I-4.248 J0.0
G1 X52.0
G2 X49.5 Y12.56554 I0.0 J4.248
G2 X47.0 Y11.752 I-2.5 J3.43446
G1 X14.0
G2 X9.752 Y16.0 I0.0 J4.248
G1 Y55.0
G2 X10.56554 Y57.5 I4.248 J0.0
G2 X9.752 Y60.0 I3.43446 J2.5
G1 Y95.0
G2 X14.0 Y99.248 I4.248 J0.0
G1 X43.0
G2 X47.248 Y95.0 I0.0 J-4.248
G1 Y60.0
G2 X47.18022 Y59.24418 I-4.248 J0.0
G0 Z3.0
G0 X73.248
G1 F300.0 Z-10.0
G1 F800.0 Y16.0
G2 X68.0 Y10.752 I-5.248 J0.0
G1 X52.0
G2 X49.5 Y11.38573 I0.0 J5.248
G2 X47.0 Y10.752 I-2.5 J4.61427
G1 X14.0
G2 X8.752 Y16.0 I0.0 J5.248
G1 Y55.0
G2 X9.38573 Y57.5 I5.248 J0.0
G2 X8.752 Y60.0 I4.61427 J2.5
G1 Y95.0
G2 X14.0 Y100.248 I5.248 J0.0
G1 X43.0
G2 X47.79304 Y97.13735 I0.0 J-5.248
G2 X52.0 Y99.248 I4.20696 J-3.13735
G1 X68.0
G2 X73.248 Y94.0 I0.0 J-5.248
G1 Y59.24418
G1 F300.0 X73.75
G1 F800.0 Y6.25
G1 X6.25
G1 Y103.75
G1 X73.75
G1 Y59.24418
G1 F300.0 X74.75
G1 F800.0 Y5.25
G1 X5.25
G1 Y104.75
G1 X74.75
G1 Y59.24418
G1 F300.0 X75.75
G1 F800.0 Y4.25
G1 X4.25
G1 Y105.75
G1 X75.75
G1 Y59.24418
G1 F300.0 X76.75
G1 F800.0 Y3.25
G1 X3.25
G1 Y106.75
G1 X76.75
G1 Y59.24418
G1 F300.0 X77.75
G1 F800.0 Y2.25
G1 X2.25
G1 Y107.75
G1 X77.75
G1 Y59.24418
G0 Z3.0
M5
M30
