( Made using CamBam - http://www.cambam.co.uk )
( PCB-12x12-stand-2 10/1/2016 12:46:13 PM )
( T0 : 3.12 )
G21 G90 G64 G40
G0 Z15.0
( T0 : 3.12 )
T0 M6
( Pocket1-head )
G61 G17
M3 S10001
G0 X11.196 Y14.5
G1 F30.0 Z-2.0
G2 F300.0 X9.402 Y13.4642 I-1.196 J0.0
G2 Y15.5358 I0.598 J1.0358
G2 X11.196 Y14.5 I0.598 J-1.0358
G1 F30.0 X12.444
G2 F300.0 X8.778 Y12.3834 I-2.444 J0.0
G2 Y16.6166 I1.222 J2.1166
G2 X12.444 Y14.5 I1.222 J-2.1166
G1 F30.0 X13.692
G2 F300.0 X8.154 Y11.3026 I-3.692 J0.0
G2 Y17.6974 I1.846 J3.1974
G2 X13.692 Y14.5 I1.846 J-3.1974
G1 F30.0 X14.94
G2 F300.0 X7.53 Y10.2218 I-4.94 J0.0
G2 Y18.7782 I2.47 J4.2782
G2 X14.94 Y14.5 I2.47 J-4.2782
G0 Z15.0
G0 X11.196
G1 F30.0 Z-4.0
G2 F300.0 X9.402 Y13.4642 I-1.196 J0.0
G2 Y15.5358 I0.598 J1.0358
G2 X11.196 Y14.5 I0.598 J-1.0358
G1 F30.0 X12.444
G2 F300.0 X8.778 Y12.3834 I-2.444 J0.0
G2 Y16.6166 I1.222 J2.1166
G2 X12.444 Y14.5 I1.222 J-2.1166
G1 F30.0 X13.692
G2 F300.0 X8.154 Y11.3026 I-3.692 J0.0
G2 Y17.6974 I1.846 J3.1974
G2 X13.692 Y14.5 I1.846 J-3.1974
G1 F30.0 X14.94
G2 F300.0 X7.53 Y10.2218 I-4.94 J0.0
G2 Y18.7782 I2.47 J4.2782
G2 X14.94 Y14.5 I2.47 J-4.2782
G0 Z15.0
G0 X11.196
G1 F30.0 Z-6.0
G2 F300.0 X9.402 Y13.4642 I-1.196 J0.0
G2 Y15.5358 I0.598 J1.0358
G2 X11.196 Y14.5 I0.598 J-1.0358
G1 F30.0 X12.444
G2 F300.0 X8.778 Y12.3834 I-2.444 J0.0
G2 Y16.6166 I1.222 J2.1166
G2 X12.444 Y14.5 I1.222 J-2.1166
G1 F30.0 X13.692
G2 F300.0 X8.154 Y11.3026 I-3.692 J0.0
G2 Y17.6974 I1.846 J3.1974
G2 X13.692 Y14.5 I1.846 J-3.1974
G1 F30.0 X14.94
G2 F300.0 X7.53 Y10.2218 I-4.94 J0.0
G2 Y18.7782 I2.47 J4.2782
G2 X14.94 Y14.5 I2.47 J-4.2782
G0 Z15.0
G0 X11.196
G1 F30.0 Z-8.0
G2 F300.0 X9.402 Y13.4642 I-1.196 J0.0
G2 Y15.5358 I0.598 J1.0358
G2 X11.196 Y14.5 I0.598 J-1.0358
G1 F30.0 X12.444
G2 F300.0 X8.778 Y12.3834 I-2.444 J0.0
G2 Y16.6166 I1.222 J2.1166
G2 X12.444 Y14.5 I1.222 J-2.1166
G1 F30.0 X13.692
G2 F300.0 X8.154 Y11.3026 I-3.692 J0.0
G2 Y17.6974 I1.846 J3.1974
G2 X13.692 Y14.5 I1.846 J-3.1974
G1 F30.0 X14.94
G2 F300.0 X7.53 Y10.2218 I-4.94 J0.0
G2 Y18.7782 I2.47 J4.2782
G2 X14.94 Y14.5 I2.47 J-4.2782
G0 Z15.0
G0 X11.196
G1 F30.0 Z-10.0
G2 F300.0 X9.402 Y13.4642 I-1.196 J0.0
G2 Y15.5358 I0.598 J1.0358
G2 X11.196 Y14.5 I0.598 J-1.0358
G1 F30.0 X12.444
G2 F300.0 X8.778 Y12.3834 I-2.444 J0.0
G2 Y16.6166 I1.222 J2.1166
G2 X12.444 Y14.5 I1.222 J-2.1166
G1 F30.0 X13.692
G2 F300.0 X8.154 Y11.3026 I-3.692 J0.0
G2 Y17.6974 I1.846 J3.1974
G2 X13.692 Y14.5 I1.846 J-3.1974
G1 F30.0 X14.94
G2 F300.0 X7.53 Y10.2218 I-4.94 J0.0
G2 Y18.7782 I2.47 J4.2782
G2 X14.94 Y14.5 I2.47 J-4.2782
( Profile1 )
S10001
G0 Z15.0
G0 X11.39
G1 F30.0 Z-17.0
G2 F300.0 X9.305 Y13.2962 I-1.39 J0.0
G2 Y15.7038 I0.695 J1.2038
G2 X11.39 Y14.5 I0.695 J-1.2038
G1 F30.0 Z-19.0
G2 F300.0 X9.305 Y13.2962 I-1.39 J0.0
G2 Y15.7038 I0.695 J1.2038
G2 X11.39 Y14.5 I0.695 J-1.2038
G1 F30.0 Z-21.0
G2 F300.0 X9.305 Y13.2962 I-1.39 J0.0
G2 Y15.7038 I0.695 J1.2038
G2 X11.39 Y14.5 I0.695 J-1.2038
( Pocket2-head )
S10001
G0 Z15.0
G0 X11.196 Y285.5
G1 F30.0 Z-2.0
G2 F300.0 X9.402 Y284.4642 I-1.196 J0.0
G2 Y286.5358 I0.598 J1.0358
G2 X11.196 Y285.5 I0.598 J-1.0358
G1 F30.0 X12.444
G2 F300.0 X8.778 Y283.3834 I-2.444 J0.0
G2 Y287.6166 I1.222 J2.1166
G2 X12.444 Y285.5 I1.222 J-2.1166
G1 F30.0 X13.692
G2 F300.0 X8.154 Y282.3026 I-3.692 J0.0
G2 Y288.6974 I1.846 J3.1974
G2 X13.692 Y285.5 I1.846 J-3.1974
G1 F30.0 X14.94
G2 F300.0 X7.53 Y281.2218 I-4.94 J0.0
G2 Y289.7782 I2.47 J4.2782
G2 X14.94 Y285.5 I2.47 J-4.2782
G0 Z15.0
G0 X11.196
G1 F30.0 Z-4.0
G2 F300.0 X9.402 Y284.4642 I-1.196 J0.0
G2 Y286.5358 I0.598 J1.0358
G2 X11.196 Y285.5 I0.598 J-1.0358
G1 F30.0 X12.444
G2 F300.0 X8.778 Y283.3834 I-2.444 J0.0
G2 Y287.6166 I1.222 J2.1166
G2 X12.444 Y285.5 I1.222 J-2.1166
G1 F30.0 X13.692
G2 F300.0 X8.154 Y282.3026 I-3.692 J0.0
G2 Y288.6974 I1.846 J3.1974
G2 X13.692 Y285.5 I1.846 J-3.1974
G1 F30.0 X14.94
G2 F300.0 X7.53 Y281.2218 I-4.94 J0.0
G2 Y289.7782 I2.47 J4.2782
G2 X14.94 Y285.5 I2.47 J-4.2782
G0 Z15.0
G0 X11.196
G1 F30.0 Z-6.0
G2 F300.0 X9.402 Y284.4642 I-1.196 J0.0
G2 Y286.5358 I0.598 J1.0358
G2 X11.196 Y285.5 I0.598 J-1.0358
G1 F30.0 X12.444
G2 F300.0 X8.778 Y283.3834 I-2.444 J0.0
G2 Y287.6166 I1.222 J2.1166
G2 X12.444 Y285.5 I1.222 J-2.1166
G1 F30.0 X13.692
G2 F300.0 X8.154 Y282.3026 I-3.692 J0.0
G2 Y288.6974 I1.846 J3.1974
G2 X13.692 Y285.5 I1.846 J-3.1974
G1 F30.0 X14.94
G2 F300.0 X7.53 Y281.2218 I-4.94 J0.0
G2 Y289.7782 I2.47 J4.2782
G2 X14.94 Y285.5 I2.47 J-4.2782
G0 Z15.0
G0 X11.196
G1 F30.0 Z-8.0
G2 F300.0 X9.402 Y284.4642 I-1.196 J0.0
G2 Y286.5358 I0.598 J1.0358
G2 X11.196 Y285.5 I0.598 J-1.0358
G1 F30.0 X12.444
G2 F300.0 X8.778 Y283.3834 I-2.444 J0.0
G2 Y287.6166 I1.222 J2.1166
G2 X12.444 Y285.5 I1.222 J-2.1166
G1 F30.0 X13.692
G2 F300.0 X8.154 Y282.3026 I-3.692 J0.0
G2 Y288.6974 I1.846 J3.1974
G2 X13.692 Y285.5 I1.846 J-3.1974
G1 F30.0 X14.94
G2 F300.0 X7.53 Y281.2218 I-4.94 J0.0
G2 Y289.7782 I2.47 J4.2782
G2 X14.94 Y285.5 I2.47 J-4.2782
G0 Z15.0
G0 X11.196
G1 F30.0 Z-10.0
G2 F300.0 X9.402 Y284.4642 I-1.196 J0.0
G2 Y286.5358 I0.598 J1.0358
G2 X11.196 Y285.5 I0.598 J-1.0358
G1 F30.0 X12.444
G2 F300.0 X8.778 Y283.3834 I-2.444 J0.0
G2 Y287.6166 I1.222 J2.1166
G2 X12.444 Y285.5 I1.222 J-2.1166
G1 F30.0 X13.692
G2 F300.0 X8.154 Y282.3026 I-3.692 J0.0
G2 Y288.6974 I1.846 J3.1974
G2 X13.692 Y285.5 I1.846 J-3.1974
G1 F30.0 X14.94
G2 F300.0 X7.53 Y281.2218 I-4.94 J0.0
G2 Y289.7782 I2.47 J4.2782
G2 X14.94 Y285.5 I2.47 J-4.2782
( Profile3 )
S10001
G0 Z15.0
G0 X11.39
G1 F30.0 Z-17.0
G2 F300.0 X9.305 Y284.2962 I-1.39 J0.0
G2 Y286.7038 I0.695 J1.2038
G2 X11.39 Y285.5 I0.695 J-1.2038
G1 F30.0 Z-19.0
G2 F300.0 X9.305 Y284.2962 I-1.39 J0.0
G2 Y286.7038 I0.695 J1.2038
G2 X11.39 Y285.5 I0.695 J-1.2038
G1 F30.0 Z-21.0
G2 F300.0 X9.305 Y284.2962 I-1.39 J0.0
G2 Y286.7038 I0.695 J1.2038
G2 X11.39 Y285.5 I0.695 J-1.2038
( Pocket3-head )
S10001
G0 Z15.0
G0 X291.196 Y14.5
G1 F30.0 Z-2.0
G2 F300.0 X289.402 Y13.4642 I-1.196 J0.0
G2 Y15.5358 I0.598 J1.0358
G2 X291.196 Y14.5 I0.598 J-1.0358
G1 F30.0 X292.444
G2 F300.0 X288.778 Y12.3834 I-2.444 J0.0
G2 Y16.6166 I1.222 J2.1166
G2 X292.444 Y14.5 I1.222 J-2.1166
G1 F30.0 X293.692
G2 F300.0 X288.154 Y11.3026 I-3.692 J0.0
G2 Y17.6974 I1.846 J3.1974
G2 X293.692 Y14.5 I1.846 J-3.1974
G1 F30.0 X294.94
G2 F300.0 X287.53 Y10.2218 I-4.94 J0.0
G2 Y18.7782 I2.47 J4.2782
G2 X294.94 Y14.5 I2.47 J-4.2782
G0 Z15.0
G0 X291.196
G1 F30.0 Z-4.0
G2 F300.0 X289.402 Y13.4642 I-1.196 J0.0
G2 Y15.5358 I0.598 J1.0358
G2 X291.196 Y14.5 I0.598 J-1.0358
G1 F30.0 X292.444
G2 F300.0 X288.778 Y12.3834 I-2.444 J0.0
G2 Y16.6166 I1.222 J2.1166
G2 X292.444 Y14.5 I1.222 J-2.1166
G1 F30.0 X293.692
G2 F300.0 X288.154 Y11.3026 I-3.692 J0.0
G2 Y17.6974 I1.846 J3.1974
G2 X293.692 Y14.5 I1.846 J-3.1974
G1 F30.0 X294.94
G2 F300.0 X287.53 Y10.2218 I-4.94 J0.0
G2 Y18.7782 I2.47 J4.2782
G2 X294.94 Y14.5 I2.47 J-4.2782
G0 Z15.0
G0 X291.196
G1 F30.0 Z-6.0
G2 F300.0 X289.402 Y13.4642 I-1.196 J0.0
G2 Y15.5358 I0.598 J1.0358
G2 X291.196 Y14.5 I0.598 J-1.0358
G1 F30.0 X292.444
G2 F300.0 X288.778 Y12.3834 I-2.444 J0.0
G2 Y16.6166 I1.222 J2.1166
G2 X292.444 Y14.5 I1.222 J-2.1166
G1 F30.0 X293.692
G2 F300.0 X288.154 Y11.3026 I-3.692 J0.0
G2 Y17.6974 I1.846 J3.1974
G2 X293.692 Y14.5 I1.846 J-3.1974
G1 F30.0 X294.94
G2 F300.0 X287.53 Y10.2218 I-4.94 J0.0
G2 Y18.7782 I2.47 J4.2782
G2 X294.94 Y14.5 I2.47 J-4.2782
G0 Z15.0
G0 X291.196
G1 F30.0 Z-8.0
G2 F300.0 X289.402 Y13.4642 I-1.196 J0.0
G2 Y15.5358 I0.598 J1.0358
G2 X291.196 Y14.5 I0.598 J-1.0358
G1 F30.0 X292.444
G2 F300.0 X288.778 Y12.3834 I-2.444 J0.0
G2 Y16.6166 I1.222 J2.1166
G2 X292.444 Y14.5 I1.222 J-2.1166
G1 F30.0 X293.692
G2 F300.0 X288.154 Y11.3026 I-3.692 J0.0
G2 Y17.6974 I1.846 J3.1974
G2 X293.692 Y14.5 I1.846 J-3.1974
G1 F30.0 X294.94
G2 F300.0 X287.53 Y10.2218 I-4.94 J0.0
G2 Y18.7782 I2.47 J4.2782
G2 X294.94 Y14.5 I2.47 J-4.2782
G0 Z15.0
G0 X291.196
G1 F30.0 Z-10.0
G2 F300.0 X289.402 Y13.4642 I-1.196 J0.0
G2 Y15.5358 I0.598 J1.0358
G2 X291.196 Y14.5 I0.598 J-1.0358
G1 F30.0 X292.444
G2 F300.0 X288.778 Y12.3834 I-2.444 J0.0
G2 Y16.6166 I1.222 J2.1166
G2 X292.444 Y14.5 I1.222 J-2.1166
G1 F30.0 X293.692
G2 F300.0 X288.154 Y11.3026 I-3.692 J0.0
G2 Y17.6974 I1.846 J3.1974
G2 X293.692 Y14.5 I1.846 J-3.1974
G1 F30.0 X294.94
G2 F300.0 X287.53 Y10.2218 I-4.94 J0.0
G2 Y18.7782 I2.47 J4.2782
G2 X294.94 Y14.5 I2.47 J-4.2782
( Profile2 )
S10001
G0 Z15.0
G0 X291.39
G1 F30.0 Z-17.0
G2 F300.0 X289.305 Y13.2962 I-1.39 J0.0
G2 Y15.7038 I0.695 J1.2038
G2 X291.39 Y14.5 I0.695 J-1.2038
G1 F30.0 Z-19.0
G2 F300.0 X289.305 Y13.2962 I-1.39 J0.0
G2 Y15.7038 I0.695 J1.2038
G2 X291.39 Y14.5 I0.695 J-1.2038
G1 F30.0 Z-21.0
G2 F300.0 X289.305 Y13.2962 I-1.39 J0.0
G2 Y15.7038 I0.695 J1.2038
G2 X291.39 Y14.5 I0.695 J-1.2038
( Pocket4-head )
S10001
G0 Z15.0
G0 X291.196 Y285.5
G1 F30.0 Z-2.0
G2 F300.0 X289.402 Y284.4642 I-1.196 J0.0
G2 Y286.5358 I0.598 J1.0358
G2 X291.196 Y285.5 I0.598 J-1.0358
G1 F30.0 X292.444
G2 F300.0 X288.778 Y283.3834 I-2.444 J0.0
G2 Y287.6166 I1.222 J2.1166
G2 X292.444 Y285.5 I1.222 J-2.1166
G1 F30.0 X293.692
G2 F300.0 X288.154 Y282.3026 I-3.692 J0.0
G2 Y288.6974 I1.846 J3.1974
G2 X293.692 Y285.5 I1.846 J-3.1974
G1 F30.0 X294.94
G2 F300.0 X287.53 Y281.2218 I-4.94 J0.0
G2 Y289.7782 I2.47 J4.2782
G2 X294.94 Y285.5 I2.47 J-4.2782
G0 Z15.0
G0 X291.196
G1 F30.0 Z-4.0
G2 F300.0 X289.402 Y284.4642 I-1.196 J0.0
G2 Y286.5358 I0.598 J1.0358
G2 X291.196 Y285.5 I0.598 J-1.0358
G1 F30.0 X292.444
G2 F300.0 X288.778 Y283.3834 I-2.444 J0.0
G2 Y287.6166 I1.222 J2.1166
G2 X292.444 Y285.5 I1.222 J-2.1166
G1 F30.0 X293.692
G2 F300.0 X288.154 Y282.3026 I-3.692 J0.0
G2 Y288.6974 I1.846 J3.1974
G2 X293.692 Y285.5 I1.846 J-3.1974
G1 F30.0 X294.94
G2 F300.0 X287.53 Y281.2218 I-4.94 J0.0
G2 Y289.7782 I2.47 J4.2782
G2 X294.94 Y285.5 I2.47 J-4.2782
G0 Z15.0
G0 X291.196
G1 F30.0 Z-6.0
G2 F300.0 X289.402 Y284.4642 I-1.196 J0.0
G2 Y286.5358 I0.598 J1.0358
G2 X291.196 Y285.5 I0.598 J-1.0358
G1 F30.0 X292.444
G2 F300.0 X288.778 Y283.3834 I-2.444 J0.0
G2 Y287.6166 I1.222 J2.1166
G2 X292.444 Y285.5 I1.222 J-2.1166
G1 F30.0 X293.692
G2 F300.0 X288.154 Y282.3026 I-3.692 J0.0
G2 Y288.6974 I1.846 J3.1974
G2 X293.692 Y285.5 I1.846 J-3.1974
G1 F30.0 X294.94
G2 F300.0 X287.53 Y281.2218 I-4.94 J0.0
G2 Y289.7782 I2.47 J4.2782
G2 X294.94 Y285.5 I2.47 J-4.2782
G0 Z15.0
G0 X291.196
G1 F30.0 Z-8.0
G2 F300.0 X289.402 Y284.4642 I-1.196 J0.0
G2 Y286.5358 I0.598 J1.0358
G2 X291.196 Y285.5 I0.598 J-1.0358
G1 F30.0 X292.444
G2 F300.0 X288.778 Y283.3834 I-2.444 J0.0
G2 Y287.6166 I1.222 J2.1166
G2 X292.444 Y285.5 I1.222 J-2.1166
G1 F30.0 X293.692
G2 F300.0 X288.154 Y282.3026 I-3.692 J0.0
G2 Y288.6974 I1.846 J3.1974
G2 X293.692 Y285.5 I1.846 J-3.1974
G1 F30.0 X294.94
G2 F300.0 X287.53 Y281.2218 I-4.94 J0.0
G2 Y289.7782 I2.47 J4.2782
G2 X294.94 Y285.5 I2.47 J-4.2782
G0 Z15.0
G0 X291.196
G1 F30.0 Z-10.0
G2 F300.0 X289.402 Y284.4642 I-1.196 J0.0
G2 Y286.5358 I0.598 J1.0358
G2 X291.196 Y285.5 I0.598 J-1.0358
G1 F30.0 X292.444
G2 F300.0 X288.778 Y283.3834 I-2.444 J0.0
G2 Y287.6166 I1.222 J2.1166
G2 X292.444 Y285.5 I1.222 J-2.1166
G1 F30.0 X293.692
G2 F300.0 X288.154 Y282.3026 I-3.692 J0.0
G2 Y288.6974 I1.846 J3.1974
G2 X293.692 Y285.5 I1.846 J-3.1974
G1 F30.0 X294.94
G2 F300.0 X287.53 Y281.2218 I-4.94 J0.0
G2 Y289.7782 I2.47 J4.2782
G2 X294.94 Y285.5 I2.47 J-4.2782
( Profile4 )
S10001
G0 Z15.0
G0 X291.39
G1 F30.0 Z-17.0
G2 F300.0 X289.305 Y284.2962 I-1.39 J0.0
G2 Y286.7038 I0.695 J1.2038
G2 X291.39 Y285.5 I0.695 J-1.2038
G1 F30.0 Z-19.0
G2 F300.0 X289.305 Y284.2962 I-1.39 J0.0
G2 Y286.7038 I0.695 J1.2038
G2 X291.39 Y285.5 I0.695 J-1.2038
G1 F30.0 Z-21.0
G2 F300.0 X289.305 Y284.2962 I-1.39 J0.0
G2 Y286.7038 I0.695 J1.2038
G2 X291.39 Y285.5 I0.695 J-1.2038
G0 Z15.0

G0 X00.00 Y00.00

M5
M30
