( Made using CamBam - http://www.cambam.co.uk )
( PCB-Drill-Mount-v2 10/1/2016 10:20:02 PM )
( T0 : 3.1 )
G21 G90 G64 G40

(DAQ)
G0 X161Y157Z-26
G10 L20  P0 x0y0z20
(Pause @ 20 for bit insert.)
(M0)

(G0 Z10.0)
(DAQ)

( T0 : 3.1 )
T0 M6
( Drill1 )
G61 G17
M3 S10001
G0 X6.5 Y6.5
G0 Z10.0
G0 X6.7 Y6.5
G1 F300.0 Z0.0
G1 F30.0 Z0.0
G2 X6.4 Y6.3268 Z-1.6667 I-0.2 J0.0
G2 X6.3382 Y6.6176 Z-3.0 I0.1 J0.1732
G2 X6.6827 Y6.5813 I0.1618 J-0.1176
G2 X6.4791 Y6.3011 I-0.1827 J-0.0813
G2 X6.3382 Y6.6176 I0.0209 J0.1989
( Drill2 )
S10001
G0 Z10.0
G0 X93.5 Y6.5
G0 Z10.0
G0 X93.7 Y6.5
G1 F300.0 Z0.0
G1 F30.0 Z0.0
G2 X93.4 Y6.3268 Z-1.6667 I-0.2 J0.0
G2 X93.3382 Y6.6176 Z-3.0 I0.1 J0.1732
G2 X93.6827 Y6.5813 I0.1618 J-0.1176
G2 X93.4791 Y6.3011 I-0.1827 J-0.0813
G2 X93.3382 Y6.6176 I0.0209 J0.1989
( Drill3 )
S10001
G0 Z10.0
G0 X93.5 Y68.5
G0 Z10.0
G0 X93.7 Y68.5
G1 F300.0 Z0.0
G1 F30.0 Z0.0
G2 X93.4 Y68.3268 Z-1.6667 I-0.2 J0.0
G2 X93.3382 Y68.6176 Z-3.0 I0.1 J0.1732
G2 X93.6827 Y68.5813 I0.1618 J-0.1176
G2 X93.4791 Y68.3011 I-0.1827 J-0.0813
G2 X93.3382 Y68.6176 I0.0209 J0.1989
( Drill4 )
S10001
G0 Z10.0
G0 X6.5 Y68.5
G0 Z10.0
G0 X6.7 Y68.5
G1 F300.0 Z0.0
G1 F30.0 Z0.0
G2 X6.4 Y68.3268 Z-1.6667 I-0.2 J0.0
G2 X6.3382 Y68.6176 Z-3.0 I0.1 J0.1732
G2 X6.6827 Y68.5813 I0.1618 J-0.1176
G2 X6.4791 Y68.3011 I-0.1827 J-0.0813
G2 X6.3382 Y68.6176 I0.0209 J0.1989
( Drill5 )
S10001
G0 Z10.0
G0 X6.5 Y81.5
G0 Z10.0
G0 X6.7 Y81.5
G1 F300.0 Z0.0
G1 F30.0 Z0.0
G2 X6.4 Y81.3268 Z-1.6667 I-0.2 J0.0
G2 X6.3382 Y81.6176 Z-3.0 I0.1 J0.1732
G2 X6.6827 Y81.5813 I0.1618 J-0.1176
G2 X6.4791 Y81.3011 I-0.1827 J-0.0813
G2 X6.3382 Y81.6176 I0.0209 J0.1989
( Drill6 )
S10001
G0 Z10.0
G0 X93.5 Y81.5
G0 Z10.0
G0 X93.7 Y81.5
G1 F300.0 Z0.0
G1 F30.0 Z0.0
G2 X93.4 Y81.3268 Z-1.6667 I-0.2 J0.0
G2 X93.3382 Y81.6176 Z-3.0 I0.1 J0.1732
G2 X93.6827 Y81.5813 I0.1618 J-0.1176
G2 X93.4791 Y81.3011 I-0.1827 J-0.0813
G2 X93.3382 Y81.6176 I0.0209 J0.1989
( Drill7 )
S10001
G0 Z10.0
G0 X93.5 Y143.5
G0 Z10.0
G0 X93.7 Y143.5
G1 F300.0 Z0.0
G1 F30.0 Z0.0
G2 X93.4 Y143.3268 Z-1.6667 I-0.2 J0.0
G2 X93.3382 Y143.6176 Z-3.0 I0.1 J0.1732
G2 X93.6827 Y143.5813 I0.1618 J-0.1176
G2 X93.4791 Y143.3011 I-0.1827 J-0.0813
G2 X93.3382 Y143.6176 I0.0209 J0.1989
( Drill8 )
S10001
G0 Z10.0
G0 X6.5 Y143.5
G0 Z10.0
G0 X6.7 Y143.5
G1 F300.0 Z0.0
G1 F30.0 Z0.0
G2 X6.4 Y143.3268 Z-1.6667 I-0.2 J0.0
G2 X6.3382 Y143.6176 Z-3.0 I0.1 J0.1732
G2 X6.6827 Y143.5813 I0.1618 J-0.1176
G2 X6.4791 Y143.3011 I-0.1827 J-0.0813
G2 X6.3382 Y143.6176 I0.0209 J0.1989

(DAQ)
G0 Z20.0
G10 L2  P0 x0y0z0
g0 x10y10z-5
(DAQ)

M5
M30
