( Made using CamBam - http://www.cambam.co.uk )
( PCB-01x01-leg 10/1/2016 10:29:18 AM )
( T0 : 3.12 )
G21 G90 G61 G40
G0 Z15.0
( T0 : 3.12 )
T0 M6
( Profile1 )
G17
M3 S10001
G0 X11.39 Y14.5
G1 F30.0 Z-2.0
G2 F300.0 X9.305 Y13.2962 I-1.39 J0.0
G2 Y15.7038 I0.695 J1.2038
G2 X11.39 Y14.5 I0.695 J-1.2038
G1 F30.0 Z-4.0
G2 F300.0 X9.305 Y13.2962 I-1.39 J0.0
G2 Y15.7038 I0.695 J1.2038
G2 X11.39 Y14.5 I0.695 J-1.2038
G1 F30.0 Z-6.0
G2 F300.0 X9.305 Y13.2962 I-1.39 J0.0
G2 Y15.7038 I0.695 J1.2038
G2 X11.39 Y14.5 I0.695 J-1.2038
G1 F30.0 Z-8.0
G2 F300.0 X9.305 Y13.2962 I-1.39 J0.0
G2 Y15.7038 I0.695 J1.2038
G2 X11.39 Y14.5 I0.695 J-1.2038
G1 F30.0 Z-10.0
G2 F300.0 X9.305 Y13.2962 I-1.39 J0.0
G2 Y15.7038 I0.695 J1.2038
G2 X11.39 Y14.5 I0.695 J-1.2038
G1 F30.0 Z-12.0
G2 F300.0 X9.305 Y13.2962 I-1.39 J0.0
G2 Y15.7038 I0.695 J1.2038
G2 X11.39 Y14.5 I0.695 J-1.2038
G1 F30.0 Z-14.0
G2 F300.0 X9.305 Y13.2962 I-1.39 J0.0
G2 Y15.7038 I0.695 J1.2038
G2 X11.39 Y14.5 I0.695 J-1.2038
G1 F30.0 Z-16.0
G2 F300.0 X9.305 Y13.2962 I-1.39 J0.0
G2 Y15.7038 I0.695 J1.2038
G2 X11.39 Y14.5 I0.695 J-1.2038
G1 F30.0 Z-18.0
G2 F300.0 X9.305 Y13.2962 I-1.39 J0.0
G2 Y15.7038 I0.695 J1.2038
G2 X11.39 Y14.5 I0.695 J-1.2038
G1 F30.0 Z-20.0
G2 F300.0 X9.305 Y13.2962 I-1.39 J0.0
G2 Y15.7038 I0.695 J1.2038
G2 X11.39 Y14.5 I0.695 J-1.2038
( Profile2 )
S10001
G0 Z15.0
G0 X11.53 Y128.75
G1 F30.0 Z-2.0
G2 F300.0 X9.235 Y127.425 I-1.53 J0.0
G2 Y130.075 I0.765 J1.325
G2 X11.53 Y128.75 I0.765 J-1.325
G1 F30.0 Z-4.0
G2 F300.0 X9.235 Y127.425 I-1.53 J0.0
G2 Y130.075 I0.765 J1.325
G2 X11.53 Y128.75 I0.765 J-1.325
G1 F30.0 Z-6.0
G2 F300.0 X9.235 Y127.425 I-1.53 J0.0
G2 Y130.075 I0.765 J1.325
G2 X11.53 Y128.75 I0.765 J-1.325
G1 F30.0 Z-8.0
G2 F300.0 X9.235 Y127.425 I-1.53 J0.0
G2 Y130.075 I0.765 J1.325
G2 X11.53 Y128.75 I0.765 J-1.325
G1 F30.0 Z-10.0
G2 F300.0 X9.235 Y127.425 I-1.53 J0.0
G2 Y130.075 I0.765 J1.325
G2 X11.53 Y128.75 I0.765 J-1.325
G1 F30.0 Z-12.0
G2 F300.0 X9.235 Y127.425 I-1.53 J0.0
G2 Y130.075 I0.765 J1.325
G2 X11.53 Y128.75 I0.765 J-1.325
G1 F30.0 Z-14.0
G2 F300.0 X9.235 Y127.425 I-1.53 J0.0
G2 Y130.075 I0.765 J1.325
G2 X11.53 Y128.75 I0.765 J-1.325
G1 F30.0 Z-16.0
G2 F300.0 X9.235 Y127.425 I-1.53 J0.0
G2 Y130.075 I0.765 J1.325
G2 X11.53 Y128.75 I0.765 J-1.325
G1 F30.0 Z-18.0
G2 F300.0 X9.235 Y127.425 I-1.53 J0.0
G2 Y130.075 I0.765 J1.325
G2 X11.53 Y128.75 I0.765 J-1.325
G1 F30.0 Z-20.0
G2 F300.0 X9.235 Y127.425 I-1.53 J0.0
G2 Y130.075 I0.765 J1.325
G2 X11.53 Y128.75 I0.765 J-1.325
( Profile3 )
S10001
G0 Z15.0
G0 X11.39 Y285.5
G1 F30.0 Z-2.0
G2 F300.0 X9.305 Y284.2962 I-1.39 J0.0
G2 Y286.7038 I0.695 J1.2038
G2 X11.39 Y285.5 I0.695 J-1.2038
G1 F30.0 Z-4.0
G2 F300.0 X9.305 Y284.2962 I-1.39 J0.0
G2 Y286.7038 I0.695 J1.2038
G2 X11.39 Y285.5 I0.695 J-1.2038
G1 F30.0 Z-6.0
G2 F300.0 X9.305 Y284.2962 I-1.39 J0.0
G2 Y286.7038 I0.695 J1.2038
G2 X11.39 Y285.5 I0.695 J-1.2038
G1 F30.0 Z-8.0
G2 F300.0 X9.305 Y284.2962 I-1.39 J0.0
G2 Y286.7038 I0.695 J1.2038
G2 X11.39 Y285.5 I0.695 J-1.2038
G1 F30.0 Z-10.0
G2 F300.0 X9.305 Y284.2962 I-1.39 J0.0
G2 Y286.7038 I0.695 J1.2038
G2 X11.39 Y285.5 I0.695 J-1.2038
G1 F30.0 Z-12.0
G2 F300.0 X9.305 Y284.2962 I-1.39 J0.0
G2 Y286.7038 I0.695 J1.2038
G2 X11.39 Y285.5 I0.695 J-1.2038
G1 F30.0 Z-14.0
G2 F300.0 X9.305 Y284.2962 I-1.39 J0.0
G2 Y286.7038 I0.695 J1.2038
G2 X11.39 Y285.5 I0.695 J-1.2038
G1 F30.0 Z-16.0
G2 F300.0 X9.305 Y284.2962 I-1.39 J0.0
G2 Y286.7038 I0.695 J1.2038
G2 X11.39 Y285.5 I0.695 J-1.2038
G1 F30.0 Z-18.0
G2 F300.0 X9.305 Y284.2962 I-1.39 J0.0
G2 Y286.7038 I0.695 J1.2038
G2 X11.39 Y285.5 I0.695 J-1.2038
G1 F30.0 Z-20.0
G2 F300.0 X9.305 Y284.2962 I-1.39 J0.0
G2 Y286.7038 I0.695 J1.2038
G2 X11.39 Y285.5 I0.695 J-1.2038
G0 Z15.0

G0 X00.00 Y00.00

M5
M30
