( Made using CamBam - http://www.cambam.co.uk )
( PCB-12x12-sacrifice 10/1/2016 2:07:40 PM )
( T0 : 3.12 )
( T10 : 0.5 )
G21 G90 G64 G40
G0 Z3.0
( T0 : 3.12 )
T0 M6
( Profile4 )
G61 G17
M3 S10001
G0 X244.195 Y88.0
G1 F30.0 Z-2.0
G2 F300.0 X243.1525 Y87.3981 I-0.695 J0.0
G2 Y88.6019 I0.3475 J0.6019
G2 X244.195 Y88.0 I0.3475 J-0.6019
G1 F30.0 Z-4.0
G2 F300.0 X243.1525 Y87.3981 I-0.695 J0.0
G2 Y88.6019 I0.3475 J0.6019
G2 X244.195 Y88.0 I0.3475 J-0.6019
G1 F30.0 Z-6.0
G2 F300.0 X243.1525 Y87.3981 I-0.695 J0.0
G2 Y88.6019 I0.3475 J0.6019
G2 X244.195 Y88.0 I0.3475 J-0.6019
G1 F30.0 Z-8.0
G2 F300.0 X243.1525 Y87.3981 I-0.695 J0.0
G2 Y88.6019 I0.3475 J0.6019
G2 X244.195 Y88.0 I0.3475 J-0.6019
G1 F30.0 Z-10.0
G2 F300.0 X243.1525 Y87.3981 I-0.695 J0.0
G2 Y88.6019 I0.3475 J0.6019
G2 X244.195 Y88.0 I0.3475 J-0.6019
G1 F30.0 Z-12.0
G2 F300.0 X243.1525 Y87.3981 I-0.695 J0.0
G2 Y88.6019 I0.3475 J0.6019
G2 X244.195 Y88.0 I0.3475 J-0.6019
G1 F30.0 Z-14.0
G2 F300.0 X243.1525 Y87.3981 I-0.695 J0.0
G2 Y88.6019 I0.3475 J0.6019
G2 X244.195 Y88.0 I0.3475 J-0.6019
G1 F30.0 Z-16.0
G2 F300.0 X243.1525 Y87.3981 I-0.695 J0.0
G2 Y88.6019 I0.3475 J0.6019
G2 X244.195 Y88.0 I0.3475 J-0.6019
G1 F30.0 Z-18.0
G2 F300.0 X243.1525 Y87.3981 I-0.695 J0.0
G2 Y88.6019 I0.3475 J0.6019
G2 X244.195 Y88.0 I0.3475 J-0.6019
G1 F30.0 Z-20.0
G2 F300.0 X243.1525 Y87.3981 I-0.695 J0.0
G2 Y88.6019 I0.3475 J0.6019
G2 X244.195 Y88.0 I0.3475 J-0.6019
( Profile3 )
S10001
G0 Z3.0
G0 Y26.5
G1 F30.0 Z-2.0
G2 F300.0 X243.1525 Y25.8981 I-0.695 J0.0
G2 Y27.1019 I0.3475 J0.6019
G2 X244.195 Y26.5 I0.3475 J-0.6019
G1 F30.0 Z-4.0
G2 F300.0 X243.1525 Y25.8981 I-0.695 J0.0
G2 Y27.1019 I0.3475 J0.6019
G2 X244.195 Y26.5 I0.3475 J-0.6019
G1 F30.0 Z-6.0
G2 F300.0 X243.1525 Y25.8981 I-0.695 J0.0
G2 Y27.1019 I0.3475 J0.6019
G2 X244.195 Y26.5 I0.3475 J-0.6019
G1 F30.0 Z-8.0
G2 F300.0 X243.1525 Y25.8981 I-0.695 J0.0
G2 Y27.1019 I0.3475 J0.6019
G2 X244.195 Y26.5 I0.3475 J-0.6019
G1 F30.0 Z-10.0
G2 F300.0 X243.1525 Y25.8981 I-0.695 J0.0
G2 Y27.1019 I0.3475 J0.6019
G2 X244.195 Y26.5 I0.3475 J-0.6019
G1 F30.0 Z-12.0
G2 F300.0 X243.1525 Y25.8981 I-0.695 J0.0
G2 Y27.1019 I0.3475 J0.6019
G2 X244.195 Y26.5 I0.3475 J-0.6019
G1 F30.0 Z-14.0
G2 F300.0 X243.1525 Y25.8981 I-0.695 J0.0
G2 Y27.1019 I0.3475 J0.6019
G2 X244.195 Y26.5 I0.3475 J-0.6019
G1 F30.0 Z-16.0
G2 F300.0 X243.1525 Y25.8981 I-0.695 J0.0
G2 Y27.1019 I0.3475 J0.6019
G2 X244.195 Y26.5 I0.3475 J-0.6019
G1 F30.0 Z-18.0
G2 F300.0 X243.1525 Y25.8981 I-0.695 J0.0
G2 Y27.1019 I0.3475 J0.6019
G2 X244.195 Y26.5 I0.3475 J-0.6019
G1 F30.0 Z-20.0
G2 F300.0 X243.1525 Y25.8981 I-0.695 J0.0
G2 Y27.1019 I0.3475 J0.6019
G2 X244.195 Y26.5 I0.3475 J-0.6019
( Profile1 )
S10001
G0 Z3.0
G0 X157.195
G1 F30.0 Z-2.0
G2 F300.0 X156.1525 Y25.8981 I-0.695 J0.0
G2 Y27.1019 I0.3475 J0.6019
G2 X157.195 Y26.5 I0.3475 J-0.6019
G1 F30.0 Z-4.0
G2 F300.0 X156.1525 Y25.8981 I-0.695 J0.0
G2 Y27.1019 I0.3475 J0.6019
G2 X157.195 Y26.5 I0.3475 J-0.6019
G1 F30.0 Z-6.0
G2 F300.0 X156.1525 Y25.8981 I-0.695 J0.0
G2 Y27.1019 I0.3475 J0.6019
G2 X157.195 Y26.5 I0.3475 J-0.6019
G1 F30.0 Z-8.0
G2 F300.0 X156.1525 Y25.8981 I-0.695 J0.0
G2 Y27.1019 I0.3475 J0.6019
G2 X157.195 Y26.5 I0.3475 J-0.6019
G1 F30.0 Z-10.0
G2 F300.0 X156.1525 Y25.8981 I-0.695 J0.0
G2 Y27.1019 I0.3475 J0.6019
G2 X157.195 Y26.5 I0.3475 J-0.6019
G1 F30.0 Z-12.0
G2 F300.0 X156.1525 Y25.8981 I-0.695 J0.0
G2 Y27.1019 I0.3475 J0.6019
G2 X157.195 Y26.5 I0.3475 J-0.6019
G1 F30.0 Z-14.0
G2 F300.0 X156.1525 Y25.8981 I-0.695 J0.0
G2 Y27.1019 I0.3475 J0.6019
G2 X157.195 Y26.5 I0.3475 J-0.6019
G1 F30.0 Z-16.0
G2 F300.0 X156.1525 Y25.8981 I-0.695 J0.0
G2 Y27.1019 I0.3475 J0.6019
G2 X157.195 Y26.5 I0.3475 J-0.6019
G1 F30.0 Z-18.0
G2 F300.0 X156.1525 Y25.8981 I-0.695 J0.0
G2 Y27.1019 I0.3475 J0.6019
G2 X157.195 Y26.5 I0.3475 J-0.6019
G1 F30.0 Z-20.0
G2 F300.0 X156.1525 Y25.8981 I-0.695 J0.0
G2 Y27.1019 I0.3475 J0.6019
G2 X157.195 Y26.5 I0.3475 J-0.6019
( Profile2 )
S10001
G0 Z3.0
G0 Y88.5
G1 F30.0 Z-2.0
G2 F300.0 X156.1525 Y87.8981 I-0.695 J0.0
G2 Y89.1019 I0.3475 J0.6019
G2 X157.195 Y88.5 I0.3475 J-0.6019
G1 F30.0 Z-4.0
G2 F300.0 X156.1525 Y87.8981 I-0.695 J0.0
G2 Y89.1019 I0.3475 J0.6019
G2 X157.195 Y88.5 I0.3475 J-0.6019
G1 F30.0 Z-6.0
G2 F300.0 X156.1525 Y87.8981 I-0.695 J0.0
G2 Y89.1019 I0.3475 J0.6019
G2 X157.195 Y88.5 I0.3475 J-0.6019
G1 F30.0 Z-8.0
G2 F300.0 X156.1525 Y87.8981 I-0.695 J0.0
G2 Y89.1019 I0.3475 J0.6019
G2 X157.195 Y88.5 I0.3475 J-0.6019
G1 F30.0 Z-10.0
G2 F300.0 X156.1525 Y87.8981 I-0.695 J0.0
G2 Y89.1019 I0.3475 J0.6019
G2 X157.195 Y88.5 I0.3475 J-0.6019
G1 F30.0 Z-12.0
G2 F300.0 X156.1525 Y87.8981 I-0.695 J0.0
G2 Y89.1019 I0.3475 J0.6019
G2 X157.195 Y88.5 I0.3475 J-0.6019
G1 F30.0 Z-14.0
G2 F300.0 X156.1525 Y87.8981 I-0.695 J0.0
G2 Y89.1019 I0.3475 J0.6019
G2 X157.195 Y88.5 I0.3475 J-0.6019
G1 F30.0 Z-16.0
G2 F300.0 X156.1525 Y87.8981 I-0.695 J0.0
G2 Y89.1019 I0.3475 J0.6019
G2 X157.195 Y88.5 I0.3475 J-0.6019
G1 F30.0 Z-18.0
G2 F300.0 X156.1525 Y87.8981 I-0.695 J0.0
G2 Y89.1019 I0.3475 J0.6019
G2 X157.195 Y88.5 I0.3475 J-0.6019
G1 F30.0 Z-20.0
G2 F300.0 X156.1525 Y87.8981 I-0.695 J0.0
G2 Y89.1019 I0.3475 J0.6019
G2 X157.195 Y88.5 I0.3475 J-0.6019
( Profile2 )
S10001
G0 Z3.0
G0 X144.195
G1 F30.0 Z-2.0
G2 F300.0 X143.1525 Y87.8981 I-0.695 J0.0
G2 Y89.1019 I0.3475 J0.6019
G2 X144.195 Y88.5 I0.3475 J-0.6019
G1 F30.0 Z-4.0
G2 F300.0 X143.1525 Y87.8981 I-0.695 J0.0
G2 Y89.1019 I0.3475 J0.6019
G2 X144.195 Y88.5 I0.3475 J-0.6019
G1 F30.0 Z-6.0
G2 F300.0 X143.1525 Y87.8981 I-0.695 J0.0
G2 Y89.1019 I0.3475 J0.6019
G2 X144.195 Y88.5 I0.3475 J-0.6019
G1 F30.0 Z-8.0
G2 F300.0 X143.1525 Y87.8981 I-0.695 J0.0
G2 Y89.1019 I0.3475 J0.6019
G2 X144.195 Y88.5 I0.3475 J-0.6019
G1 F30.0 Z-10.0
G2 F300.0 X143.1525 Y87.8981 I-0.695 J0.0
G2 Y89.1019 I0.3475 J0.6019
G2 X144.195 Y88.5 I0.3475 J-0.6019
G1 F30.0 Z-12.0
G2 F300.0 X143.1525 Y87.8981 I-0.695 J0.0
G2 Y89.1019 I0.3475 J0.6019
G2 X144.195 Y88.5 I0.3475 J-0.6019
G1 F30.0 Z-14.0
G2 F300.0 X143.1525 Y87.8981 I-0.695 J0.0
G2 Y89.1019 I0.3475 J0.6019
G2 X144.195 Y88.5 I0.3475 J-0.6019
G1 F30.0 Z-16.0
G2 F300.0 X143.1525 Y87.8981 I-0.695 J0.0
G2 Y89.1019 I0.3475 J0.6019
G2 X144.195 Y88.5 I0.3475 J-0.6019
G1 F30.0 Z-18.0
G2 F300.0 X143.1525 Y87.8981 I-0.695 J0.0
G2 Y89.1019 I0.3475 J0.6019
G2 X144.195 Y88.5 I0.3475 J-0.6019
G1 F30.0 Z-20.0
G2 F300.0 X143.1525 Y87.8981 I-0.695 J0.0
G2 Y89.1019 I0.3475 J0.6019
G2 X144.195 Y88.5 I0.3475 J-0.6019
( Profile1 )
S10001
G0 Z3.0
G0 Y26.5
G1 F30.0 Z-2.0
G2 F300.0 X143.1525 Y25.8981 I-0.695 J0.0
G2 Y27.1019 I0.3475 J0.6019
G2 X144.195 Y26.5 I0.3475 J-0.6019
G1 F30.0 Z-4.0
G2 F300.0 X143.1525 Y25.8981 I-0.695 J0.0
G2 Y27.1019 I0.3475 J0.6019
G2 X144.195 Y26.5 I0.3475 J-0.6019
G1 F30.0 Z-6.0
G2 F300.0 X143.1525 Y25.8981 I-0.695 J0.0
G2 Y27.1019 I0.3475 J0.6019
G2 X144.195 Y26.5 I0.3475 J-0.6019
G1 F30.0 Z-8.0
G2 F300.0 X143.1525 Y25.8981 I-0.695 J0.0
G2 Y27.1019 I0.3475 J0.6019
G2 X144.195 Y26.5 I0.3475 J-0.6019
G1 F30.0 Z-10.0
G2 F300.0 X143.1525 Y25.8981 I-0.695 J0.0
G2 Y27.1019 I0.3475 J0.6019
G2 X144.195 Y26.5 I0.3475 J-0.6019
G1 F30.0 Z-12.0
G2 F300.0 X143.1525 Y25.8981 I-0.695 J0.0
G2 Y27.1019 I0.3475 J0.6019
G2 X144.195 Y26.5 I0.3475 J-0.6019
G1 F30.0 Z-14.0
G2 F300.0 X143.1525 Y25.8981 I-0.695 J0.0
G2 Y27.1019 I0.3475 J0.6019
G2 X144.195 Y26.5 I0.3475 J-0.6019
G1 F30.0 Z-16.0
G2 F300.0 X143.1525 Y25.8981 I-0.695 J0.0
G2 Y27.1019 I0.3475 J0.6019
G2 X144.195 Y26.5 I0.3475 J-0.6019
G1 F30.0 Z-18.0
G2 F300.0 X143.1525 Y25.8981 I-0.695 J0.0
G2 Y27.1019 I0.3475 J0.6019
G2 X144.195 Y26.5 I0.3475 J-0.6019
G1 F30.0 Z-20.0
G2 F300.0 X143.1525 Y25.8981 I-0.695 J0.0
G2 Y27.1019 I0.3475 J0.6019
G2 X144.195 Y26.5 I0.3475 J-0.6019
( Profile3 )
S10001
G0 Z3.0
G0 X57.195
G1 F30.0 Z-2.0
G2 F300.0 X56.1525 Y25.8981 I-0.695 J0.0
G2 Y27.1019 I0.3475 J0.6019
G2 X57.195 Y26.5 I0.3475 J-0.6019
G1 F30.0 Z-4.0
G2 F300.0 X56.1525 Y25.8981 I-0.695 J0.0
G2 Y27.1019 I0.3475 J0.6019
G2 X57.195 Y26.5 I0.3475 J-0.6019
G1 F30.0 Z-6.0
G2 F300.0 X56.1525 Y25.8981 I-0.695 J0.0
G2 Y27.1019 I0.3475 J0.6019
G2 X57.195 Y26.5 I0.3475 J-0.6019
G1 F30.0 Z-8.0
G2 F300.0 X56.1525 Y25.8981 I-0.695 J0.0
G2 Y27.1019 I0.3475 J0.6019
G2 X57.195 Y26.5 I0.3475 J-0.6019
G1 F30.0 Z-10.0
G2 F300.0 X56.1525 Y25.8981 I-0.695 J0.0
G2 Y27.1019 I0.3475 J0.6019
G2 X57.195 Y26.5 I0.3475 J-0.6019
G1 F30.0 Z-12.0
G2 F300.0 X56.1525 Y25.8981 I-0.695 J0.0
G2 Y27.1019 I0.3475 J0.6019
G2 X57.195 Y26.5 I0.3475 J-0.6019
G1 F30.0 Z-14.0
G2 F300.0 X56.1525 Y25.8981 I-0.695 J0.0
G2 Y27.1019 I0.3475 J0.6019
G2 X57.195 Y26.5 I0.3475 J-0.6019
G1 F30.0 Z-16.0
G2 F300.0 X56.1525 Y25.8981 I-0.695 J0.0
G2 Y27.1019 I0.3475 J0.6019
G2 X57.195 Y26.5 I0.3475 J-0.6019
G1 F30.0 Z-18.0
G2 F300.0 X56.1525 Y25.8981 I-0.695 J0.0
G2 Y27.1019 I0.3475 J0.6019
G2 X57.195 Y26.5 I0.3475 J-0.6019
G1 F30.0 Z-20.0
G2 F300.0 X56.1525 Y25.8981 I-0.695 J0.0
G2 Y27.1019 I0.3475 J0.6019
G2 X57.195 Y26.5 I0.3475 J-0.6019
( Profile4 )
S10001
G0 Z3.0
G0 Y88.0
G1 F30.0 Z-2.0
G2 F300.0 X56.1525 Y87.3981 I-0.695 J0.0
G2 Y88.6019 I0.3475 J0.6019
G2 X57.195 Y88.0 I0.3475 J-0.6019
G1 F30.0 Z-4.0
G2 F300.0 X56.1525 Y87.3981 I-0.695 J0.0
G2 Y88.6019 I0.3475 J0.6019
G2 X57.195 Y88.0 I0.3475 J-0.6019
G1 F30.0 Z-6.0
G2 F300.0 X56.1525 Y87.3981 I-0.695 J0.0
G2 Y88.6019 I0.3475 J0.6019
G2 X57.195 Y88.0 I0.3475 J-0.6019
G1 F30.0 Z-8.0
G2 F300.0 X56.1525 Y87.3981 I-0.695 J0.0
G2 Y88.6019 I0.3475 J0.6019
G2 X57.195 Y88.0 I0.3475 J-0.6019
G1 F30.0 Z-10.0
G2 F300.0 X56.1525 Y87.3981 I-0.695 J0.0
G2 Y88.6019 I0.3475 J0.6019
G2 X57.195 Y88.0 I0.3475 J-0.6019
G1 F30.0 Z-12.0
G2 F300.0 X56.1525 Y87.3981 I-0.695 J0.0
G2 Y88.6019 I0.3475 J0.6019
G2 X57.195 Y88.0 I0.3475 J-0.6019
G1 F30.0 Z-14.0
G2 F300.0 X56.1525 Y87.3981 I-0.695 J0.0
G2 Y88.6019 I0.3475 J0.6019
G2 X57.195 Y88.0 I0.3475 J-0.6019
G1 F30.0 Z-16.0
G2 F300.0 X56.1525 Y87.3981 I-0.695 J0.0
G2 Y88.6019 I0.3475 J0.6019
G2 X57.195 Y88.0 I0.3475 J-0.6019
G1 F30.0 Z-18.0
G2 F300.0 X56.1525 Y87.3981 I-0.695 J0.0
G2 Y88.6019 I0.3475 J0.6019
G2 X57.195 Y88.0 I0.3475 J-0.6019
G1 F30.0 Z-20.0
G2 F300.0 X56.1525 Y87.3981 I-0.695 J0.0
G2 Y88.6019 I0.3475 J0.6019
G2 X57.195 Y88.0 I0.3475 J-0.6019
( Profile1 )
S10001
G0 Z3.0
G0 X157.195 Y136.5
G1 F30.0 Z-2.0
G2 F300.0 X156.1525 Y135.8981 I-0.695 J0.0
G2 Y137.1019 I0.3475 J0.6019
G2 X157.195 Y136.5 I0.3475 J-0.6019
G1 F30.0 Z-4.0
G2 F300.0 X156.1525 Y135.8981 I-0.695 J0.0
G2 Y137.1019 I0.3475 J0.6019
G2 X157.195 Y136.5 I0.3475 J-0.6019
G1 F30.0 Z-6.0
G2 F300.0 X156.1525 Y135.8981 I-0.695 J0.0
G2 Y137.1019 I0.3475 J0.6019
G2 X157.195 Y136.5 I0.3475 J-0.6019
G1 F30.0 Z-8.0
G2 F300.0 X156.1525 Y135.8981 I-0.695 J0.0
G2 Y137.1019 I0.3475 J0.6019
G2 X157.195 Y136.5 I0.3475 J-0.6019
G1 F30.0 Z-10.0
G2 F300.0 X156.1525 Y135.8981 I-0.695 J0.0
G2 Y137.1019 I0.3475 J0.6019
G2 X157.195 Y136.5 I0.3475 J-0.6019
G1 F30.0 Z-12.0
G2 F300.0 X156.1525 Y135.8981 I-0.695 J0.0
G2 Y137.1019 I0.3475 J0.6019
G2 X157.195 Y136.5 I0.3475 J-0.6019
G1 F30.0 Z-14.0
G2 F300.0 X156.1525 Y135.8981 I-0.695 J0.0
G2 Y137.1019 I0.3475 J0.6019
G2 X157.195 Y136.5 I0.3475 J-0.6019
G1 F30.0 Z-16.0
G2 F300.0 X156.1525 Y135.8981 I-0.695 J0.0
G2 Y137.1019 I0.3475 J0.6019
G2 X157.195 Y136.5 I0.3475 J-0.6019
G1 F30.0 Z-18.0
G2 F300.0 X156.1525 Y135.8981 I-0.695 J0.0
G2 Y137.1019 I0.3475 J0.6019
G2 X157.195 Y136.5 I0.3475 J-0.6019
G1 F30.0 Z-20.0
G2 F300.0 X156.1525 Y135.8981 I-0.695 J0.0
G2 Y137.1019 I0.3475 J0.6019
G2 X157.195 Y136.5 I0.3475 J-0.6019
( Profile2 )
S10001
G0 Z3.0
G0 X244.195
G1 F30.0 Z-2.0
G2 F300.0 X243.1525 Y135.8981 I-0.695 J0.0
G2 Y137.1019 I0.3475 J0.6019
G2 X244.195 Y136.5 I0.3475 J-0.6019
G1 F30.0 Z-4.0
G2 F300.0 X243.1525 Y135.8981 I-0.695 J0.0
G2 Y137.1019 I0.3475 J0.6019
G2 X244.195 Y136.5 I0.3475 J-0.6019
G1 F30.0 Z-6.0
G2 F300.0 X243.1525 Y135.8981 I-0.695 J0.0
G2 Y137.1019 I0.3475 J0.6019
G2 X244.195 Y136.5 I0.3475 J-0.6019
G1 F30.0 Z-8.0
G2 F300.0 X243.1525 Y135.8981 I-0.695 J0.0
G2 Y137.1019 I0.3475 J0.6019
G2 X244.195 Y136.5 I0.3475 J-0.6019
G1 F30.0 Z-10.0
G2 F300.0 X243.1525 Y135.8981 I-0.695 J0.0
G2 Y137.1019 I0.3475 J0.6019
G2 X244.195 Y136.5 I0.3475 J-0.6019
G1 F30.0 Z-12.0
G2 F300.0 X243.1525 Y135.8981 I-0.695 J0.0
G2 Y137.1019 I0.3475 J0.6019
G2 X244.195 Y136.5 I0.3475 J-0.6019
G1 F30.0 Z-14.0
G2 F300.0 X243.1525 Y135.8981 I-0.695 J0.0
G2 Y137.1019 I0.3475 J0.6019
G2 X244.195 Y136.5 I0.3475 J-0.6019
G1 F30.0 Z-16.0
G2 F300.0 X243.1525 Y135.8981 I-0.695 J0.0
G2 Y137.1019 I0.3475 J0.6019
G2 X244.195 Y136.5 I0.3475 J-0.6019
G1 F30.0 Z-18.0
G2 F300.0 X243.1525 Y135.8981 I-0.695 J0.0
G2 Y137.1019 I0.3475 J0.6019
G2 X244.195 Y136.5 I0.3475 J-0.6019
G1 F30.0 Z-20.0
G2 F300.0 X243.1525 Y135.8981 I-0.695 J0.0
G2 Y137.1019 I0.3475 J0.6019
G2 X244.195 Y136.5 I0.3475 J-0.6019
( Profile3 )
S10001
G0 Z3.0
G0 Y198.5
G1 F30.0 Z-2.0
G2 F300.0 X243.1525 Y197.8981 I-0.695 J0.0
G2 Y199.1019 I0.3475 J0.6019
G2 X244.195 Y198.5 I0.3475 J-0.6019
G1 F30.0 Z-4.0
G2 F300.0 X243.1525 Y197.8981 I-0.695 J0.0
G2 Y199.1019 I0.3475 J0.6019
G2 X244.195 Y198.5 I0.3475 J-0.6019
G1 F30.0 Z-6.0
G2 F300.0 X243.1525 Y197.8981 I-0.695 J0.0
G2 Y199.1019 I0.3475 J0.6019
G2 X244.195 Y198.5 I0.3475 J-0.6019
G1 F30.0 Z-8.0
G2 F300.0 X243.1525 Y197.8981 I-0.695 J0.0
G2 Y199.1019 I0.3475 J0.6019
G2 X244.195 Y198.5 I0.3475 J-0.6019
G1 F30.0 Z-10.0
G2 F300.0 X243.1525 Y197.8981 I-0.695 J0.0
G2 Y199.1019 I0.3475 J0.6019
G2 X244.195 Y198.5 I0.3475 J-0.6019
G1 F30.0 Z-12.0
G2 F300.0 X243.1525 Y197.8981 I-0.695 J0.0
G2 Y199.1019 I0.3475 J0.6019
G2 X244.195 Y198.5 I0.3475 J-0.6019
G1 F30.0 Z-14.0
G2 F300.0 X243.1525 Y197.8981 I-0.695 J0.0
G2 Y199.1019 I0.3475 J0.6019
G2 X244.195 Y198.5 I0.3475 J-0.6019
G1 F30.0 Z-16.0
G2 F300.0 X243.1525 Y197.8981 I-0.695 J0.0
G2 Y199.1019 I0.3475 J0.6019
G2 X244.195 Y198.5 I0.3475 J-0.6019
G1 F30.0 Z-18.0
G2 F300.0 X243.1525 Y197.8981 I-0.695 J0.0
G2 Y199.1019 I0.3475 J0.6019
G2 X244.195 Y198.5 I0.3475 J-0.6019
G1 F30.0 Z-20.0
G2 F300.0 X243.1525 Y197.8981 I-0.695 J0.0
G2 Y199.1019 I0.3475 J0.6019
G2 X244.195 Y198.5 I0.3475 J-0.6019
( Profile4 )
S10001
G0 Z3.0
G0 X157.195
G1 F30.0 Z-2.0
G2 F300.0 X156.1525 Y197.8981 I-0.695 J0.0
G2 Y199.1019 I0.3475 J0.6019
G2 X157.195 Y198.5 I0.3475 J-0.6019
G1 F30.0 Z-4.0
G2 F300.0 X156.1525 Y197.8981 I-0.695 J0.0
G2 Y199.1019 I0.3475 J0.6019
G2 X157.195 Y198.5 I0.3475 J-0.6019
G1 F30.0 Z-6.0
G2 F300.0 X156.1525 Y197.8981 I-0.695 J0.0
G2 Y199.1019 I0.3475 J0.6019
G2 X157.195 Y198.5 I0.3475 J-0.6019
G1 F30.0 Z-8.0
G2 F300.0 X156.1525 Y197.8981 I-0.695 J0.0
G2 Y199.1019 I0.3475 J0.6019
G2 X157.195 Y198.5 I0.3475 J-0.6019
G1 F30.0 Z-10.0
G2 F300.0 X156.1525 Y197.8981 I-0.695 J0.0
G2 Y199.1019 I0.3475 J0.6019
G2 X157.195 Y198.5 I0.3475 J-0.6019
G1 F30.0 Z-12.0
G2 F300.0 X156.1525 Y197.8981 I-0.695 J0.0
G2 Y199.1019 I0.3475 J0.6019
G2 X157.195 Y198.5 I0.3475 J-0.6019
G1 F30.0 Z-14.0
G2 F300.0 X156.1525 Y197.8981 I-0.695 J0.0
G2 Y199.1019 I0.3475 J0.6019
G2 X157.195 Y198.5 I0.3475 J-0.6019
G1 F30.0 Z-16.0
G2 F300.0 X156.1525 Y197.8981 I-0.695 J0.0
G2 Y199.1019 I0.3475 J0.6019
G2 X157.195 Y198.5 I0.3475 J-0.6019
G1 F30.0 Z-18.0
G2 F300.0 X156.1525 Y197.8981 I-0.695 J0.0
G2 Y199.1019 I0.3475 J0.6019
G2 X157.195 Y198.5 I0.3475 J-0.6019
G1 F30.0 Z-20.0
G2 F300.0 X156.1525 Y197.8981 I-0.695 J0.0
G2 Y199.1019 I0.3475 J0.6019
G2 X157.195 Y198.5 I0.3475 J-0.6019
( Profile5 )
S10001
G0 Z3.0
G0 Y211.5
G1 F30.0 Z-2.0
G2 F300.0 X156.1525 Y210.8981 I-0.695 J0.0
G2 Y212.1019 I0.3475 J0.6019
G2 X157.195 Y211.5 I0.3475 J-0.6019
G1 F30.0 Z-4.0
G2 F300.0 X156.1525 Y210.8981 I-0.695 J0.0
G2 Y212.1019 I0.3475 J0.6019
G2 X157.195 Y211.5 I0.3475 J-0.6019
G1 F30.0 Z-6.0
G2 F300.0 X156.1525 Y210.8981 I-0.695 J0.0
G2 Y212.1019 I0.3475 J0.6019
G2 X157.195 Y211.5 I0.3475 J-0.6019
G1 F30.0 Z-8.0
G2 F300.0 X156.1525 Y210.8981 I-0.695 J0.0
G2 Y212.1019 I0.3475 J0.6019
G2 X157.195 Y211.5 I0.3475 J-0.6019
G1 F30.0 Z-10.0
G2 F300.0 X156.1525 Y210.8981 I-0.695 J0.0
G2 Y212.1019 I0.3475 J0.6019
G2 X157.195 Y211.5 I0.3475 J-0.6019
G1 F30.0 Z-12.0
G2 F300.0 X156.1525 Y210.8981 I-0.695 J0.0
G2 Y212.1019 I0.3475 J0.6019
G2 X157.195 Y211.5 I0.3475 J-0.6019
G1 F30.0 Z-14.0
G2 F300.0 X156.1525 Y210.8981 I-0.695 J0.0
G2 Y212.1019 I0.3475 J0.6019
G2 X157.195 Y211.5 I0.3475 J-0.6019
G1 F30.0 Z-16.0
G2 F300.0 X156.1525 Y210.8981 I-0.695 J0.0
G2 Y212.1019 I0.3475 J0.6019
G2 X157.195 Y211.5 I0.3475 J-0.6019
G1 F30.0 Z-18.0
G2 F300.0 X156.1525 Y210.8981 I-0.695 J0.0
G2 Y212.1019 I0.3475 J0.6019
G2 X157.195 Y211.5 I0.3475 J-0.6019
G1 F30.0 Z-20.0
G2 F300.0 X156.1525 Y210.8981 I-0.695 J0.0
G2 Y212.1019 I0.3475 J0.6019
G2 X157.195 Y211.5 I0.3475 J-0.6019
( Profile6 )
S10001
G0 Z3.0
G0 X244.195
G1 F30.0 Z-2.0
G2 F300.0 X243.1525 Y210.8981 I-0.695 J0.0
G2 Y212.1019 I0.3475 J0.6019
G2 X244.195 Y211.5 I0.3475 J-0.6019
G1 F30.0 Z-4.0
G2 F300.0 X243.1525 Y210.8981 I-0.695 J0.0
G2 Y212.1019 I0.3475 J0.6019
G2 X244.195 Y211.5 I0.3475 J-0.6019
G1 F30.0 Z-6.0
G2 F300.0 X243.1525 Y210.8981 I-0.695 J0.0
G2 Y212.1019 I0.3475 J0.6019
G2 X244.195 Y211.5 I0.3475 J-0.6019
G1 F30.0 Z-8.0
G2 F300.0 X243.1525 Y210.8981 I-0.695 J0.0
G2 Y212.1019 I0.3475 J0.6019
G2 X244.195 Y211.5 I0.3475 J-0.6019
G1 F30.0 Z-10.0
G2 F300.0 X243.1525 Y210.8981 I-0.695 J0.0
G2 Y212.1019 I0.3475 J0.6019
G2 X244.195 Y211.5 I0.3475 J-0.6019
G1 F30.0 Z-12.0
G2 F300.0 X243.1525 Y210.8981 I-0.695 J0.0
G2 Y212.1019 I0.3475 J0.6019
G2 X244.195 Y211.5 I0.3475 J-0.6019
G1 F30.0 Z-14.0
G2 F300.0 X243.1525 Y210.8981 I-0.695 J0.0
G2 Y212.1019 I0.3475 J0.6019
G2 X244.195 Y211.5 I0.3475 J-0.6019
G1 F30.0 Z-16.0
G2 F300.0 X243.1525 Y210.8981 I-0.695 J0.0
G2 Y212.1019 I0.3475 J0.6019
G2 X244.195 Y211.5 I0.3475 J-0.6019
G1 F30.0 Z-18.0
G2 F300.0 X243.1525 Y210.8981 I-0.695 J0.0
G2 Y212.1019 I0.3475 J0.6019
G2 X244.195 Y211.5 I0.3475 J-0.6019
G1 F30.0 Z-20.0
G2 F300.0 X243.1525 Y210.8981 I-0.695 J0.0
G2 Y212.1019 I0.3475 J0.6019
G2 X244.195 Y211.5 I0.3475 J-0.6019
( Profile8 )
S10001
G0 Z3.0
G0 Y273.5
G1 F30.0 Z-2.0
G2 F300.0 X243.1525 Y272.8981 I-0.695 J0.0
G2 Y274.1019 I0.3475 J0.6019
G2 X244.195 Y273.5 I0.3475 J-0.6019
G1 F30.0 Z-4.0
G2 F300.0 X243.1525 Y272.8981 I-0.695 J0.0
G2 Y274.1019 I0.3475 J0.6019
G2 X244.195 Y273.5 I0.3475 J-0.6019
G1 F30.0 Z-6.0
G2 F300.0 X243.1525 Y272.8981 I-0.695 J0.0
G2 Y274.1019 I0.3475 J0.6019
G2 X244.195 Y273.5 I0.3475 J-0.6019
G1 F30.0 Z-8.0
G2 F300.0 X243.1525 Y272.8981 I-0.695 J0.0
G2 Y274.1019 I0.3475 J0.6019
G2 X244.195 Y273.5 I0.3475 J-0.6019
G1 F30.0 Z-10.0
G2 F300.0 X243.1525 Y272.8981 I-0.695 J0.0
G2 Y274.1019 I0.3475 J0.6019
G2 X244.195 Y273.5 I0.3475 J-0.6019
G1 F30.0 Z-12.0
G2 F300.0 X243.1525 Y272.8981 I-0.695 J0.0
G2 Y274.1019 I0.3475 J0.6019
G2 X244.195 Y273.5 I0.3475 J-0.6019
G1 F30.0 Z-14.0
G2 F300.0 X243.1525 Y272.8981 I-0.695 J0.0
G2 Y274.1019 I0.3475 J0.6019
G2 X244.195 Y273.5 I0.3475 J-0.6019
G1 F30.0 Z-16.0
G2 F300.0 X243.1525 Y272.8981 I-0.695 J0.0
G2 Y274.1019 I0.3475 J0.6019
G2 X244.195 Y273.5 I0.3475 J-0.6019
G1 F30.0 Z-18.0
G2 F300.0 X243.1525 Y272.8981 I-0.695 J0.0
G2 Y274.1019 I0.3475 J0.6019
G2 X244.195 Y273.5 I0.3475 J-0.6019
G1 F30.0 Z-20.0
G2 F300.0 X243.1525 Y272.8981 I-0.695 J0.0
G2 Y274.1019 I0.3475 J0.6019
G2 X244.195 Y273.5 I0.3475 J-0.6019
( Profile7 )
S10001
G0 Z3.0
G0 X157.195
G1 F30.0 Z-2.0
G2 F300.0 X156.1525 Y272.8981 I-0.695 J0.0
G2 Y274.1019 I0.3475 J0.6019
G2 X157.195 Y273.5 I0.3475 J-0.6019
G1 F30.0 Z-4.0
G2 F300.0 X156.1525 Y272.8981 I-0.695 J0.0
G2 Y274.1019 I0.3475 J0.6019
G2 X157.195 Y273.5 I0.3475 J-0.6019
G1 F30.0 Z-6.0
G2 F300.0 X156.1525 Y272.8981 I-0.695 J0.0
G2 Y274.1019 I0.3475 J0.6019
G2 X157.195 Y273.5 I0.3475 J-0.6019
G1 F30.0 Z-8.0
G2 F300.0 X156.1525 Y272.8981 I-0.695 J0.0
G2 Y274.1019 I0.3475 J0.6019
G2 X157.195 Y273.5 I0.3475 J-0.6019
G1 F30.0 Z-10.0
G2 F300.0 X156.1525 Y272.8981 I-0.695 J0.0
G2 Y274.1019 I0.3475 J0.6019
G2 X157.195 Y273.5 I0.3475 J-0.6019
G1 F30.0 Z-12.0
G2 F300.0 X156.1525 Y272.8981 I-0.695 J0.0
G2 Y274.1019 I0.3475 J0.6019
G2 X157.195 Y273.5 I0.3475 J-0.6019
G1 F30.0 Z-14.0
G2 F300.0 X156.1525 Y272.8981 I-0.695 J0.0
G2 Y274.1019 I0.3475 J0.6019
G2 X157.195 Y273.5 I0.3475 J-0.6019
G1 F30.0 Z-16.0
G2 F300.0 X156.1525 Y272.8981 I-0.695 J0.0
G2 Y274.1019 I0.3475 J0.6019
G2 X157.195 Y273.5 I0.3475 J-0.6019
G1 F30.0 Z-18.0
G2 F300.0 X156.1525 Y272.8981 I-0.695 J0.0
G2 Y274.1019 I0.3475 J0.6019
G2 X157.195 Y273.5 I0.3475 J-0.6019
G1 F30.0 Z-20.0
G2 F300.0 X156.1525 Y272.8981 I-0.695 J0.0
G2 Y274.1019 I0.3475 J0.6019
G2 X157.195 Y273.5 I0.3475 J-0.6019
( Profile1 )
S10001
G0 Z3.0
G0 X161.53 Y130.0
G1 F30.0 Z-2.0
G2 F300.0 X159.235 Y128.675 I-1.53 J0.0
G2 Y131.325 I0.765 J1.325
G2 X161.53 Y130.0 I0.765 J-1.325
G1 F30.0 Z-4.0
G2 F300.0 X159.235 Y128.675 I-1.53 J0.0
G2 Y131.325 I0.765 J1.325
G2 X161.53 Y130.0 I0.765 J-1.325
G1 F30.0 Z-6.0
G2 F300.0 X159.235 Y128.675 I-1.53 J0.0
G2 Y131.325 I0.765 J1.325
G2 X161.53 Y130.0 I0.765 J-1.325
G1 F30.0 Z-8.0
G2 F300.0 X159.235 Y128.675 I-1.53 J0.0
G2 Y131.325 I0.765 J1.325
G2 X161.53 Y130.0 I0.765 J-1.325
G1 F30.0 Z-10.0
G2 F300.0 X159.235 Y128.675 I-1.53 J0.0
G2 Y131.325 I0.765 J1.325
G2 X161.53 Y130.0 I0.765 J-1.325
G1 F30.0 Z-12.0
G2 F300.0 X159.235 Y128.675 I-1.53 J0.0
G2 Y131.325 I0.765 J1.325
G2 X161.53 Y130.0 I0.765 J-1.325
G1 F30.0 Z-12.5
G2 F300.0 X159.235 Y128.675 I-1.53 J0.0
G2 Y131.325 I0.765 J1.325
G2 X161.53 Y130.0 I0.765 J-1.325
( Profile2 )
S10001
G0 Z3.0
G0 X171.53
G1 F30.0 Z-2.0
G2 F300.0 X169.235 Y128.675 I-1.53 J0.0
G2 Y131.325 I0.765 J1.325
G2 X171.53 Y130.0 I0.765 J-1.325
G1 F30.0 Z-4.0
G2 F300.0 X169.235 Y128.675 I-1.53 J0.0
G2 Y131.325 I0.765 J1.325
G2 X171.53 Y130.0 I0.765 J-1.325
G1 F30.0 Z-6.0
G2 F300.0 X169.235 Y128.675 I-1.53 J0.0
G2 Y131.325 I0.765 J1.325
G2 X171.53 Y130.0 I0.765 J-1.325
G1 F30.0 Z-8.0
G2 F300.0 X169.235 Y128.675 I-1.53 J0.0
G2 Y131.325 I0.765 J1.325
G2 X171.53 Y130.0 I0.765 J-1.325
G1 F30.0 Z-10.0
G2 F300.0 X169.235 Y128.675 I-1.53 J0.0
G2 Y131.325 I0.765 J1.325
G2 X171.53 Y130.0 I0.765 J-1.325
G1 F30.0 Z-12.0
G2 F300.0 X169.235 Y128.675 I-1.53 J0.0
G2 Y131.325 I0.765 J1.325
G2 X171.53 Y130.0 I0.765 J-1.325
G1 F30.0 Z-12.5
G2 F300.0 X169.235 Y128.675 I-1.53 J0.0
G2 Y131.325 I0.765 J1.325
G2 X171.53 Y130.0 I0.765 J-1.325
( Profile3 )
S10001
G0 Z3.0
G0 X181.53
G1 F30.0 Z-2.0
G2 F300.0 X179.235 Y128.675 I-1.53 J0.0
G2 Y131.325 I0.765 J1.325
G2 X181.53 Y130.0 I0.765 J-1.325
G1 F30.0 Z-4.0
G2 F300.0 X179.235 Y128.675 I-1.53 J0.0
G2 Y131.325 I0.765 J1.325
G2 X181.53 Y130.0 I0.765 J-1.325
G1 F30.0 Z-6.0
G2 F300.0 X179.235 Y128.675 I-1.53 J0.0
G2 Y131.325 I0.765 J1.325
G2 X181.53 Y130.0 I0.765 J-1.325
G1 F30.0 Z-8.0
G2 F300.0 X179.235 Y128.675 I-1.53 J0.0
G2 Y131.325 I0.765 J1.325
G2 X181.53 Y130.0 I0.765 J-1.325
G1 F30.0 Z-10.0
G2 F300.0 X179.235 Y128.675 I-1.53 J0.0
G2 Y131.325 I0.765 J1.325
G2 X181.53 Y130.0 I0.765 J-1.325
G1 F30.0 Z-12.0
G2 F300.0 X179.235 Y128.675 I-1.53 J0.0
G2 Y131.325 I0.765 J1.325
G2 X181.53 Y130.0 I0.765 J-1.325
G1 F30.0 Z-12.5
G2 F300.0 X179.235 Y128.675 I-1.53 J0.0
G2 Y131.325 I0.765 J1.325
G2 X181.53 Y130.0 I0.765 J-1.325
( Profile5 )
S10001
G0 Z3.0
G0 X191.53
G1 F30.0 Z-2.0
G2 F300.0 X189.235 Y128.675 I-1.53 J0.0
G2 Y131.325 I0.765 J1.325
G2 X191.53 Y130.0 I0.765 J-1.325
G1 F30.0 Z-4.0
G2 F300.0 X189.235 Y128.675 I-1.53 J0.0
G2 Y131.325 I0.765 J1.325
G2 X191.53 Y130.0 I0.765 J-1.325
G1 F30.0 Z-6.0
G2 F300.0 X189.235 Y128.675 I-1.53 J0.0
G2 Y131.325 I0.765 J1.325
G2 X191.53 Y130.0 I0.765 J-1.325
G1 F30.0 Z-8.0
G2 F300.0 X189.235 Y128.675 I-1.53 J0.0
G2 Y131.325 I0.765 J1.325
G2 X191.53 Y130.0 I0.765 J-1.325
G1 F30.0 Z-10.0
G2 F300.0 X189.235 Y128.675 I-1.53 J0.0
G2 Y131.325 I0.765 J1.325
G2 X191.53 Y130.0 I0.765 J-1.325
G1 F30.0 Z-12.0
G2 F300.0 X189.235 Y128.675 I-1.53 J0.0
G2 Y131.325 I0.765 J1.325
G2 X191.53 Y130.0 I0.765 J-1.325
G1 F30.0 Z-12.5
G2 F300.0 X189.235 Y128.675 I-1.53 J0.0
G2 Y131.325 I0.765 J1.325
G2 X191.53 Y130.0 I0.765 J-1.325
( Profile6 )
S10001
G0 Z3.0
G0 X201.53
G1 F30.0 Z-2.0
G2 F300.0 X199.235 Y128.675 I-1.53 J0.0
G2 Y131.325 I0.765 J1.325
G2 X201.53 Y130.0 I0.765 J-1.325
G1 F30.0 Z-4.0
G2 F300.0 X199.235 Y128.675 I-1.53 J0.0
G2 Y131.325 I0.765 J1.325
G2 X201.53 Y130.0 I0.765 J-1.325
G1 F30.0 Z-6.0
G2 F300.0 X199.235 Y128.675 I-1.53 J0.0
G2 Y131.325 I0.765 J1.325
G2 X201.53 Y130.0 I0.765 J-1.325
G1 F30.0 Z-8.0
G2 F300.0 X199.235 Y128.675 I-1.53 J0.0
G2 Y131.325 I0.765 J1.325
G2 X201.53 Y130.0 I0.765 J-1.325
G1 F30.0 Z-10.0
G2 F300.0 X199.235 Y128.675 I-1.53 J0.0
G2 Y131.325 I0.765 J1.325
G2 X201.53 Y130.0 I0.765 J-1.325
G1 F30.0 Z-12.0
G2 F300.0 X199.235 Y128.675 I-1.53 J0.0
G2 Y131.325 I0.765 J1.325
G2 X201.53 Y130.0 I0.765 J-1.325
G1 F30.0 Z-12.5
G2 F300.0 X199.235 Y128.675 I-1.53 J0.0
G2 Y131.325 I0.765 J1.325
G2 X201.53 Y130.0 I0.765 J-1.325
( Profile7 )
S10001
G0 Z3.0
G0 X211.53
G1 F30.0 Z-2.0
G2 F300.0 X209.235 Y128.675 I-1.53 J0.0
G2 Y131.325 I0.765 J1.325
G2 X211.53 Y130.0 I0.765 J-1.325
G1 F30.0 Z-4.0
G2 F300.0 X209.235 Y128.675 I-1.53 J0.0
G2 Y131.325 I0.765 J1.325
G2 X211.53 Y130.0 I0.765 J-1.325
G1 F30.0 Z-6.0
G2 F300.0 X209.235 Y128.675 I-1.53 J0.0
G2 Y131.325 I0.765 J1.325
G2 X211.53 Y130.0 I0.765 J-1.325
G1 F30.0 Z-8.0
G2 F300.0 X209.235 Y128.675 I-1.53 J0.0
G2 Y131.325 I0.765 J1.325
G2 X211.53 Y130.0 I0.765 J-1.325
G1 F30.0 Z-10.0
G2 F300.0 X209.235 Y128.675 I-1.53 J0.0
G2 Y131.325 I0.765 J1.325
G2 X211.53 Y130.0 I0.765 J-1.325
G1 F30.0 Z-12.0
G2 F300.0 X209.235 Y128.675 I-1.53 J0.0
G2 Y131.325 I0.765 J1.325
G2 X211.53 Y130.0 I0.765 J-1.325
G1 F30.0 Z-12.5
G2 F300.0 X209.235 Y128.675 I-1.53 J0.0
G2 Y131.325 I0.765 J1.325
G2 X211.53 Y130.0 I0.765 J-1.325
( Profile8 )
S10001
G0 Z3.0
G0 X221.53
G1 F30.0 Z-2.0
G2 F300.0 X219.235 Y128.675 I-1.53 J0.0
G2 Y131.325 I0.765 J1.325
G2 X221.53 Y130.0 I0.765 J-1.325
G1 F30.0 Z-4.0
G2 F300.0 X219.235 Y128.675 I-1.53 J0.0
G2 Y131.325 I0.765 J1.325
G2 X221.53 Y130.0 I0.765 J-1.325
G1 F30.0 Z-6.0
G2 F300.0 X219.235 Y128.675 I-1.53 J0.0
G2 Y131.325 I0.765 J1.325
G2 X221.53 Y130.0 I0.765 J-1.325
G1 F30.0 Z-8.0
G2 F300.0 X219.235 Y128.675 I-1.53 J0.0
G2 Y131.325 I0.765 J1.325
G2 X221.53 Y130.0 I0.765 J-1.325
G1 F30.0 Z-10.0
G2 F300.0 X219.235 Y128.675 I-1.53 J0.0
G2 Y131.325 I0.765 J1.325
G2 X221.53 Y130.0 I0.765 J-1.325
G1 F30.0 Z-12.0
G2 F300.0 X219.235 Y128.675 I-1.53 J0.0
G2 Y131.325 I0.765 J1.325
G2 X221.53 Y130.0 I0.765 J-1.325
G1 F30.0 Z-12.5
G2 F300.0 X219.235 Y128.675 I-1.53 J0.0
G2 Y131.325 I0.765 J1.325
G2 X221.53 Y130.0 I0.765 J-1.325
( Profile10 )
S10001
G0 Z3.0
G0 X231.53
G1 F30.0 Z-2.0
G2 F300.0 X229.235 Y128.675 I-1.53 J0.0
G2 Y131.325 I0.765 J1.325
G2 X231.53 Y130.0 I0.765 J-1.325
G1 F30.0 Z-4.0
G2 F300.0 X229.235 Y128.675 I-1.53 J0.0
G2 Y131.325 I0.765 J1.325
G2 X231.53 Y130.0 I0.765 J-1.325
G1 F30.0 Z-6.0
G2 F300.0 X229.235 Y128.675 I-1.53 J0.0
G2 Y131.325 I0.765 J1.325
G2 X231.53 Y130.0 I0.765 J-1.325
G1 F30.0 Z-8.0
G2 F300.0 X229.235 Y128.675 I-1.53 J0.0
G2 Y131.325 I0.765 J1.325
G2 X231.53 Y130.0 I0.765 J-1.325
G1 F30.0 Z-10.0
G2 F300.0 X229.235 Y128.675 I-1.53 J0.0
G2 Y131.325 I0.765 J1.325
G2 X231.53 Y130.0 I0.765 J-1.325
G1 F30.0 Z-12.0
G2 F300.0 X229.235 Y128.675 I-1.53 J0.0
G2 Y131.325 I0.765 J1.325
G2 X231.53 Y130.0 I0.765 J-1.325
G1 F30.0 Z-12.5
G2 F300.0 X229.235 Y128.675 I-1.53 J0.0
G2 Y131.325 I0.765 J1.325
G2 X231.53 Y130.0 I0.765 J-1.325
( Profile11 )
S10001
G0 Z3.0
G0 X241.53
G1 F30.0 Z-2.0
G2 F300.0 X239.235 Y128.675 I-1.53 J0.0
G2 Y131.325 I0.765 J1.325
G2 X241.53 Y130.0 I0.765 J-1.325
G1 F30.0 Z-4.0
G2 F300.0 X239.235 Y128.675 I-1.53 J0.0
G2 Y131.325 I0.765 J1.325
G2 X241.53 Y130.0 I0.765 J-1.325
G1 F30.0 Z-6.0
G2 F300.0 X239.235 Y128.675 I-1.53 J0.0
G2 Y131.325 I0.765 J1.325
G2 X241.53 Y130.0 I0.765 J-1.325
G1 F30.0 Z-8.0
G2 F300.0 X239.235 Y128.675 I-1.53 J0.0
G2 Y131.325 I0.765 J1.325
G2 X241.53 Y130.0 I0.765 J-1.325
G1 F30.0 Z-10.0
G2 F300.0 X239.235 Y128.675 I-1.53 J0.0
G2 Y131.325 I0.765 J1.325
G2 X241.53 Y130.0 I0.765 J-1.325
G1 F30.0 Z-12.0
G2 F300.0 X239.235 Y128.675 I-1.53 J0.0
G2 Y131.325 I0.765 J1.325
G2 X241.53 Y130.0 I0.765 J-1.325
G1 F30.0 Z-12.5
G2 F300.0 X239.235 Y128.675 I-1.53 J0.0
G2 Y131.325 I0.765 J1.325
G2 X241.53 Y130.0 I0.765 J-1.325
( Profile12 )
S10001
G0 Z3.0
G0 X251.53
G1 F30.0 Z-2.0
G2 F300.0 X249.235 Y128.675 I-1.53 J0.0
G2 Y131.325 I0.765 J1.325
G2 X251.53 Y130.0 I0.765 J-1.325
G1 F30.0 Z-4.0
G2 F300.0 X249.235 Y128.675 I-1.53 J0.0
G2 Y131.325 I0.765 J1.325
G2 X251.53 Y130.0 I0.765 J-1.325
G1 F30.0 Z-6.0
G2 F300.0 X249.235 Y128.675 I-1.53 J0.0
G2 Y131.325 I0.765 J1.325
G2 X251.53 Y130.0 I0.765 J-1.325
G1 F30.0 Z-8.0
G2 F300.0 X249.235 Y128.675 I-1.53 J0.0
G2 Y131.325 I0.765 J1.325
G2 X251.53 Y130.0 I0.765 J-1.325
G1 F30.0 Z-10.0
G2 F300.0 X249.235 Y128.675 I-1.53 J0.0
G2 Y131.325 I0.765 J1.325
G2 X251.53 Y130.0 I0.765 J-1.325
G1 F30.0 Z-12.0
G2 F300.0 X249.235 Y128.675 I-1.53 J0.0
G2 Y131.325 I0.765 J1.325
G2 X251.53 Y130.0 I0.765 J-1.325
G1 F30.0 Z-12.5
G2 F300.0 X249.235 Y128.675 I-1.53 J0.0
G2 Y131.325 I0.765 J1.325
G2 X251.53 Y130.0 I0.765 J-1.325
( Profile1 )
S10001
G0 Z3.0
G0 X151.53 Y140.0
G1 F30.0 Z-2.0
G2 F300.0 X149.235 Y138.675 I-1.53 J0.0
G2 Y141.325 I0.765 J1.325
G2 X151.53 Y140.0 I0.765 J-1.325
G1 F30.0 Z-4.0
G2 F300.0 X149.235 Y138.675 I-1.53 J0.0
G2 Y141.325 I0.765 J1.325
G2 X151.53 Y140.0 I0.765 J-1.325
G1 F30.0 Z-6.0
G2 F300.0 X149.235 Y138.675 I-1.53 J0.0
G2 Y141.325 I0.765 J1.325
G2 X151.53 Y140.0 I0.765 J-1.325
G1 F30.0 Z-8.0
G2 F300.0 X149.235 Y138.675 I-1.53 J0.0
G2 Y141.325 I0.765 J1.325
G2 X151.53 Y140.0 I0.765 J-1.325
G1 F30.0 Z-10.0
G2 F300.0 X149.235 Y138.675 I-1.53 J0.0
G2 Y141.325 I0.765 J1.325
G2 X151.53 Y140.0 I0.765 J-1.325
G1 F30.0 Z-12.0
G2 F300.0 X149.235 Y138.675 I-1.53 J0.0
G2 Y141.325 I0.765 J1.325
G2 X151.53 Y140.0 I0.765 J-1.325
G1 F30.0 Z-12.5
G2 F300.0 X149.235 Y138.675 I-1.53 J0.0
G2 Y141.325 I0.765 J1.325
G2 X151.53 Y140.0 I0.765 J-1.325
( Profile2 )
S10001
G0 Z3.0
G0 Y150.0
G1 F30.0 Z-2.0
G2 F300.0 X149.235 Y148.675 I-1.53 J0.0
G2 Y151.325 I0.765 J1.325
G2 X151.53 Y150.0 I0.765 J-1.325
G1 F30.0 Z-4.0
G2 F300.0 X149.235 Y148.675 I-1.53 J0.0
G2 Y151.325 I0.765 J1.325
G2 X151.53 Y150.0 I0.765 J-1.325
G1 F30.0 Z-6.0
G2 F300.0 X149.235 Y148.675 I-1.53 J0.0
G2 Y151.325 I0.765 J1.325
G2 X151.53 Y150.0 I0.765 J-1.325
G1 F30.0 Z-8.0
G2 F300.0 X149.235 Y148.675 I-1.53 J0.0
G2 Y151.325 I0.765 J1.325
G2 X151.53 Y150.0 I0.765 J-1.325
G1 F30.0 Z-10.0
G2 F300.0 X149.235 Y148.675 I-1.53 J0.0
G2 Y151.325 I0.765 J1.325
G2 X151.53 Y150.0 I0.765 J-1.325
G1 F30.0 Z-12.0
G2 F300.0 X149.235 Y148.675 I-1.53 J0.0
G2 Y151.325 I0.765 J1.325
G2 X151.53 Y150.0 I0.765 J-1.325
G1 F30.0 Z-12.5
G2 F300.0 X149.235 Y148.675 I-1.53 J0.0
G2 Y151.325 I0.765 J1.325
G2 X151.53 Y150.0 I0.765 J-1.325
( Profile3 )
S10001
G0 Z3.0
G0 Y160.0
G1 F30.0 Z-2.0
G2 F300.0 X149.235 Y158.675 I-1.53 J0.0
G2 Y161.325 I0.765 J1.325
G2 X151.53 Y160.0 I0.765 J-1.325
G1 F30.0 Z-4.0
G2 F300.0 X149.235 Y158.675 I-1.53 J0.0
G2 Y161.325 I0.765 J1.325
G2 X151.53 Y160.0 I0.765 J-1.325
G1 F30.0 Z-6.0
G2 F300.0 X149.235 Y158.675 I-1.53 J0.0
G2 Y161.325 I0.765 J1.325
G2 X151.53 Y160.0 I0.765 J-1.325
G1 F30.0 Z-8.0
G2 F300.0 X149.235 Y158.675 I-1.53 J0.0
G2 Y161.325 I0.765 J1.325
G2 X151.53 Y160.0 I0.765 J-1.325
G1 F30.0 Z-10.0
G2 F300.0 X149.235 Y158.675 I-1.53 J0.0
G2 Y161.325 I0.765 J1.325
G2 X151.53 Y160.0 I0.765 J-1.325
G1 F30.0 Z-12.0
G2 F300.0 X149.235 Y158.675 I-1.53 J0.0
G2 Y161.325 I0.765 J1.325
G2 X151.53 Y160.0 I0.765 J-1.325
G1 F30.0 Z-12.5
G2 F300.0 X149.235 Y158.675 I-1.53 J0.0
G2 Y161.325 I0.765 J1.325
G2 X151.53 Y160.0 I0.765 J-1.325
( Profile4 )
S10001
G0 Z3.0
G0 Y170.0
G1 F30.0 Z-2.0
G2 F300.0 X149.235 Y168.675 I-1.53 J0.0
G2 Y171.325 I0.765 J1.325
G2 X151.53 Y170.0 I0.765 J-1.325
G1 F30.0 Z-4.0
G2 F300.0 X149.235 Y168.675 I-1.53 J0.0
G2 Y171.325 I0.765 J1.325
G2 X151.53 Y170.0 I0.765 J-1.325
G1 F30.0 Z-6.0
G2 F300.0 X149.235 Y168.675 I-1.53 J0.0
G2 Y171.325 I0.765 J1.325
G2 X151.53 Y170.0 I0.765 J-1.325
G1 F30.0 Z-8.0
G2 F300.0 X149.235 Y168.675 I-1.53 J0.0
G2 Y171.325 I0.765 J1.325
G2 X151.53 Y170.0 I0.765 J-1.325
G1 F30.0 Z-10.0
G2 F300.0 X149.235 Y168.675 I-1.53 J0.0
G2 Y171.325 I0.765 J1.325
G2 X151.53 Y170.0 I0.765 J-1.325
G1 F30.0 Z-12.0
G2 F300.0 X149.235 Y168.675 I-1.53 J0.0
G2 Y171.325 I0.765 J1.325
G2 X151.53 Y170.0 I0.765 J-1.325
G1 F30.0 Z-12.5
G2 F300.0 X149.235 Y168.675 I-1.53 J0.0
G2 Y171.325 I0.765 J1.325
G2 X151.53 Y170.0 I0.765 J-1.325
( Profile5 )
S10001
G0 Z3.0
G0 Y180.0
G1 F30.0 Z-2.0
G2 F300.0 X149.235 Y178.675 I-1.53 J0.0
G2 Y181.325 I0.765 J1.325
G2 X151.53 Y180.0 I0.765 J-1.325
G1 F30.0 Z-4.0
G2 F300.0 X149.235 Y178.675 I-1.53 J0.0
G2 Y181.325 I0.765 J1.325
G2 X151.53 Y180.0 I0.765 J-1.325
G1 F30.0 Z-6.0
G2 F300.0 X149.235 Y178.675 I-1.53 J0.0
G2 Y181.325 I0.765 J1.325
G2 X151.53 Y180.0 I0.765 J-1.325
G1 F30.0 Z-8.0
G2 F300.0 X149.235 Y178.675 I-1.53 J0.0
G2 Y181.325 I0.765 J1.325
G2 X151.53 Y180.0 I0.765 J-1.325
G1 F30.0 Z-10.0
G2 F300.0 X149.235 Y178.675 I-1.53 J0.0
G2 Y181.325 I0.765 J1.325
G2 X151.53 Y180.0 I0.765 J-1.325
G1 F30.0 Z-12.0
G2 F300.0 X149.235 Y178.675 I-1.53 J0.0
G2 Y181.325 I0.765 J1.325
G2 X151.53 Y180.0 I0.765 J-1.325
G1 F30.0 Z-12.5
G2 F300.0 X149.235 Y178.675 I-1.53 J0.0
G2 Y181.325 I0.765 J1.325
G2 X151.53 Y180.0 I0.765 J-1.325
( Profile6 )
S10001
G0 Z3.0
G0 Y190.0
G1 F30.0 Z-2.0
G2 F300.0 X149.235 Y188.675 I-1.53 J0.0
G2 Y191.325 I0.765 J1.325
G2 X151.53 Y190.0 I0.765 J-1.325
G1 F30.0 Z-4.0
G2 F300.0 X149.235 Y188.675 I-1.53 J0.0
G2 Y191.325 I0.765 J1.325
G2 X151.53 Y190.0 I0.765 J-1.325
G1 F30.0 Z-6.0
G2 F300.0 X149.235 Y188.675 I-1.53 J0.0
G2 Y191.325 I0.765 J1.325
G2 X151.53 Y190.0 I0.765 J-1.325
G1 F30.0 Z-8.0
G2 F300.0 X149.235 Y188.675 I-1.53 J0.0
G2 Y191.325 I0.765 J1.325
G2 X151.53 Y190.0 I0.765 J-1.325
G1 F30.0 Z-10.0
G2 F300.0 X149.235 Y188.675 I-1.53 J0.0
G2 Y191.325 I0.765 J1.325
G2 X151.53 Y190.0 I0.765 J-1.325
G1 F30.0 Z-12.0
G2 F300.0 X149.235 Y188.675 I-1.53 J0.0
G2 Y191.325 I0.765 J1.325
G2 X151.53 Y190.0 I0.765 J-1.325
G1 F30.0 Z-12.5
G2 F300.0 X149.235 Y188.675 I-1.53 J0.0
G2 Y191.325 I0.765 J1.325
G2 X151.53 Y190.0 I0.765 J-1.325
( Profile7 )
S10001
G0 Z3.0
G0 Y200.0
G1 F30.0 Z-2.0
G2 F300.0 X149.235 Y198.675 I-1.53 J0.0
G2 Y201.325 I0.765 J1.325
G2 X151.53 Y200.0 I0.765 J-1.325
G1 F30.0 Z-4.0
G2 F300.0 X149.235 Y198.675 I-1.53 J0.0
G2 Y201.325 I0.765 J1.325
G2 X151.53 Y200.0 I0.765 J-1.325
G1 F30.0 Z-6.0
G2 F300.0 X149.235 Y198.675 I-1.53 J0.0
G2 Y201.325 I0.765 J1.325
G2 X151.53 Y200.0 I0.765 J-1.325
G1 F30.0 Z-8.0
G2 F300.0 X149.235 Y198.675 I-1.53 J0.0
G2 Y201.325 I0.765 J1.325
G2 X151.53 Y200.0 I0.765 J-1.325
G1 F30.0 Z-10.0
G2 F300.0 X149.235 Y198.675 I-1.53 J0.0
G2 Y201.325 I0.765 J1.325
G2 X151.53 Y200.0 I0.765 J-1.325
G1 F30.0 Z-12.0
G2 F300.0 X149.235 Y198.675 I-1.53 J0.0
G2 Y201.325 I0.765 J1.325
G2 X151.53 Y200.0 I0.765 J-1.325
G1 F30.0 Z-12.5
G2 F300.0 X149.235 Y198.675 I-1.53 J0.0
G2 Y201.325 I0.765 J1.325
G2 X151.53 Y200.0 I0.765 J-1.325
( Profile8 )
S10001
G0 Z3.0
G0 Y210.0
G1 F30.0 Z-2.0
G2 F300.0 X149.235 Y208.675 I-1.53 J0.0
G2 Y211.325 I0.765 J1.325
G2 X151.53 Y210.0 I0.765 J-1.325
G1 F30.0 Z-4.0
G2 F300.0 X149.235 Y208.675 I-1.53 J0.0
G2 Y211.325 I0.765 J1.325
G2 X151.53 Y210.0 I0.765 J-1.325
G1 F30.0 Z-6.0
G2 F300.0 X149.235 Y208.675 I-1.53 J0.0
G2 Y211.325 I0.765 J1.325
G2 X151.53 Y210.0 I0.765 J-1.325
G1 F30.0 Z-8.0
G2 F300.0 X149.235 Y208.675 I-1.53 J0.0
G2 Y211.325 I0.765 J1.325
G2 X151.53 Y210.0 I0.765 J-1.325
G1 F30.0 Z-10.0
G2 F300.0 X149.235 Y208.675 I-1.53 J0.0
G2 Y211.325 I0.765 J1.325
G2 X151.53 Y210.0 I0.765 J-1.325
G1 F30.0 Z-12.0
G2 F300.0 X149.235 Y208.675 I-1.53 J0.0
G2 Y211.325 I0.765 J1.325
G2 X151.53 Y210.0 I0.765 J-1.325
G1 F30.0 Z-12.5
G2 F300.0 X149.235 Y208.675 I-1.53 J0.0
G2 Y211.325 I0.765 J1.325
G2 X151.53 Y210.0 I0.765 J-1.325
( Profile9 )
S10001
G0 Z3.0
G0 Y220.0
G1 F30.0 Z-2.0
G2 F300.0 X149.235 Y218.675 I-1.53 J0.0
G2 Y221.325 I0.765 J1.325
G2 X151.53 Y220.0 I0.765 J-1.325
G1 F30.0 Z-4.0
G2 F300.0 X149.235 Y218.675 I-1.53 J0.0
G2 Y221.325 I0.765 J1.325
G2 X151.53 Y220.0 I0.765 J-1.325
G1 F30.0 Z-6.0
G2 F300.0 X149.235 Y218.675 I-1.53 J0.0
G2 Y221.325 I0.765 J1.325
G2 X151.53 Y220.0 I0.765 J-1.325
G1 F30.0 Z-8.0
G2 F300.0 X149.235 Y218.675 I-1.53 J0.0
G2 Y221.325 I0.765 J1.325
G2 X151.53 Y220.0 I0.765 J-1.325
G1 F30.0 Z-10.0
G2 F300.0 X149.235 Y218.675 I-1.53 J0.0
G2 Y221.325 I0.765 J1.325
G2 X151.53 Y220.0 I0.765 J-1.325
G1 F30.0 Z-12.0
G2 F300.0 X149.235 Y218.675 I-1.53 J0.0
G2 Y221.325 I0.765 J1.325
G2 X151.53 Y220.0 I0.765 J-1.325
G1 F30.0 Z-12.5
G2 F300.0 X149.235 Y218.675 I-1.53 J0.0
G2 Y221.325 I0.765 J1.325
G2 X151.53 Y220.0 I0.765 J-1.325
( Profile10 )
S10001
G0 Z3.0
G0 Y230.0
G1 F30.0 Z-2.0
G2 F300.0 X149.235 Y228.675 I-1.53 J0.0
G2 Y231.325 I0.765 J1.325
G2 X151.53 Y230.0 I0.765 J-1.325
G1 F30.0 Z-4.0
G2 F300.0 X149.235 Y228.675 I-1.53 J0.0
G2 Y231.325 I0.765 J1.325
G2 X151.53 Y230.0 I0.765 J-1.325
G1 F30.0 Z-6.0
G2 F300.0 X149.235 Y228.675 I-1.53 J0.0
G2 Y231.325 I0.765 J1.325
G2 X151.53 Y230.0 I0.765 J-1.325
G1 F30.0 Z-8.0
G2 F300.0 X149.235 Y228.675 I-1.53 J0.0
G2 Y231.325 I0.765 J1.325
G2 X151.53 Y230.0 I0.765 J-1.325
G1 F30.0 Z-10.0
G2 F300.0 X149.235 Y228.675 I-1.53 J0.0
G2 Y231.325 I0.765 J1.325
G2 X151.53 Y230.0 I0.765 J-1.325
G1 F30.0 Z-12.0
G2 F300.0 X149.235 Y228.675 I-1.53 J0.0
G2 Y231.325 I0.765 J1.325
G2 X151.53 Y230.0 I0.765 J-1.325
G1 F30.0 Z-12.5
G2 F300.0 X149.235 Y228.675 I-1.53 J0.0
G2 Y231.325 I0.765 J1.325
G2 X151.53 Y230.0 I0.765 J-1.325
( Profile11 )
S10001
G0 Z3.0
G0 Y240.0
G1 F30.0 Z-2.0
G2 F300.0 X149.235 Y238.675 I-1.53 J0.0
G2 Y241.325 I0.765 J1.325
G2 X151.53 Y240.0 I0.765 J-1.325
G1 F30.0 Z-4.0
G2 F300.0 X149.235 Y238.675 I-1.53 J0.0
G2 Y241.325 I0.765 J1.325
G2 X151.53 Y240.0 I0.765 J-1.325
G1 F30.0 Z-6.0
G2 F300.0 X149.235 Y238.675 I-1.53 J0.0
G2 Y241.325 I0.765 J1.325
G2 X151.53 Y240.0 I0.765 J-1.325
G1 F30.0 Z-8.0
G2 F300.0 X149.235 Y238.675 I-1.53 J0.0
G2 Y241.325 I0.765 J1.325
G2 X151.53 Y240.0 I0.765 J-1.325
G1 F30.0 Z-10.0
G2 F300.0 X149.235 Y238.675 I-1.53 J0.0
G2 Y241.325 I0.765 J1.325
G2 X151.53 Y240.0 I0.765 J-1.325
G1 F30.0 Z-12.0
G2 F300.0 X149.235 Y238.675 I-1.53 J0.0
G2 Y241.325 I0.765 J1.325
G2 X151.53 Y240.0 I0.765 J-1.325
G1 F30.0 Z-12.5
G2 F300.0 X149.235 Y238.675 I-1.53 J0.0
G2 Y241.325 I0.765 J1.325
G2 X151.53 Y240.0 I0.765 J-1.325
( Profile12 )
S10001
G0 Z3.0
G0 Y250.0
G1 F30.0 Z-2.0
G2 F300.0 X149.235 Y248.675 I-1.53 J0.0
G2 Y251.325 I0.765 J1.325
G2 X151.53 Y250.0 I0.765 J-1.325
G1 F30.0 Z-4.0
G2 F300.0 X149.235 Y248.675 I-1.53 J0.0
G2 Y251.325 I0.765 J1.325
G2 X151.53 Y250.0 I0.765 J-1.325
G1 F30.0 Z-6.0
G2 F300.0 X149.235 Y248.675 I-1.53 J0.0
G2 Y251.325 I0.765 J1.325
G2 X151.53 Y250.0 I0.765 J-1.325
G1 F30.0 Z-8.0
G2 F300.0 X149.235 Y248.675 I-1.53 J0.0
G2 Y251.325 I0.765 J1.325
G2 X151.53 Y250.0 I0.765 J-1.325
G1 F30.0 Z-10.0
G2 F300.0 X149.235 Y248.675 I-1.53 J0.0
G2 Y251.325 I0.765 J1.325
G2 X151.53 Y250.0 I0.765 J-1.325
G1 F30.0 Z-12.0
G2 F300.0 X149.235 Y248.675 I-1.53 J0.0
G2 Y251.325 I0.765 J1.325
G2 X151.53 Y250.0 I0.765 J-1.325
G1 F30.0 Z-12.5
G2 F300.0 X149.235 Y248.675 I-1.53 J0.0
G2 Y251.325 I0.765 J1.325
G2 X151.53 Y250.0 I0.765 J-1.325
( Profile13 )
S10001
G0 Z3.0
G0 Y260.0
G1 F30.0 Z-2.0
G2 F300.0 X149.235 Y258.675 I-1.53 J0.0
G2 Y261.325 I0.765 J1.325
G2 X151.53 Y260.0 I0.765 J-1.325
G1 F30.0 Z-4.0
G2 F300.0 X149.235 Y258.675 I-1.53 J0.0
G2 Y261.325 I0.765 J1.325
G2 X151.53 Y260.0 I0.765 J-1.325
G1 F30.0 Z-6.0
G2 F300.0 X149.235 Y258.675 I-1.53 J0.0
G2 Y261.325 I0.765 J1.325
G2 X151.53 Y260.0 I0.765 J-1.325
G1 F30.0 Z-8.0
G2 F300.0 X149.235 Y258.675 I-1.53 J0.0
G2 Y261.325 I0.765 J1.325
G2 X151.53 Y260.0 I0.765 J-1.325
G1 F30.0 Z-10.0
G2 F300.0 X149.235 Y258.675 I-1.53 J0.0
G2 Y261.325 I0.765 J1.325
G2 X151.53 Y260.0 I0.765 J-1.325
G1 F30.0 Z-12.0
G2 F300.0 X149.235 Y258.675 I-1.53 J0.0
G2 Y261.325 I0.765 J1.325
G2 X151.53 Y260.0 I0.765 J-1.325
G1 F30.0 Z-12.5
G2 F300.0 X149.235 Y258.675 I-1.53 J0.0
G2 Y261.325 I0.765 J1.325
G2 X151.53 Y260.0 I0.765 J-1.325
( Profile14 )
S10001
G0 Z3.0
G0 Y270.0
G1 F30.0 Z-2.0
G2 F300.0 X149.235 Y268.675 I-1.53 J0.0
G2 Y271.325 I0.765 J1.325
G2 X151.53 Y270.0 I0.765 J-1.325
G1 F30.0 Z-4.0
G2 F300.0 X149.235 Y268.675 I-1.53 J0.0
G2 Y271.325 I0.765 J1.325
G2 X151.53 Y270.0 I0.765 J-1.325
G1 F30.0 Z-6.0
G2 F300.0 X149.235 Y268.675 I-1.53 J0.0
G2 Y271.325 I0.765 J1.325
G2 X151.53 Y270.0 I0.765 J-1.325
G1 F30.0 Z-8.0
G2 F300.0 X149.235 Y268.675 I-1.53 J0.0
G2 Y271.325 I0.765 J1.325
G2 X151.53 Y270.0 I0.765 J-1.325
G1 F30.0 Z-10.0
G2 F300.0 X149.235 Y268.675 I-1.53 J0.0
G2 Y271.325 I0.765 J1.325
G2 X151.53 Y270.0 I0.765 J-1.325
G1 F30.0 Z-12.0
G2 F300.0 X149.235 Y268.675 I-1.53 J0.0
G2 Y271.325 I0.765 J1.325
G2 X151.53 Y270.0 I0.765 J-1.325
G1 F30.0 Z-12.5
G2 F300.0 X149.235 Y268.675 I-1.53 J0.0
G2 Y271.325 I0.765 J1.325
G2 X151.53 Y270.0 I0.765 J-1.325
( Profile15 )
S10001
G0 Z3.0
G0 Y280.0
G1 F30.0 Z-2.0
G2 F300.0 X149.235 Y278.675 I-1.53 J0.0
G2 Y281.325 I0.765 J1.325
G2 X151.53 Y280.0 I0.765 J-1.325
G1 F30.0 Z-4.0
G2 F300.0 X149.235 Y278.675 I-1.53 J0.0
G2 Y281.325 I0.765 J1.325
G2 X151.53 Y280.0 I0.765 J-1.325
G1 F30.0 Z-6.0
G2 F300.0 X149.235 Y278.675 I-1.53 J0.0
G2 Y281.325 I0.765 J1.325
G2 X151.53 Y280.0 I0.765 J-1.325
G1 F30.0 Z-8.0
G2 F300.0 X149.235 Y278.675 I-1.53 J0.0
G2 Y281.325 I0.765 J1.325
G2 X151.53 Y280.0 I0.765 J-1.325
G1 F30.0 Z-10.0
G2 F300.0 X149.235 Y278.675 I-1.53 J0.0
G2 Y281.325 I0.765 J1.325
G2 X151.53 Y280.0 I0.765 J-1.325
G1 F30.0 Z-12.0
G2 F300.0 X149.235 Y278.675 I-1.53 J0.0
G2 Y281.325 I0.765 J1.325
G2 X151.53 Y280.0 I0.765 J-1.325
G1 F30.0 Z-12.5
G2 F300.0 X149.235 Y278.675 I-1.53 J0.0
G2 Y281.325 I0.765 J1.325
G2 X151.53 Y280.0 I0.765 J-1.325
( Profile1 )
S10001
G0 Z3.0
G0 X135.695 Y167.5
G1 F30.0 Z-2.0
G2 F300.0 X134.6525 Y166.8981 I-0.695 J0.0
G2 Y168.1019 I0.3475 J0.6019
G2 X135.695 Y167.5 I0.3475 J-0.6019
G1 F30.0 Z-4.0
G2 F300.0 X134.6525 Y166.8981 I-0.695 J0.0
G2 Y168.1019 I0.3475 J0.6019
G2 X135.695 Y167.5 I0.3475 J-0.6019
G1 F30.0 Z-6.0
G2 F300.0 X134.6525 Y166.8981 I-0.695 J0.0
G2 Y168.1019 I0.3475 J0.6019
G2 X135.695 Y167.5 I0.3475 J-0.6019
G1 F30.0 Z-8.0
G2 F300.0 X134.6525 Y166.8981 I-0.695 J0.0
G2 Y168.1019 I0.3475 J0.6019
G2 X135.695 Y167.5 I0.3475 J-0.6019
G1 F30.0 Z-10.0
G2 F300.0 X134.6525 Y166.8981 I-0.695 J0.0
G2 Y168.1019 I0.3475 J0.6019
G2 X135.695 Y167.5 I0.3475 J-0.6019
G1 F30.0 Z-12.0
G2 F300.0 X134.6525 Y166.8981 I-0.695 J0.0
G2 Y168.1019 I0.3475 J0.6019
G2 X135.695 Y167.5 I0.3475 J-0.6019
G1 F30.0 Z-14.0
G2 F300.0 X134.6525 Y166.8981 I-0.695 J0.0
G2 Y168.1019 I0.3475 J0.6019
G2 X135.695 Y167.5 I0.3475 J-0.6019
G1 F30.0 Z-16.0
G2 F300.0 X134.6525 Y166.8981 I-0.695 J0.0
G2 Y168.1019 I0.3475 J0.6019
G2 X135.695 Y167.5 I0.3475 J-0.6019
G1 F30.0 Z-18.0
G2 F300.0 X134.6525 Y166.8981 I-0.695 J0.0
G2 Y168.1019 I0.3475 J0.6019
G2 X135.695 Y167.5 I0.3475 J-0.6019
G1 F30.0 Z-20.0
G2 F300.0 X134.6525 Y166.8981 I-0.695 J0.0
G2 Y168.1019 I0.3475 J0.6019
G2 X135.695 Y167.5 I0.3475 J-0.6019
( Profile2 )
S10001
G0 Z3.0
G0 Y242.5
G1 F30.0 Z-2.0
G2 F300.0 X134.6525 Y241.8981 I-0.695 J0.0
G2 Y243.1019 I0.3475 J0.6019
G2 X135.695 Y242.5 I0.3475 J-0.6019
G1 F30.0 Z-4.0
G2 F300.0 X134.6525 Y241.8981 I-0.695 J0.0
G2 Y243.1019 I0.3475 J0.6019
G2 X135.695 Y242.5 I0.3475 J-0.6019
G1 F30.0 Z-6.0
G2 F300.0 X134.6525 Y241.8981 I-0.695 J0.0
G2 Y243.1019 I0.3475 J0.6019
G2 X135.695 Y242.5 I0.3475 J-0.6019
G1 F30.0 Z-8.0
G2 F300.0 X134.6525 Y241.8981 I-0.695 J0.0
G2 Y243.1019 I0.3475 J0.6019
G2 X135.695 Y242.5 I0.3475 J-0.6019
G1 F30.0 Z-10.0
G2 F300.0 X134.6525 Y241.8981 I-0.695 J0.0
G2 Y243.1019 I0.3475 J0.6019
G2 X135.695 Y242.5 I0.3475 J-0.6019
G1 F30.0 Z-12.0
G2 F300.0 X134.6525 Y241.8981 I-0.695 J0.0
G2 Y243.1019 I0.3475 J0.6019
G2 X135.695 Y242.5 I0.3475 J-0.6019
G1 F30.0 Z-14.0
G2 F300.0 X134.6525 Y241.8981 I-0.695 J0.0
G2 Y243.1019 I0.3475 J0.6019
G2 X135.695 Y242.5 I0.3475 J-0.6019
G1 F30.0 Z-16.0
G2 F300.0 X134.6525 Y241.8981 I-0.695 J0.0
G2 Y243.1019 I0.3475 J0.6019
G2 X135.695 Y242.5 I0.3475 J-0.6019
G1 F30.0 Z-18.0
G2 F300.0 X134.6525 Y241.8981 I-0.695 J0.0
G2 Y243.1019 I0.3475 J0.6019
G2 X135.695 Y242.5 I0.3475 J-0.6019
G1 F30.0 Z-20.0
G2 F300.0 X134.6525 Y241.8981 I-0.695 J0.0
G2 Y243.1019 I0.3475 J0.6019
G2 X135.695 Y242.5 I0.3475 J-0.6019
( Profile3 )
S10001
G0 Z3.0
G0 X266.195
G1 F30.0 Z-2.0
G2 F300.0 X265.1525 Y241.8981 I-0.695 J0.0
G2 Y243.1019 I0.3475 J0.6019
G2 X266.195 Y242.5 I0.3475 J-0.6019
G1 F30.0 Z-4.0
G2 F300.0 X265.1525 Y241.8981 I-0.695 J0.0
G2 Y243.1019 I0.3475 J0.6019
G2 X266.195 Y242.5 I0.3475 J-0.6019
G1 F30.0 Z-6.0
G2 F300.0 X265.1525 Y241.8981 I-0.695 J0.0
G2 Y243.1019 I0.3475 J0.6019
G2 X266.195 Y242.5 I0.3475 J-0.6019
G1 F30.0 Z-8.0
G2 F300.0 X265.1525 Y241.8981 I-0.695 J0.0
G2 Y243.1019 I0.3475 J0.6019
G2 X266.195 Y242.5 I0.3475 J-0.6019
G1 F30.0 Z-10.0
G2 F300.0 X265.1525 Y241.8981 I-0.695 J0.0
G2 Y243.1019 I0.3475 J0.6019
G2 X266.195 Y242.5 I0.3475 J-0.6019
G1 F30.0 Z-12.0
G2 F300.0 X265.1525 Y241.8981 I-0.695 J0.0
G2 Y243.1019 I0.3475 J0.6019
G2 X266.195 Y242.5 I0.3475 J-0.6019
G1 F30.0 Z-14.0
G2 F300.0 X265.1525 Y241.8981 I-0.695 J0.0
G2 Y243.1019 I0.3475 J0.6019
G2 X266.195 Y242.5 I0.3475 J-0.6019
G1 F30.0 Z-16.0
G2 F300.0 X265.1525 Y241.8981 I-0.695 J0.0
G2 Y243.1019 I0.3475 J0.6019
G2 X266.195 Y242.5 I0.3475 J-0.6019
G1 F30.0 Z-18.0
G2 F300.0 X265.1525 Y241.8981 I-0.695 J0.0
G2 Y243.1019 I0.3475 J0.6019
G2 X266.195 Y242.5 I0.3475 J-0.6019
G1 F30.0 Z-20.0
G2 F300.0 X265.1525 Y241.8981 I-0.695 J0.0
G2 Y243.1019 I0.3475 J0.6019
G2 X266.195 Y242.5 I0.3475 J-0.6019
( Profile4 )
S10001
G0 Z3.0
G0 Y167.5
G1 F30.0 Z-2.0
G2 F300.0 X265.1525 Y166.8981 I-0.695 J0.0
G2 Y168.1019 I0.3475 J0.6019
G2 X266.195 Y167.5 I0.3475 J-0.6019
G1 F30.0 Z-4.0
G2 F300.0 X265.1525 Y166.8981 I-0.695 J0.0
G2 Y168.1019 I0.3475 J0.6019
G2 X266.195 Y167.5 I0.3475 J-0.6019
G1 F30.0 Z-6.0
G2 F300.0 X265.1525 Y166.8981 I-0.695 J0.0
G2 Y168.1019 I0.3475 J0.6019
G2 X266.195 Y167.5 I0.3475 J-0.6019
G1 F30.0 Z-8.0
G2 F300.0 X265.1525 Y166.8981 I-0.695 J0.0
G2 Y168.1019 I0.3475 J0.6019
G2 X266.195 Y167.5 I0.3475 J-0.6019
G1 F30.0 Z-10.0
G2 F300.0 X265.1525 Y166.8981 I-0.695 J0.0
G2 Y168.1019 I0.3475 J0.6019
G2 X266.195 Y167.5 I0.3475 J-0.6019
G1 F30.0 Z-12.0
G2 F300.0 X265.1525 Y166.8981 I-0.695 J0.0
G2 Y168.1019 I0.3475 J0.6019
G2 X266.195 Y167.5 I0.3475 J-0.6019
G1 F30.0 Z-14.0
G2 F300.0 X265.1525 Y166.8981 I-0.695 J0.0
G2 Y168.1019 I0.3475 J0.6019
G2 X266.195 Y167.5 I0.3475 J-0.6019
G1 F30.0 Z-16.0
G2 F300.0 X265.1525 Y166.8981 I-0.695 J0.0
G2 Y168.1019 I0.3475 J0.6019
G2 X266.195 Y167.5 I0.3475 J-0.6019
G1 F30.0 Z-18.0
G2 F300.0 X265.1525 Y166.8981 I-0.695 J0.0
G2 Y168.1019 I0.3475 J0.6019
G2 X266.195 Y167.5 I0.3475 J-0.6019
G1 F30.0 Z-20.0
G2 F300.0 X265.1525 Y166.8981 I-0.695 J0.0
G2 Y168.1019 I0.3475 J0.6019
G2 X266.195 Y167.5 I0.3475 J-0.6019
( Engrave1 )
G0 Z3.0
( T10 : 0.5 )
T10 M6
M3 S10001
G0 X50.0 Y20.0
G1 F30.0 Z-1.0
G1 F300.0 X150.0
G1 Y95.0
G1 X50.0
G1 Y20.0
( Engrave2 )
S10001
G0 Z3.0
G0 X150.0
G1 F30.0 Z-1.0
G1 F300.0 X250.0
G1 Y95.0
G1 X150.0
G1 Y20.0
( Profile1 )
S10001
G0 Z15.0
M5
M30
